(Project hexa2)
(Created by Estlcam version 11 build 11,244)
(Machining time about 02:25:21 hours)

(Required tools:)
(6mm)

G90
M03 S24000
G00 Z5.0000


(No. 1: Hole 38)
G00 X38.4798 Y70.8510
G00 Z0.5000
G01 Z0.0000 F1500 S24000
G01 Z-1.5000
G01 X40.4622
G01 X35.6000 Y75.3510
G01 X37.5659
G00 Z5.0000
G00 X54.0683 Y61.8510
G00 Z0.5000
G01 Z0.0000
G01 Z-1.5000
G01 X55.8238
G00 Z5.0000
G00 X64.1762
G00 Z0.5000
G01 Z0.0000
G01 Z-1.5000
G01 X65.9317
G00 Z5.0000
G00 X79.5378 Y70.8510
G00 Z0.5000
G01 Z0.0000
G01 Z-1.5000
G01 X81.5202
G01 X82.4341 Y75.3510
G01 X84.4000
G00 Z5.0000
G00 Y97.8510
G00 Z0.5000
G01 Z0.0000
G01 Z-1.5000
G01 X82.4341
G01 X79.5378 Y102.3510
G01 X81.5202
G00 Z5.0000
G00 X65.9317 Y111.3510
G00 Z0.5000
G01 Z0.0000
G01 Z-1.5000
G01 X64.1762
G00 Z5.0000
G00 X55.8238
G00 Z0.5000
G01 Z0.0000
G01 Z-1.5000
G01 X54.0683
G00 Z5.0000
G00 X40.4622 Y102.3510
G00 Z0.5000
G01 Z0.0000
G01 Z-1.5000
G01 X38.4798
G01 X35.6000 Y97.8510
G01 X35.0000 Y97.8020
G01 Y101.0348
G01 X60.0000 Y115.4685
G01 X85.0000 Y101.0348
G01 Y72.1673
G01 X60.0000 Y57.7335
G01 X35.0000 Y72.1673
G01 Y97.8020
G01 X35.6000 Y97.8510
G01 X37.5659
G01 X38.1735 Y97.7203
G03 X81.5477 Y74.9400 I21.8276 J-11.1227
G03 X38.1735 Y97.7203 I-21.5443 J11.6621
G01 X37.5659 Y97.8510
G01 Z-3.0000
G01 X35.6000
G01 X38.4798 Y102.3510
G01 X40.4622
G00 Z5.0000
G00 X54.0683 Y111.3510
G00 Z-1.0000
G01 Z-1.5000
G01 Z-3.0000
G01 X55.8238
G00 Z5.0000
G00 X64.1762
G00 Z-1.0000
G01 Z-1.5000
G01 Z-3.0000
G01 X65.9317
G00 Z5.0000
G00 X79.5378 Y102.3510
G00 Z-1.0000
G01 Z-1.5000
G01 Z-3.0000
G01 X81.5202
G01 X82.4341 Y97.8510
G01 X84.4000
G00 Z5.0000
G00 Y75.3510
G00 Z-1.0000
G01 Z-1.5000
G01 Z-3.0000
G01 X82.4341
G01 X79.5378 Y70.8510
G01 X81.5202
G00 Z5.0000
G00 X65.9317 Y61.8510
G00 Z-1.0000
G01 Z-1.5000
G01 Z-3.0000
G01 X64.1762
G00 Z5.0000
G00 X55.8238
G00 Z-1.0000
G01 Z-1.5000
G01 Z-3.0000
G01 X54.0683
G00 Z5.0000
G00 X40.4622 Y70.8510
G00 Z-1.0000
G01 Z-1.5000
G01 Z-3.0000
G01 X38.4798
G01 X35.6000 Y75.3510
G01 X35.0000 Y75.4000
G01 Y101.0348
G01 X60.0000 Y115.4685
G01 X85.0000 Y101.0348
G01 Y72.1673
G01 X60.0000 Y57.7335
G01 X35.0000 Y72.1673
G01 Y75.4000
G01 X35.6000 Y75.3510
G01 X37.5659
G01 X38.1735 Y75.4818
G03 X82.0112 Y97.3616 I21.8299 J11.1181
G03 X38.1735 Y75.4818 I-22.0101 J-10.7572
G01 X37.5659 Y75.3510
G01 Z-4.5000
G01 X35.6000
G01 X38.4798 Y70.8510
G01 X40.4622
G00 Z5.0000
G00 X54.0683 Y61.8510
G00 Z-2.5000
G01 Z-3.0000
G01 Z-4.5000
G01 X55.8238
G00 Z5.0000
G00 X64.1762
G00 Z-2.5000
G01 Z-3.0000
G01 Z-4.5000
G01 X65.9317
G00 Z5.0000
G00 X79.5378 Y70.8510
G00 Z-2.5000
G01 Z-3.0000
G01 Z-4.5000
G01 X81.5202
G01 X82.4341 Y75.3510
G01 X84.4000
G00 Z5.0000
G00 Y97.8510
G00 Z-2.5000
G01 Z-3.0000
G01 Z-4.5000
G01 X82.4341
G01 X79.5378 Y102.3510
G01 X81.5202
G00 Z5.0000
G00 X65.9317 Y111.3510
G00 Z-2.5000
G01 Z-3.0000
G01 Z-4.5000
G01 X64.1762
G00 Z5.0000
G00 X55.8238
G00 Z-2.5000
G01 Z-3.0000
G01 Z-4.5000
G01 X54.0683
G00 Z5.0000
G00 X40.4622 Y102.3510
G00 Z-2.5000
G01 Z-3.0000
G01 Z-4.5000
G01 X38.4798
G01 X35.6000 Y97.8510
G01 X35.0000 Y97.8020
G01 Y101.0348
G01 X60.0000 Y115.4685
G01 X85.0000 Y101.0348
G01 Y72.1673
G01 X60.0000 Y57.7335
G01 X35.0000 Y72.1673
G01 Y97.8020
G01 X35.6000 Y97.8510
G01 X37.5659
G01 X38.1735 Y97.7203
G03 X81.5477 Y74.9400 I21.8276 J-11.1227
G03 X38.1735 Y97.7203 I-21.5443 J11.6621
G01 X37.5659 Y97.8510
G01 Z-6.0000
G01 X35.6000
G01 X38.4798 Y102.3510
G01 X40.4622
G00 Z5.0000
G00 X54.0683 Y111.3510
G00 Z-4.0000
G01 Z-4.5000
G01 Z-6.0000
G01 X55.8238
G00 Z5.0000
G00 X64.1762
G00 Z-4.0000
G01 Z-4.5000
G01 Z-6.0000
G01 X65.9317
G00 Z5.0000
G00 X79.5378 Y102.3510
G00 Z-4.0000
G01 Z-4.5000
G01 Z-6.0000
G01 X81.5202
G01 X82.4341 Y97.8510
G01 X84.4000
G00 Z5.0000
G00 Y75.3510
G00 Z-4.0000
G01 Z-4.5000
G01 Z-6.0000
G01 X82.4341
G01 X79.5378 Y70.8510
G01 X81.5202
G00 Z5.0000
G00 X65.9317 Y61.8510
G00 Z-4.0000
G01 Z-4.5000
G01 Z-6.0000
G01 X64.1762
G00 Z5.0000
G00 X55.8238
G00 Z-4.0000
G01 Z-4.5000
G01 Z-6.0000
G01 X54.0683
G00 Z5.0000
G00 X40.4622 Y70.8510
G00 Z-4.0000
G01 Z-4.5000
G01 Z-6.0000
G01 X38.4798
G01 X35.6000 Y75.3510
G01 X35.0000 Y75.4000
G01 Y101.0348
G01 X60.0000 Y115.4685
G01 X85.0000 Y101.0348
G01 Y72.1673
G01 X60.0000 Y57.7335
G01 X35.0000 Y72.1673
G01 Y75.4000
G01 X35.6000 Y75.3510
G01 X37.5659
G01 X38.1735 Y75.4818
G03 X82.0112 Y97.3616 I21.8299 J11.1181
G03 X38.1735 Y75.4818 I-22.0101 J-10.7572
G01 X37.5659 Y75.3510
G01 Z-7.5000
G01 X35.6000
G01 X38.4798 Y70.8510
G01 X40.4622
G00 Z5.0000
G00 X54.0683 Y61.8510
G00 Z-5.5000
G01 Z-6.0000
G01 Z-7.5000
G01 X55.8238
G00 Z5.0000
G00 X64.1762
G00 Z-5.5000
G01 Z-6.0000
G01 Z-7.5000
G01 X65.9317
G00 Z5.0000
G00 X79.5378 Y70.8510
G00 Z-5.5000
G01 Z-6.0000
G01 Z-7.5000
G01 X81.5202
G01 X82.4341 Y75.3510
G01 X84.4000
G00 Z5.0000
G00 Y97.8510
G00 Z-5.5000
G01 Z-6.0000
G01 Z-7.5000
G01 X82.4341
G01 X79.5378 Y102.3510
G01 X81.5202
G00 Z5.0000
G00 X65.9317 Y111.3510
G00 Z-5.5000
G01 Z-6.0000
G01 Z-7.5000
G01 X64.1762
G00 Z5.0000
G00 X55.8238
G00 Z-5.5000
G01 Z-6.0000
G01 Z-7.5000
G01 X54.0683
G00 Z5.0000
G00 X40.4622 Y102.3510
G00 Z-5.5000
G01 Z-6.0000
G01 Z-7.5000
G01 X38.4798
G01 X35.6000 Y97.8510
G01 X35.0000 Y97.8020
G01 Y101.0348
G01 X60.0000 Y115.4685
G01 X85.0000 Y101.0348
G01 Y72.1673
G01 X60.0000 Y57.7335
G01 X35.0000 Y72.1673
G01 Y97.8020
G01 X35.6000 Y97.8510
G01 X37.5659
G01 X38.1735 Y97.7203
G03 X81.5477 Y74.9400 I21.8276 J-11.1227
G03 X38.1735 Y97.7203 I-21.5443 J11.6621
G01 X37.5659 Y97.8510
G01 Z-9.0000
G01 X35.6000
G01 X38.4798 Y102.3510
G01 X40.4622
G00 Z5.0000
G00 X54.0683 Y111.3510
G00 Z-7.0000
G01 Z-7.5000
G01 Z-9.0000
G01 X55.8238
G00 Z5.0000
G00 X64.1762
G00 Z-7.0000
G01 Z-7.5000
G01 Z-9.0000
G01 X65.9317
G00 Z5.0000
G00 X79.5378 Y102.3510
G00 Z-7.0000
G01 Z-7.5000
G01 Z-9.0000
G01 X81.5202
G01 X82.4341 Y97.8510
G01 X84.4000
G00 Z5.0000
G00 Y75.3510
G00 Z-7.0000
G01 Z-7.5000
G01 Z-9.0000
G01 X82.4341
G01 X79.5378 Y70.8510
G01 X81.5202
G00 Z5.0000
G00 X65.9317 Y61.8510
G00 Z-7.0000
G01 Z-7.5000
G01 Z-9.0000
G01 X64.1762
G00 Z5.0000
G00 X55.8238
G00 Z-7.0000
G01 Z-7.5000
G01 Z-9.0000
G01 X54.0683
G00 Z5.0000
G00 X40.4622 Y70.8510
G00 Z-7.0000
G01 Z-7.5000
G01 Z-9.0000
G01 X38.4798
G01 X35.6000 Y75.3510
G01 X35.0000 Y75.4000
G01 Y101.0348
G01 X60.0000 Y115.4685
G01 X85.0000 Y101.0348
G01 Y72.1673
G01 X60.0000 Y57.7335
G01 X35.0000 Y72.1673
G01 Y75.4000
G01 X35.6000 Y75.3510
G01 X37.5659
G01 X38.1735 Y75.4818
G03 X82.0112 Y97.3616 I21.8299 J11.1181
G03 X38.1735 Y75.4818 I-22.0101 J-10.7572
G01 X37.5659 Y75.3510
G01 Z-10.5000
G01 X35.6000
G01 X38.4798 Y70.8510
G01 X40.4622
G00 Z5.0000
G00 X54.0683 Y61.8510
G00 Z-8.5000
G01 Z-9.0000
G01 Z-10.5000
G01 X55.8238
G00 Z5.0000
G00 X64.1762
G00 Z-8.5000
G01 Z-9.0000
G01 Z-10.5000
G01 X65.9317
G00 Z5.0000
G00 X79.5378 Y70.8510
G00 Z-8.5000
G01 Z-9.0000
G01 Z-10.5000
G01 X81.5202
G01 X82.4341 Y75.3510
G01 X84.4000
G00 Z5.0000
G00 Y97.8510
G00 Z-8.5000
G01 Z-9.0000
G01 Z-10.5000
G01 X82.4341
G01 X79.5378 Y102.3510
G01 X81.5202
G00 Z5.0000
G00 X65.9317 Y111.3510
G00 Z-8.5000
G01 Z-9.0000
G01 Z-10.5000
G01 X64.1762
G00 Z5.0000
G00 X55.8238
G00 Z-8.5000
G01 Z-9.0000
G01 Z-10.5000
G01 X54.0683
G00 Z5.0000
G00 X40.4622 Y102.3510
G00 Z-8.5000
G01 Z-9.0000
G01 Z-10.5000
G01 X38.4798
G01 X35.6000 Y97.8510
G01 X35.0000 Y97.8020
G01 Y101.0348
G01 X60.0000 Y115.4685
G01 X85.0000 Y101.0348
G01 Y72.1673
G01 X60.0000 Y57.7335
G01 X35.0000 Y72.1673
G01 Y97.8020
G01 X35.6000 Y97.8510
G01 X37.5659
G01 X38.1735 Y97.7203
G03 X81.5477 Y74.9400 I21.8276 J-11.1227
G03 X38.1735 Y97.7203 I-21.5443 J11.6621
G01 X37.5659 Y97.8510
G01 Z-11.5000
G01 X35.6000
G01 X38.4798 Y102.3510
G01 X40.4622
G00 Z5.0000
G00 X54.0683 Y111.3510
G00 Z-10.0000
G01 Z-10.5000
G01 Z-11.5000
G01 X55.8238
G00 Z5.0000
G00 X64.1762
G00 Z-10.0000
G01 Z-10.5000
G01 Z-11.5000
G01 X65.9317
G00 Z5.0000
G00 X79.5378 Y102.3510
G00 Z-10.0000
G01 Z-10.5000
G01 Z-11.5000
G01 X81.5202
G01 X82.4341 Y97.8510
G01 X84.4000
G00 Z5.0000
G00 Y75.3510
G00 Z-10.0000
G01 Z-10.5000
G01 Z-11.5000
G01 X82.4341
G01 X79.5378 Y70.8510
G01 X81.5202
G00 Z5.0000
G00 X65.9317 Y61.8510
G00 Z-10.0000
G01 Z-10.5000
G01 Z-11.5000
G01 X64.1762
G00 Z5.0000
G00 X55.8238
G00 Z-10.0000
G01 Z-10.5000
G01 Z-11.5000
G01 X54.0683
G00 Z5.0000
G00 X40.4622 Y70.8510
G00 Z-10.0000
G01 Z-10.5000
G01 Z-11.5000
G01 X38.4798
G01 X35.6000 Y75.3510
G01 X35.0000 Y75.4000
G01 Y101.0348
G01 X60.0000 Y115.4685
G01 X85.0000 Y101.0348
G01 Y72.1673
G01 X60.0000 Y57.7335
G01 X35.0000 Y72.1673
G01 Y75.4000
G01 X35.6000 Y75.3510
G01 X37.5659
G01 X38.1735 Y75.4818
G03 X82.0112 Y97.3616 I21.8299 J11.1181
G03 X38.1735 Y75.4818 I-22.0101 J-10.7572
G01 X37.5659 Y75.3510
G00 Z5.0000


(No. 2: Hole 3)


(No. 3: Hole 3)
G00 X52.7498 Y76.4195 Z5.0000
G00 Z0.5000
G01 Z0.0000 F1500
G01 Z-1.5000
G02 X54.8077 Y97.9706 I7.2502 J10.1815
G02 X72.4426 Y85.4129 I5.1923 J-11.3696
G02 X52.7498 Y76.4195 I-12.4426 J1.1881
G01 Z-3.0000
G02 X54.8077 Y97.9706 I7.2502 J10.1815
G02 X72.4426 Y85.4129 I5.1923 J-11.3696
G02 X52.7498 Y76.4195 I-12.4426 J1.1881
G01 Z-4.5000
G02 X54.8077 Y97.9706 I7.2502 J10.1815
G02 X72.4426 Y85.4129 I5.1923 J-11.3696
G02 X52.7498 Y76.4195 I-12.4426 J1.1881
G01 Z-6.0000
G02 X54.8077 Y97.9706 I7.2502 J10.1815
G02 X72.4426 Y85.4129 I5.1923 J-11.3696
G02 X52.7498 Y76.4195 I-12.4426 J1.1881
G01 Z-7.5000
G02 X54.8077 Y97.9706 I7.2502 J10.1815
G02 X72.4426 Y85.4129 I5.1923 J-11.3696
G02 X52.7498 Y76.4195 I-12.4426 J1.1881
G01 Z-9.0000
G02 X54.8077 Y97.9706 I7.2502 J10.1815
G02 X72.4426 Y85.4129 I5.1923 J-11.3696
G02 X52.7498 Y76.4195 I-12.4426 J1.1881
G01 Z-10.5000
G02 X54.8077 Y97.9706 I7.2502 J10.1815
G02 X72.4426 Y85.4129 I5.1923 J-11.3696
G02 X52.7498 Y76.4195 I-12.4426 J1.1881
G01 Z-12.0000
G02 X54.8077 Y97.9706 I7.2502 J10.1815
G02 X72.4426 Y85.4129 I5.1923 J-11.3696
G02 X52.7498 Y76.4195 I-12.4426 J1.1881
G01 Z-13.5000
G02 X54.8077 Y97.9706 I7.2502 J10.1815
G02 X72.4426 Y85.4129 I5.1923 J-11.3696
G02 X52.7498 Y76.4195 I-12.4426 J1.1881
G01 Z-15.0000
G02 X54.8077 Y97.9706 I7.2502 J10.1815
G02 X72.4426 Y85.4129 I5.1923 J-11.3696
G02 X52.7498 Y76.4195 I-12.4426 J1.1881
G01 Z-15.5000
G02 X54.8077 Y97.9706 I7.2502 J10.1815
G02 X72.4426 Y85.4129 I5.1923 J-11.3696
G02 X52.7498 Y76.4195 I-12.4426 J1.1881
G00 Z5.0000


(No. 4: Part 7)
G00 X53.9731 Y76.2259 Z5.0000
G00 Z0.5000
G01 Z0.0000 F1500
G01 Z-1.5000
G03 X65.6973 Y97.1608 I6.0269 J10.3751
G03 X49.9094 Y93.0850 I-5.6963 J-10.5507
G03 X49.5167 Y91.6010 I2.6073 J-1.4840
G01 Y81.6010
G03 X50.0767 Y79.8556 I3.0000 J0.0000
G03 X53.9731 Y76.2259 I9.9257 J6.7488
G01 Z-3.0000
G03 X65.6973 Y97.1608 I6.0269 J10.3751
G03 X49.9094 Y93.0850 I-5.6963 J-10.5507
G03 X49.5167 Y91.6010 I2.6073 J-1.4840
G01 Y81.6010
G03 X50.0767 Y79.8556 I3.0000 J0.0000
G03 X53.9731 Y76.2259 I9.9257 J6.7488
G01 Z-4.5000
G03 X65.6973 Y97.1608 I6.0269 J10.3751
G03 X49.9094 Y93.0850 I-5.6963 J-10.5507
G03 X49.5167 Y91.6010 I2.6073 J-1.4840
G01 Y81.6010
G03 X50.0767 Y79.8556 I3.0000 J0.0000
G03 X53.9731 Y76.2259 I9.9257 J6.7488
G01 Z-6.0000
G03 X65.6973 Y97.1608 I6.0269 J10.3751
G03 X49.9094 Y93.0850 I-5.6963 J-10.5507
G03 X49.5167 Y91.6010 I2.6073 J-1.4840
G01 Y81.6010
G03 X50.0767 Y79.8556 I3.0000 J0.0000
G03 X53.9731 Y76.2259 I9.9257 J6.7488
G01 Z-7.5000
G03 X65.6973 Y97.1608 I6.0269 J10.3751
G03 X49.9094 Y93.0850 I-5.6963 J-10.5507
G03 X49.5167 Y91.6010 I2.6073 J-1.4840
G01 Y81.6010
G03 X50.0767 Y79.8556 I3.0000 J0.0000
G03 X53.9731 Y76.2259 I9.9257 J6.7488
G01 Z-9.0000
G03 X65.6973 Y97.1608 I6.0269 J10.3751
G03 X49.9094 Y93.0850 I-5.6963 J-10.5507
G03 X49.5167 Y91.6010 I2.6073 J-1.4840
G01 Y81.6010
G03 X50.0767 Y79.8556 I3.0000 J0.0000
G03 X53.9731 Y76.2259 I9.9257 J6.7488
G01 Z-10.5000
G03 X65.6973 Y97.1608 I6.0269 J10.3751
G03 X49.9094 Y93.0850 I-5.6963 J-10.5507
G03 X49.5167 Y91.6010 I2.6073 J-1.4840
G01 Y81.6010
G03 X50.0767 Y79.8556 I3.0000 J0.0000
G03 X53.9731 Y76.2259 I9.9257 J6.7488
G01 Z-12.0000
G03 X65.6973 Y97.1608 I6.0269 J10.3751
G03 X49.9094 Y93.0850 I-5.6963 J-10.5507
G03 X49.5167 Y91.6010 I2.6073 J-1.4840
G01 Y81.6010
G03 X50.0767 Y79.8556 I3.0000 J0.0000
G03 X53.9731 Y76.2259 I9.9257 J6.7488
G01 Z-13.5000
G03 X65.6973 Y97.1608 I6.0269 J10.3751
G03 X49.9094 Y93.0850 I-5.6963 J-10.5507
G03 X49.5167 Y91.6010 I2.6073 J-1.4840
G01 Y81.6010
G03 X50.0767 Y79.8556 I3.0000 J0.0000
G03 X53.9731 Y76.2259 I9.9257 J6.7488
G01 Z-15.0000
G03 X65.6973 Y97.1608 I6.0269 J10.3751
G03 X49.9094 Y93.0850 I-5.6963 J-10.5507
G03 X49.5167 Y91.6010 I2.6073 J-1.4840
G01 Y81.6010
G03 X50.0767 Y79.8556 I3.0000 J0.0000
G03 X53.9731 Y76.2259 I9.9257 J6.7488
G01 Z-15.5000
G03 X65.6973 Y97.1608 I6.0269 J10.3751
G03 X49.9094 Y93.0850 I-5.6963 J-10.5507
G03 X49.5167 Y91.6010 I2.6073 J-1.4840
G01 Y81.6010
G03 X50.0767 Y79.8556 I3.0000 J0.0000
G03 X53.9731 Y76.2259 I9.9257 J6.7488
G00 Z5.0000


(No. 5: Hole 39)
G00 X35.9317 Y113.8110 Z5.0000
G00 Z0.5000
G01 Z0.0000 F1500
G01 Z-1.5000
G01 X34.1762
G00 Z5.0000
G00 X25.8238
G00 Z0.5000
G01 Z0.0000
G01 Z-1.5000
G01 X24.0683
G00 Z5.0000
G00 X10.4622 Y122.8110
G00 Z0.5000
G01 Z0.0000
G01 Z-1.5000
G01 X8.4798
G01 X5.6000 Y127.3110
G01 X7.5659
G00 Z5.0000
G00 Y149.8110
G00 Z0.5000
G01 Z0.0000
G01 Z-1.5000
G01 X5.6000
G01 X8.4798 Y154.3110
G01 X10.4622
G00 Z5.0000
G00 X24.0683 Y163.3110
G00 Z0.5000
G01 Z0.0000
G01 Z-1.5000
G01 X25.8238
G00 Z5.0000
G00 X34.1762
G00 Z0.5000
G01 Z0.0000
G01 Z-1.5000
G01 X35.9317
G00 Z5.0000
G00 X49.5378 Y154.3110
G00 Z0.5000
G01 Z0.0000
G01 Z-1.5000
G01 X51.5202
G01 X52.4341 Y149.8110
G01 X54.4000
G00 Z5.0000
G00 Y127.3110
G00 Z0.5000
G01 Z0.0000
G01 Z-1.5000
G01 X52.4341
G01 X49.5378 Y122.8110
G01 X49.0387 Y123.1482
G03 X11.3040 Y154.3958 I-19.0390 J15.4165
G03 X49.0387 Y123.1482 I18.6924 J-15.8351
G01 X49.5378 Y122.8110
G01 X51.5202
G01 X51.7842 Y122.2706
G01 X30.0000 Y109.6935
G01 X5.0000 Y124.1273
G01 Y152.9948
G01 X30.0000 Y167.4285
G01 X55.0000 Y152.9948
G01 Y124.1273
G01 X51.7842 Y122.2706
G01 X51.5202 Y122.8110
G01 Z-3.0000
G01 X49.5378
G01 X52.4341 Y127.3110
G01 X54.4000
G00 Z5.0000
G00 Y149.8110
G00 Z-1.0000
G01 Z-1.5000
G01 Z-3.0000
G01 X52.4341
G01 X49.5378 Y154.3110
G01 X51.5202
G00 Z5.0000
G00 X35.9317 Y163.3110
G00 Z-1.0000
G01 Z-1.5000
G01 Z-3.0000
G01 X34.1762
G00 Z5.0000
G00 X25.8238
G00 Z-1.0000
G01 Z-1.5000
G01 Z-3.0000
G01 X24.0683
G00 Z5.0000
G00 X10.4622 Y154.3110
G00 Z-1.0000
G01 Z-1.5000
G01 Z-3.0000
G01 X8.4798
G01 X5.6000 Y149.8110
G01 X7.5659
G00 Z5.0000
G00 Y127.3110
G00 Z-1.0000
G01 Z-1.5000
G01 Z-3.0000
G01 X5.6000
G01 X8.4798 Y122.8110
G01 X10.4622
G00 Z5.0000
G00 X24.0683 Y113.8110
G00 Z-1.0000
G01 Z-1.5000
G01 Z-3.0000
G01 X25.8238
G00 Z5.0000
G00 X34.1762
G00 Z-1.0000
G01 Z-1.5000
G01 Z-3.0000
G01 X34.3745 Y114.4589
G03 X25.9673 Y162.7275 I-4.3725 J24.1049
G03 X34.3745 Y114.4589 I4.0299 J-24.1646
G01 X34.1762 Y113.8110
G01 X35.9317
G01 X36.2462 Y113.2997
G01 X30.0000 Y109.6935
G01 X5.0000 Y124.1273
G01 Y152.9948
G01 X30.0000 Y167.4285
G01 X55.0000 Y152.9948
G01 Y124.1273
G01 X36.2462 Y113.2997
G01 X35.9317 Y113.8110
G01 Z-4.5000
G01 X34.1762
G00 Z5.0000
G00 X25.8238
G00 Z-2.5000
G01 Z-3.0000
G01 Z-4.5000
G01 X24.0683
G00 Z5.0000
G00 X10.4622 Y122.8110
G00 Z-2.5000
G01 Z-3.0000
G01 Z-4.5000
G01 X8.4798
G01 X5.6000 Y127.3110
G01 X7.5659
G00 Z5.0000
G00 Y149.8110
G00 Z-2.5000
G01 Z-3.0000
G01 Z-4.5000
G01 X5.6000
G01 X8.4798 Y154.3110
G01 X10.4622
G00 Z5.0000
G00 X24.0683 Y163.3110
G00 Z-2.5000
G01 Z-3.0000
G01 Z-4.5000
G01 X25.8238
G00 Z5.0000
G00 X34.1762
G00 Z-2.5000
G01 Z-3.0000
G01 Z-4.5000
G01 X35.9317
G00 Z5.0000
G00 X49.5378 Y154.3110
G00 Z-2.5000
G01 Z-3.0000
G01 Z-4.5000
G01 X51.5202
G01 X52.4341 Y149.8110
G01 X54.4000
G00 Z5.0000
G00 Y127.3110
G00 Z-2.5000
G01 Z-3.0000
G01 Z-4.5000
G01 X52.4341
G01 X49.5378 Y122.8110
G01 X49.0387 Y123.1482
G03 X11.3040 Y154.3958 I-19.0390 J15.4165
G03 X49.0387 Y123.1482 I18.6924 J-15.8351
G01 X49.5378 Y122.8110
G01 X51.5202
G01 X51.7842 Y122.2706
G01 X30.0000 Y109.6935
G01 X5.0000 Y124.1273
G01 Y152.9948
G01 X30.0000 Y167.4285
G01 X55.0000 Y152.9948
G01 Y124.1273
G01 X51.7842 Y122.2706
G01 X51.5202 Y122.8110
G01 Z-6.0000
G01 X49.5378
G01 X52.4341 Y127.3110
G01 X54.4000
G00 Z5.0000
G00 Y149.8110
G00 Z-4.0000
G01 Z-4.5000
G01 Z-6.0000
G01 X52.4341
G01 X49.5378 Y154.3110
G01 X51.5202
G00 Z5.0000
G00 X35.9317 Y163.3110
G00 Z-4.0000
G01 Z-4.5000
G01 Z-6.0000
G01 X34.1762
G00 Z5.0000
G00 X25.8238
G00 Z-4.0000
G01 Z-4.5000
G01 Z-6.0000
G01 X24.0683
G00 Z5.0000
G00 X10.4622 Y154.3110
G00 Z-4.0000
G01 Z-4.5000
G01 Z-6.0000
G01 X8.4798
G01 X5.6000 Y149.8110
G01 X7.5659
G00 Z5.0000
G00 Y127.3110
G00 Z-4.0000
G01 Z-4.5000
G01 Z-6.0000
G01 X5.6000
G01 X8.4798 Y122.8110
G01 X10.4622
G00 Z5.0000
G00 X24.0683 Y113.8110
G00 Z-4.0000
G01 Z-4.5000
G01 Z-6.0000
G01 X25.8238
G00 Z5.0000
G00 X34.1762
G00 Z-4.0000
G01 Z-4.5000
G01 Z-6.0000
G01 X34.3745 Y114.4589
G03 X25.9673 Y162.7275 I-4.3725 J24.1049
G03 X34.3745 Y114.4589 I4.0299 J-24.1646
G01 X34.1762 Y113.8110
G01 X35.9317
G01 X36.2462 Y113.2997
G01 X30.0000 Y109.6935
G01 X5.0000 Y124.1273
G01 Y152.9948
G01 X30.0000 Y167.4285
G01 X55.0000 Y152.9948
G01 Y124.1273
G01 X36.2462 Y113.2997
G01 X35.9317 Y113.8110
G01 Z-7.5000
G01 X34.1762
G00 Z5.0000
G00 X25.8238
G00 Z-5.5000
G01 Z-6.0000
G01 Z-7.5000
G01 X24.0683
G00 Z5.0000
G00 X10.4622 Y122.8110
G00 Z-5.5000
G01 Z-6.0000
G01 Z-7.5000
G01 X8.4798
G01 X5.6000 Y127.3110
G01 X7.5659
G00 Z5.0000
G00 Y149.8110
G00 Z-5.5000
G01 Z-6.0000
G01 Z-7.5000
G01 X5.6000
G01 X8.4798 Y154.3110
G01 X10.4622
G00 Z5.0000
G00 X24.0683 Y163.3110
G00 Z-5.5000
G01 Z-6.0000
G01 Z-7.5000
G01 X25.8238
G00 Z5.0000
G00 X34.1762
G00 Z-5.5000
G01 Z-6.0000
G01 Z-7.5000
G01 X35.9317
G00 Z5.0000
G00 X49.5378 Y154.3110
G00 Z-5.5000
G01 Z-6.0000
G01 Z-7.5000
G01 X51.5202
G01 X52.4341 Y149.8110
G01 X54.4000
G00 Z5.0000
G00 Y127.3110
G00 Z-5.5000
G01 Z-6.0000
G01 Z-7.5000
G01 X52.4341
G01 X49.5378 Y122.8110
G01 X49.0387 Y123.1482
G03 X11.3040 Y154.3958 I-19.0390 J15.4165
G03 X49.0387 Y123.1482 I18.6924 J-15.8351
G01 X49.5378 Y122.8110
G01 X51.5202
G01 X51.7842 Y122.2706
G01 X30.0000 Y109.6935
G01 X5.0000 Y124.1273
G01 Y152.9948
G01 X30.0000 Y167.4285
G01 X55.0000 Y152.9948
G01 Y124.1273
G01 X51.7842 Y122.2706
G01 X51.5202 Y122.8110
G01 Z-9.0000
G01 X49.5378
G01 X52.4341 Y127.3110
G01 X54.4000
G00 Z5.0000
G00 Y149.8110
G00 Z-7.0000
G01 Z-7.5000
G01 Z-9.0000
G01 X52.4341
G01 X49.5378 Y154.3110
G01 X51.5202
G00 Z5.0000
G00 X35.9317 Y163.3110
G00 Z-7.0000
G01 Z-7.5000
G01 Z-9.0000
G01 X34.1762
G00 Z5.0000
G00 X25.8238
G00 Z-7.0000
G01 Z-7.5000
G01 Z-9.0000
G01 X24.0683
G00 Z5.0000
G00 X10.4622 Y154.3110
G00 Z-7.0000
G01 Z-7.5000
G01 Z-9.0000
G01 X8.4798
G01 X5.6000 Y149.8110
G01 X7.5659
G00 Z5.0000
G00 Y127.3110
G00 Z-7.0000
G01 Z-7.5000
G01 Z-9.0000
G01 X5.6000
G01 X8.4798 Y122.8110
G01 X10.4622
G00 Z5.0000
G00 X24.0683 Y113.8110
G00 Z-7.0000
G01 Z-7.5000
G01 Z-9.0000
G01 X25.8238
G00 Z5.0000
G00 X34.1762
G00 Z-7.0000
G01 Z-7.5000
G01 Z-9.0000
G01 X34.3745 Y114.4589
G03 X25.9673 Y162.7275 I-4.3725 J24.1049
G03 X34.3745 Y114.4589 I4.0299 J-24.1646
G01 X34.1762 Y113.8110
G01 X35.9317
G01 X36.2462 Y113.2997
G01 X30.0000 Y109.6935
G01 X5.0000 Y124.1273
G01 Y152.9948
G01 X30.0000 Y167.4285
G01 X55.0000 Y152.9948
G01 Y124.1273
G01 X36.2462 Y113.2997
G01 X35.9317 Y113.8110
G01 Z-10.5000
G01 X34.1762
G00 Z5.0000
G00 X25.8238
G00 Z-8.5000
G01 Z-9.0000
G01 Z-10.5000
G01 X24.0683
G00 Z5.0000
G00 X10.4622 Y122.8110
G00 Z-8.5000
G01 Z-9.0000
G01 Z-10.5000
G01 X8.4798
G01 X5.6000 Y127.3110
G01 X7.5659
G00 Z5.0000
G00 Y149.8110
G00 Z-8.5000
G01 Z-9.0000
G01 Z-10.5000
G01 X5.6000
G01 X8.4798 Y154.3110
G01 X10.4622
G00 Z5.0000
G00 X24.0683 Y163.3110
G00 Z-8.5000
G01 Z-9.0000
G01 Z-10.5000
G01 X25.8238
G00 Z5.0000
G00 X34.1762
G00 Z-8.5000
G01 Z-9.0000
G01 Z-10.5000
G01 X35.9317
G00 Z5.0000
G00 X49.5378 Y154.3110
G00 Z-8.5000
G01 Z-9.0000
G01 Z-10.5000
G01 X51.5202
G01 X52.4341 Y149.8110
G01 X54.4000
G00 Z5.0000
G00 Y127.3110
G00 Z-8.5000
G01 Z-9.0000
G01 Z-10.5000
G01 X52.4341
G01 X49.5378 Y122.8110
G01 X49.0387 Y123.1482
G03 X11.3040 Y154.3958 I-19.0390 J15.4165
G03 X49.0387 Y123.1482 I18.6924 J-15.8351
G01 X49.5378 Y122.8110
G01 X51.5202
G01 X51.7842 Y122.2706
G01 X30.0000 Y109.6935
G01 X5.0000 Y124.1273
G01 Y152.9948
G01 X30.0000 Y167.4285
G01 X55.0000 Y152.9948
G01 Y124.1273
G01 X51.7842 Y122.2706
G01 X51.5202 Y122.8110
G01 Z-11.5000
G01 X49.5378
G01 X52.4341 Y127.3110
G01 X54.4000
G00 Z5.0000
G00 Y149.8110
G00 Z-10.0000
G01 Z-10.5000
G01 Z-11.5000
G01 X52.4341
G01 X49.5378 Y154.3110
G01 X51.5202
G00 Z5.0000
G00 X35.9317 Y163.3110
G00 Z-10.0000
G01 Z-10.5000
G01 Z-11.5000
G01 X34.1762
G00 Z5.0000
G00 X25.8238
G00 Z-10.0000
G01 Z-10.5000
G01 Z-11.5000
G01 X24.0683
G00 Z5.0000
G00 X10.4622 Y154.3110
G00 Z-10.0000
G01 Z-10.5000
G01 Z-11.5000
G01 X8.4798
G01 X5.6000 Y149.8110
G01 X7.5659
G00 Z5.0000
G00 Y127.3110
G00 Z-10.0000
G01 Z-10.5000
G01 Z-11.5000
G01 X5.6000
G01 X8.4798 Y122.8110
G01 X10.4622
G00 Z5.0000
G00 X24.0683 Y113.8110
G00 Z-10.0000
G01 Z-10.5000
G01 Z-11.5000
G01 X25.8238
G00 Z5.0000
G00 X34.1762
G00 Z-10.0000
G01 Z-10.5000
G01 Z-11.5000
G01 X34.3745 Y114.4589
G03 X25.9673 Y162.7275 I-4.3725 J24.1049
G03 X34.3745 Y114.4589 I4.0299 J-24.1646
G01 X34.1762 Y113.8110
G01 X35.9317
G01 X36.2462 Y113.2997
G01 X30.0000 Y109.6935
G01 X5.0000 Y124.1273
G01 Y152.9948
G01 X30.0000 Y167.4285
G01 X55.0000 Y152.9948
G01 Y124.1273
G01 X36.2462 Y113.2997
G01 X35.9317 Y113.8110
G00 Z5.0000


(No. 6: Hole 8)


(No. 7: Hole 8)
G00 X27.6345 Y126.2877 Z5.0000
G00 Z0.5000
G01 Z0.0000 F1500
G01 Z-1.5000
G02 X20.5538 Y146.7462 I2.3655 J12.2733
G02 X41.8117 Y142.6491 I9.4462 J-8.1852
G02 X27.6345 Y126.2877 I-11.8117 J-4.0881
G01 Z-3.0000
G02 X20.5538 Y146.7462 I2.3655 J12.2733
G02 X41.8117 Y142.6491 I9.4462 J-8.1852
G02 X27.6345 Y126.2877 I-11.8117 J-4.0881
G01 Z-4.5000
G02 X20.5538 Y146.7462 I2.3655 J12.2733
G02 X41.8117 Y142.6491 I9.4462 J-8.1852
G02 X27.6345 Y126.2877 I-11.8117 J-4.0881
G01 Z-6.0000
G02 X20.5538 Y146.7462 I2.3655 J12.2733
G02 X41.8117 Y142.6491 I9.4462 J-8.1852
G02 X27.6345 Y126.2877 I-11.8117 J-4.0881
G01 Z-7.5000
G02 X20.5538 Y146.7462 I2.3655 J12.2733
G02 X41.8117 Y142.6491 I9.4462 J-8.1852
G02 X27.6345 Y126.2877 I-11.8117 J-4.0881
G01 Z-9.0000
G02 X20.5538 Y146.7462 I2.3655 J12.2733
G02 X41.8117 Y142.6491 I9.4462 J-8.1852
G02 X27.6345 Y126.2877 I-11.8117 J-4.0881
G01 Z-10.5000
G02 X20.5538 Y146.7462 I2.3655 J12.2733
G02 X41.8117 Y142.6491 I9.4462 J-8.1852
G02 X27.6345 Y126.2877 I-11.8117 J-4.0881
G01 Z-12.0000
G02 X20.5538 Y146.7462 I2.3655 J12.2733
G02 X41.8117 Y142.6491 I9.4462 J-8.1852
G02 X27.6345 Y126.2877 I-11.8117 J-4.0881
G01 Z-13.5000
G02 X20.5538 Y146.7462 I2.3655 J12.2733
G02 X41.8117 Y142.6491 I9.4462 J-8.1852
G02 X27.6345 Y126.2877 I-11.8117 J-4.0881
G01 Z-15.0000
G02 X20.5538 Y146.7462 I2.3655 J12.2733
G02 X41.8117 Y142.6491 I9.4462 J-8.1852
G02 X27.6345 Y126.2877 I-11.8117 J-4.0881
G01 Z-15.5000
G02 X20.5538 Y146.7462 I2.3655 J12.2733
G02 X41.8117 Y142.6491 I9.4462 J-8.1852
G02 X27.6345 Y126.2877 I-11.8117 J-4.0881
G00 Z5.0000


(No. 8: Part 8)
G00 X27.5318 Y126.8190 Z5.0000
G00 Z0.5000
G01 Z0.0000 F1500
G01 Z-1.5000
G03 X32.0973 Y150.3749 I2.4682 J11.7420
G03 X19.9094 Y145.0450 I-2.0994 J-11.7992
G03 X19.5167 Y143.5610 I2.6073 J-1.4840
G01 Y133.5610
G03 X20.0767 Y131.8156 I3.0000 J0.0000
G03 X27.5318 Y126.8190 I9.9239 J6.7468
G01 Z-3.0000
G03 X32.0973 Y150.3749 I2.4682 J11.7420
G03 X19.9094 Y145.0450 I-2.0994 J-11.7992
G03 X19.5167 Y143.5610 I2.6073 J-1.4840
G01 Y133.5610
G03 X20.0767 Y131.8156 I3.0000 J0.0000
G03 X27.5318 Y126.8190 I9.9239 J6.7468
G01 Z-4.5000
G03 X32.0973 Y150.3749 I2.4682 J11.7420
G03 X19.9094 Y145.0450 I-2.0994 J-11.7992
G03 X19.5167 Y143.5610 I2.6073 J-1.4840
G01 Y133.5610
G03 X20.0767 Y131.8156 I3.0000 J0.0000
G03 X27.5318 Y126.8190 I9.9239 J6.7468
G01 Z-6.0000
G03 X32.0973 Y150.3749 I2.4682 J11.7420
G03 X19.9094 Y145.0450 I-2.0994 J-11.7992
G03 X19.5167 Y143.5610 I2.6073 J-1.4840
G01 Y133.5610
G03 X20.0767 Y131.8156 I3.0000 J0.0000
G03 X27.5318 Y126.8190 I9.9239 J6.7468
G01 Z-7.5000
G03 X32.0973 Y150.3749 I2.4682 J11.7420
G03 X19.9094 Y145.0450 I-2.0994 J-11.7992
G03 X19.5167 Y143.5610 I2.6073 J-1.4840
G01 Y133.5610
G03 X20.0767 Y131.8156 I3.0000 J0.0000
G03 X27.5318 Y126.8190 I9.9239 J6.7468
G01 Z-9.0000
G03 X32.0973 Y150.3749 I2.4682 J11.7420
G03 X19.9094 Y145.0450 I-2.0994 J-11.7992
G03 X19.5167 Y143.5610 I2.6073 J-1.4840
G01 Y133.5610
G03 X20.0767 Y131.8156 I3.0000 J0.0000
G03 X27.5318 Y126.8190 I9.9239 J6.7468
G01 Z-10.5000
G03 X32.0973 Y150.3749 I2.4682 J11.7420
G03 X19.9094 Y145.0450 I-2.0994 J-11.7992
G03 X19.5167 Y143.5610 I2.6073 J-1.4840
G01 Y133.5610
G03 X20.0767 Y131.8156 I3.0000 J0.0000
G03 X27.5318 Y126.8190 I9.9239 J6.7468
G01 Z-12.0000
G03 X32.0973 Y150.3749 I2.4682 J11.7420
G03 X19.9094 Y145.0450 I-2.0994 J-11.7992
G03 X19.5167 Y143.5610 I2.6073 J-1.4840
G01 Y133.5610
G03 X20.0767 Y131.8156 I3.0000 J0.0000
G03 X27.5318 Y126.8190 I9.9239 J6.7468
G01 Z-13.5000
G03 X32.0973 Y150.3749 I2.4682 J11.7420
G03 X19.9094 Y145.0450 I-2.0994 J-11.7992
G03 X19.5167 Y143.5610 I2.6073 J-1.4840
G01 Y133.5610
G03 X20.0767 Y131.8156 I3.0000 J0.0000
G03 X27.5318 Y126.8190 I9.9239 J6.7468
G01 Z-15.0000
G03 X32.0973 Y150.3749 I2.4682 J11.7420
G03 X19.9094 Y145.0450 I-2.0994 J-11.7992
G03 X19.5167 Y143.5610 I2.6073 J-1.4840
G01 Y133.5610
G03 X20.0767 Y131.8156 I3.0000 J0.0000
G03 X27.5318 Y126.8190 I9.9239 J6.7468
G01 Z-15.5000
G03 X32.0973 Y150.3749 I2.4682 J11.7420
G03 X19.9094 Y145.0450 I-2.0994 J-11.7992
G03 X19.5167 Y143.5610 I2.6073 J-1.4840
G01 Y133.5610
G03 X20.0767 Y131.8156 I3.0000 J0.0000
G03 X27.5318 Y126.8190 I9.9239 J6.7468
G00 Z5.0000


(No. 9: Hole 40)
G00 X65.6000 Y127.3110 Z5.0000
G00 Z0.5000
G01 Z0.0000 F1500
G01 Z-1.5000
G01 X67.5659
G01 X68.4798 Y122.8110
G01 X70.4622
G00 Z5.0000
G00 X84.0683 Y113.8110
G00 Z0.5000
G01 Z0.0000
G01 Z-1.5000
G01 X85.8238
G00 Z5.0000
G00 X94.1762
G00 Z0.5000
G01 Z0.0000
G01 Z-1.5000
G01 X95.9317
G00 Z5.0000
G00 X109.5378 Y122.8110
G00 Z0.5000
G01 Z0.0000
G01 Z-1.5000
G01 X111.5202
G01 X112.4341 Y127.3110
G01 X114.4000
G00 Z5.0000
G00 Y149.8110
G00 Z0.5000
G01 Z0.0000
G01 Z-1.5000
G01 X112.4341
G01 X109.5378 Y154.3110
G01 X111.5202
G00 Z5.0000
G00 X95.9317 Y163.3110
G00 Z0.5000
G01 Z0.0000
G01 Z-1.5000
G01 X94.1762
G00 Z5.0000
G00 X85.8238
G00 Z0.5000
G01 Z0.0000
G01 Z-1.5000
G01 X84.0683
G00 Z5.0000
G00 X70.4622 Y154.3110
G00 Z0.5000
G01 Z0.0000
G01 Z-1.5000
G01 X68.4798
G01 X65.6000 Y149.8110
G01 X65.0000 Y149.7620
G01 Y152.9948
G01 X90.0000 Y167.4285
G01 X115.0000 Y152.9948
G01 Y124.1273
G01 X90.0000 Y109.6935
G01 X65.0000 Y124.1273
G01 Y149.7620
G01 X65.6000 Y149.8110
G01 X67.5659
G01 X68.1735 Y149.6803
G03 X111.5477 Y126.9000 I21.8276 J-11.1227
G03 X68.1735 Y149.6803 I-21.5443 J11.6621
G01 X67.5659 Y149.8110
G01 Z-3.0000
G01 X65.6000
G01 X68.4798 Y154.3110
G01 X70.4622
G00 Z5.0000
G00 X84.0683 Y163.3110
G00 Z-1.0000
G01 Z-1.5000
G01 Z-3.0000
G01 X85.8238
G00 Z5.0000
G00 X94.1762
G00 Z-1.0000
G01 Z-1.5000
G01 Z-3.0000
G01 X95.9317
G00 Z5.0000
G00 X109.5378 Y154.3110
G00 Z-1.0000
G01 Z-1.5000
G01 Z-3.0000
G01 X111.5202
G01 X112.4341 Y149.8110
G01 X114.4000
G00 Z5.0000
G00 Y127.3110
G00 Z-1.0000
G01 Z-1.5000
G01 Z-3.0000
G01 X112.4341
G01 X109.5378 Y122.8110
G01 X111.5202
G00 Z5.0000
G00 X95.9317 Y113.8110
G00 Z-1.0000
G01 Z-1.5000
G01 Z-3.0000
G01 X94.1762
G00 Z5.0000
G00 X85.8238
G00 Z-1.0000
G01 Z-1.5000
G01 Z-3.0000
G01 X84.0683
G00 Z5.0000
G00 X70.4622 Y122.8110
G00 Z-1.0000
G01 Z-1.5000
G01 Z-3.0000
G01 X68.4798
G01 X65.6000 Y127.3110
G01 X65.0000 Y127.3600
G01 Y152.9948
G01 X90.0000 Y167.4285
G01 X115.0000 Y152.9948
G01 Y124.1273
G01 X90.0000 Y109.6935
G01 X65.0000 Y124.1273
G01 Y127.3600
G01 X65.6000 Y127.3110
G01 X67.5659
G01 X68.1735 Y127.4418
G03 X112.0112 Y149.3216 I21.8299 J11.1181
G03 X68.1735 Y127.4418 I-22.0101 J-10.7572
G01 X67.5659 Y127.3110
G01 Z-4.5000
G01 X65.6000
G01 X68.4798 Y122.8110
G01 X70.4622
G00 Z5.0000
G00 X84.0683 Y113.8110
G00 Z-2.5000
G01 Z-3.0000
G01 Z-4.5000
G01 X85.8238
G00 Z5.0000
G00 X94.1762
G00 Z-2.5000
G01 Z-3.0000
G01 Z-4.5000
G01 X95.9317
G00 Z5.0000
G00 X109.5378 Y122.8110
G00 Z-2.5000
G01 Z-3.0000
G01 Z-4.5000
G01 X111.5202
G01 X112.4341 Y127.3110
G01 X114.4000
G00 Z5.0000
G00 Y149.8110
G00 Z-2.5000
G01 Z-3.0000
G01 Z-4.5000
G01 X112.4341
G01 X109.5378 Y154.3110
G01 X111.5202
G00 Z5.0000
G00 X95.9317 Y163.3110
G00 Z-2.5000
G01 Z-3.0000
G01 Z-4.5000
G01 X94.1762
G00 Z5.0000
G00 X85.8238
G00 Z-2.5000
G01 Z-3.0000
G01 Z-4.5000
G01 X84.0683
G00 Z5.0000
G00 X70.4622 Y154.3110
G00 Z-2.5000
G01 Z-3.0000
G01 Z-4.5000
G01 X68.4798
G01 X65.6000 Y149.8110
G01 X65.0000 Y149.7620
G01 Y152.9948
G01 X90.0000 Y167.4285
G01 X115.0000 Y152.9948
G01 Y124.1273
G01 X90.0000 Y109.6935
G01 X65.0000 Y124.1273
G01 Y149.7620
G01 X65.6000 Y149.8110
G01 X67.5659
G01 X68.1735 Y149.6803
G03 X111.5477 Y126.9000 I21.8276 J-11.1227
G03 X68.1735 Y149.6803 I-21.5443 J11.6621
G01 X67.5659 Y149.8110
G01 Z-6.0000
G01 X65.6000
G01 X68.4798 Y154.3110
G01 X70.4622
G00 Z5.0000
G00 X84.0683 Y163.3110
G00 Z-4.0000
G01 Z-4.5000
G01 Z-6.0000
G01 X85.8238
G00 Z5.0000
G00 X94.1762
G00 Z-4.0000
G01 Z-4.5000
G01 Z-6.0000
G01 X95.9317
G00 Z5.0000
G00 X109.5378 Y154.3110
G00 Z-4.0000
G01 Z-4.5000
G01 Z-6.0000
G01 X111.5202
G01 X112.4341 Y149.8110
G01 X114.4000
G00 Z5.0000
G00 Y127.3110
G00 Z-4.0000
G01 Z-4.5000
G01 Z-6.0000
G01 X112.4341
G01 X109.5378 Y122.8110
G01 X111.5202
G00 Z5.0000
G00 X95.9317 Y113.8110
G00 Z-4.0000
G01 Z-4.5000
G01 Z-6.0000
G01 X94.1762
G00 Z5.0000
G00 X85.8238
G00 Z-4.0000
G01 Z-4.5000
G01 Z-6.0000
G01 X84.0683
G00 Z5.0000
G00 X70.4622 Y122.8110
G00 Z-4.0000
G01 Z-4.5000
G01 Z-6.0000
G01 X68.4798
G01 X65.6000 Y127.3110
G01 X65.0000 Y127.3600
G01 Y152.9948
G01 X90.0000 Y167.4285
G01 X115.0000 Y152.9948
G01 Y124.1273
G01 X90.0000 Y109.6935
G01 X65.0000 Y124.1273
G01 Y127.3600
G01 X65.6000 Y127.3110
G01 X67.5659
G01 X68.1735 Y127.4418
G03 X112.0112 Y149.3216 I21.8299 J11.1181
G03 X68.1735 Y127.4418 I-22.0101 J-10.7572
G01 X67.5659 Y127.3110
G01 Z-7.5000
G01 X65.6000
G01 X68.4798 Y122.8110
G01 X70.4622
G00 Z5.0000
G00 X84.0683 Y113.8110
G00 Z-5.5000
G01 Z-6.0000
G01 Z-7.5000
G01 X85.8238
G00 Z5.0000
G00 X94.1762
G00 Z-5.5000
G01 Z-6.0000
G01 Z-7.5000
G01 X95.9317
G00 Z5.0000
G00 X109.5378 Y122.8110
G00 Z-5.5000
G01 Z-6.0000
G01 Z-7.5000
G01 X111.5202
G01 X112.4341 Y127.3110
G01 X114.4000
G00 Z5.0000
G00 Y149.8110
G00 Z-5.5000
G01 Z-6.0000
G01 Z-7.5000
G01 X112.4341
G01 X109.5378 Y154.3110
G01 X111.5202
G00 Z5.0000
G00 X95.9317 Y163.3110
G00 Z-5.5000
G01 Z-6.0000
G01 Z-7.5000
G01 X94.1762
G00 Z5.0000
G00 X85.8238
G00 Z-5.5000
G01 Z-6.0000
G01 Z-7.5000
G01 X84.0683
G00 Z5.0000
G00 X70.4622 Y154.3110
G00 Z-5.5000
G01 Z-6.0000
G01 Z-7.5000
G01 X68.4798
G01 X65.6000 Y149.8110
G01 X65.0000 Y149.7620
G01 Y152.9948
G01 X90.0000 Y167.4285
G01 X115.0000 Y152.9948
G01 Y124.1273
G01 X90.0000 Y109.6935
G01 X65.0000 Y124.1273
G01 Y149.7620
G01 X65.6000 Y149.8110
G01 X67.5659
G01 X68.1735 Y149.6803
G03 X111.5477 Y126.9000 I21.8276 J-11.1227
G03 X68.1735 Y149.6803 I-21.5443 J11.6621
G01 X67.5659 Y149.8110
G01 Z-9.0000
G01 X65.6000
G01 X68.4798 Y154.3110
G01 X70.4622
G00 Z5.0000
G00 X84.0683 Y163.3110
G00 Z-7.0000
G01 Z-7.5000
G01 Z-9.0000
G01 X85.8238
G00 Z5.0000
G00 X94.1762
G00 Z-7.0000
G01 Z-7.5000
G01 Z-9.0000
G01 X95.9317
G00 Z5.0000
G00 X109.5378 Y154.3110
G00 Z-7.0000
G01 Z-7.5000
G01 Z-9.0000
G01 X111.5202
G01 X112.4341 Y149.8110
G01 X114.4000
G00 Z5.0000
G00 Y127.3110
G00 Z-7.0000
G01 Z-7.5000
G01 Z-9.0000
G01 X112.4341
G01 X109.5378 Y122.8110
G01 X111.5202
G00 Z5.0000
G00 X95.9317 Y113.8110
G00 Z-7.0000
G01 Z-7.5000
G01 Z-9.0000
G01 X94.1762
G00 Z5.0000
G00 X85.8238
G00 Z-7.0000
G01 Z-7.5000
G01 Z-9.0000
G01 X84.0683
G00 Z5.0000
G00 X70.4622 Y122.8110
G00 Z-7.0000
G01 Z-7.5000
G01 Z-9.0000
G01 X68.4798
G01 X65.6000 Y127.3110
G01 X65.0000 Y127.3600
G01 Y152.9948
G01 X90.0000 Y167.4285
G01 X115.0000 Y152.9948
G01 Y124.1273
G01 X90.0000 Y109.6935
G01 X65.0000 Y124.1273
G01 Y127.3600
G01 X65.6000 Y127.3110
G01 X67.5659
G01 X68.1735 Y127.4418
G03 X112.0112 Y149.3216 I21.8299 J11.1181
G03 X68.1735 Y127.4418 I-22.0101 J-10.7572
G01 X67.5659 Y127.3110
G01 Z-10.5000
G01 X65.6000
G01 X68.4798 Y122.8110
G01 X70.4622
G00 Z5.0000
G00 X84.0683 Y113.8110
G00 Z-8.5000
G01 Z-9.0000
G01 Z-10.5000
G01 X85.8238
G00 Z5.0000
G00 X94.1762
G00 Z-8.5000
G01 Z-9.0000
G01 Z-10.5000
G01 X95.9317
G00 Z5.0000
G00 X109.5378 Y122.8110
G00 Z-8.5000
G01 Z-9.0000
G01 Z-10.5000
G01 X111.5202
G01 X112.4341 Y127.3110
G01 X114.4000
G00 Z5.0000
G00 Y149.8110
G00 Z-8.5000
G01 Z-9.0000
G01 Z-10.5000
G01 X112.4341
G01 X109.5378 Y154.3110
G01 X111.5202
G00 Z5.0000
G00 X95.9317 Y163.3110
G00 Z-8.5000
G01 Z-9.0000
G01 Z-10.5000
G01 X94.1762
G00 Z5.0000
G00 X85.8238
G00 Z-8.5000
G01 Z-9.0000
G01 Z-10.5000
G01 X84.0683
G00 Z5.0000
G00 X70.4622 Y154.3110
G00 Z-8.5000
G01 Z-9.0000
G01 Z-10.5000
G01 X68.4798
G01 X65.6000 Y149.8110
G01 X65.0000 Y149.7620
G01 Y152.9948
G01 X90.0000 Y167.4285
G01 X115.0000 Y152.9948
G01 Y124.1273
G01 X90.0000 Y109.6935
G01 X65.0000 Y124.1273
G01 Y149.7620
G01 X65.6000 Y149.8110
G01 X67.5659
G01 X68.1735 Y149.6803
G03 X111.5477 Y126.9000 I21.8276 J-11.1227
G03 X68.1735 Y149.6803 I-21.5443 J11.6621
G01 X67.5659 Y149.8110
G01 Z-11.5000
G01 X65.6000
G01 X68.4798 Y154.3110
G01 X70.4622
G00 Z5.0000
G00 X84.0683 Y163.3110
G00 Z-10.0000
G01 Z-10.5000
G01 Z-11.5000
G01 X85.8238
G00 Z5.0000
G00 X94.1762
G00 Z-10.0000
G01 Z-10.5000
G01 Z-11.5000
G01 X95.9317
G00 Z5.0000
G00 X109.5378 Y154.3110
G00 Z-10.0000
G01 Z-10.5000
G01 Z-11.5000
G01 X111.5202
G01 X112.4341 Y149.8110
G01 X114.4000
G00 Z5.0000
G00 Y127.3110
G00 Z-10.0000
G01 Z-10.5000
G01 Z-11.5000
G01 X112.4341
G01 X109.5378 Y122.8110
G01 X111.5202
G00 Z5.0000
G00 X95.9317 Y113.8110
G00 Z-10.0000
G01 Z-10.5000
G01 Z-11.5000
G01 X94.1762
G00 Z5.0000
G00 X85.8238
G00 Z-10.0000
G01 Z-10.5000
G01 Z-11.5000
G01 X84.0683
G00 Z5.0000
G00 X70.4622 Y122.8110
G00 Z-10.0000
G01 Z-10.5000
G01 Z-11.5000
G01 X68.4798
G01 X65.6000 Y127.3110
G01 X65.0000 Y127.3600
G01 Y152.9948
G01 X90.0000 Y167.4285
G01 X115.0000 Y152.9948
G01 Y124.1273
G01 X90.0000 Y109.6935
G01 X65.0000 Y124.1273
G01 Y127.3600
G01 X65.6000 Y127.3110
G01 X67.5659
G01 X68.1735 Y127.4418
G03 X112.0112 Y149.3216 I21.8299 J11.1181
G03 X68.1735 Y127.4418 I-22.0101 J-10.7572
G01 X67.5659 Y127.3110
G00 Z5.0000


(No. 10: Hole 9)


(No. 11: Hole 9)
G00 X83.2424 Y128.0461 Z5.0000
G00 Z0.5000
G01 Z0.0000 F1500
G01 Z-1.5000
G02 X84.2726 Y149.6707 I6.7576 J10.5150
G02 X102.4850 Y137.9663 I5.7274 J-11.1097
G02 X83.2424 Y128.0461 I-12.4850 J0.5947
G01 Z-3.0000
G02 X84.2726 Y149.6707 I6.7576 J10.5150
G02 X102.4850 Y137.9663 I5.7274 J-11.1097
G02 X83.2424 Y128.0461 I-12.4850 J0.5947
G01 Z-4.5000
G02 X84.2726 Y149.6707 I6.7576 J10.5150
G02 X102.4850 Y137.9663 I5.7274 J-11.1097
G02 X83.2424 Y128.0461 I-12.4850 J0.5947
G01 Z-6.0000
G02 X84.2726 Y149.6707 I6.7576 J10.5150
G02 X102.4850 Y137.9663 I5.7274 J-11.1097
G02 X83.2424 Y128.0461 I-12.4850 J0.5947
G01 Z-7.5000
G02 X84.2726 Y149.6707 I6.7576 J10.5150
G02 X102.4850 Y137.9663 I5.7274 J-11.1097
G02 X83.2424 Y128.0461 I-12.4850 J0.5947
G01 Z-9.0000
G02 X84.2726 Y149.6707 I6.7576 J10.5150
G02 X102.4850 Y137.9663 I5.7274 J-11.1097
G02 X83.2424 Y128.0461 I-12.4850 J0.5947
G01 Z-10.5000
G02 X84.2726 Y149.6707 I6.7576 J10.5150
G02 X102.4850 Y137.9663 I5.7274 J-11.1097
G02 X83.2424 Y128.0461 I-12.4850 J0.5947
G01 Z-12.0000
G02 X84.2726 Y149.6707 I6.7576 J10.5150
G02 X102.4850 Y137.9663 I5.7274 J-11.1097
G02 X83.2424 Y128.0461 I-12.4850 J0.5947
G01 Z-13.5000
G02 X84.2726 Y149.6707 I6.7576 J10.5150
G02 X102.4850 Y137.9663 I5.7274 J-11.1097
G02 X83.2424 Y128.0461 I-12.4850 J0.5947
G01 Z-15.0000
G02 X84.2726 Y149.6707 I6.7576 J10.5150
G02 X102.4850 Y137.9663 I5.7274 J-11.1097
G02 X83.2424 Y128.0461 I-12.4850 J0.5947
G01 Z-15.5000
G02 X84.2726 Y149.6707 I6.7576 J10.5150
G02 X102.4850 Y137.9663 I5.7274 J-11.1097
G02 X83.2424 Y128.0461 I-12.4850 J0.5947
G00 Z5.0000


(No. 12: Part 9)
G00 X83.9731 Y128.1859 Z5.0000
G00 Z0.5000
G01 Z0.0000 F1500
G01 Z-1.5000
G03 X95.6973 Y149.1208 I6.0269 J10.3751
G03 X79.8362 Y144.9082 I-5.6939 J-10.5275
G03 X79.5167 Y143.5610 I2.6805 J-1.3472
G01 Y133.5610
G03 X80.0767 Y131.8156 I3.0000 J0.0000
G03 X83.9731 Y128.1859 I9.9257 J6.7488
G01 Z-3.0000
G03 X95.6973 Y149.1208 I6.0269 J10.3751
G03 X79.8362 Y144.9082 I-5.6939 J-10.5275
G03 X79.5167 Y143.5610 I2.6805 J-1.3472
G01 Y133.5610
G03 X80.0767 Y131.8156 I3.0000 J0.0000
G03 X83.9731 Y128.1859 I9.9257 J6.7488
G01 Z-4.5000
G03 X95.6973 Y149.1208 I6.0269 J10.3751
G03 X79.8362 Y144.9082 I-5.6939 J-10.5275
G03 X79.5167 Y143.5610 I2.6805 J-1.3472
G01 Y133.5610
G03 X80.0767 Y131.8156 I3.0000 J0.0000
G03 X83.9731 Y128.1859 I9.9257 J6.7488
G01 Z-6.0000
G03 X95.6973 Y149.1208 I6.0269 J10.3751
G03 X79.8362 Y144.9082 I-5.6939 J-10.5275
G03 X79.5167 Y143.5610 I2.6805 J-1.3472
G01 Y133.5610
G03 X80.0767 Y131.8156 I3.0000 J0.0000
G03 X83.9731 Y128.1859 I9.9257 J6.7488
G01 Z-7.5000
G03 X95.6973 Y149.1208 I6.0269 J10.3751
G03 X79.8362 Y144.9082 I-5.6939 J-10.5275
G03 X79.5167 Y143.5610 I2.6805 J-1.3472
G01 Y133.5610
G03 X80.0767 Y131.8156 I3.0000 J0.0000
G03 X83.9731 Y128.1859 I9.9257 J6.7488
G01 Z-9.0000
G03 X95.6973 Y149.1208 I6.0269 J10.3751
G03 X79.8362 Y144.9082 I-5.6939 J-10.5275
G03 X79.5167 Y143.5610 I2.6805 J-1.3472
G01 Y133.5610
G03 X80.0767 Y131.8156 I3.0000 J0.0000
G03 X83.9731 Y128.1859 I9.9257 J6.7488
G01 Z-10.5000
G03 X95.6973 Y149.1208 I6.0269 J10.3751
G03 X79.8362 Y144.9082 I-5.6939 J-10.5275
G03 X79.5167 Y143.5610 I2.6805 J-1.3472
G01 Y133.5610
G03 X80.0767 Y131.8156 I3.0000 J0.0000
G03 X83.9731 Y128.1859 I9.9257 J6.7488
G01 Z-12.0000
G03 X95.6973 Y149.1208 I6.0269 J10.3751
G03 X79.8362 Y144.9082 I-5.6939 J-10.5275
G03 X79.5167 Y143.5610 I2.6805 J-1.3472
G01 Y133.5610
G03 X80.0767 Y131.8156 I3.0000 J0.0000
G03 X83.9731 Y128.1859 I9.9257 J6.7488
G01 Z-13.5000
G03 X95.6973 Y149.1208 I6.0269 J10.3751
G03 X79.8362 Y144.9082 I-5.6939 J-10.5275
G03 X79.5167 Y143.5610 I2.6805 J-1.3472
G01 Y133.5610
G03 X80.0767 Y131.8156 I3.0000 J0.0000
G03 X83.9731 Y128.1859 I9.9257 J6.7488
G01 Z-15.0000
G03 X95.6973 Y149.1208 I6.0269 J10.3751
G03 X79.8362 Y144.9082 I-5.6939 J-10.5275
G03 X79.5167 Y143.5610 I2.6805 J-1.3472
G01 Y133.5610
G03 X80.0767 Y131.8156 I3.0000 J0.0000
G03 X83.9731 Y128.1859 I9.9257 J6.7488
G01 Z-15.5000
G03 X95.6973 Y149.1208 I6.0269 J10.3751
G03 X79.8362 Y144.9082 I-5.6939 J-10.5275
G03 X79.5167 Y143.5610 I2.6805 J-1.3472
G01 Y133.5610
G03 X80.0767 Y131.8156 I3.0000 J0.0000
G03 X83.9731 Y128.1859 I9.9257 J6.7488
G00 Z5.0000


(No. 13: Hole 49)
G00 X65.9317 Y165.7710 Z5.0000
G00 Z0.5000
G01 Z0.0000 F1500
G01 Z-1.5000
G01 X64.1762
G00 Z5.0000
G00 X55.8238
G00 Z0.5000
G01 Z0.0000
G01 Z-1.5000
G01 X54.0683
G00 Z5.0000
G00 X40.4622 Y174.7710
G00 Z0.5000
G01 Z0.0000
G01 Z-1.5000
G01 X38.4798
G01 X35.6000 Y179.2710
G01 X37.5659
G00 Z5.0000
G00 Y201.7710
G00 Z0.5000
G01 Z0.0000
G01 Z-1.5000
G01 X35.6000
G01 X38.4798 Y206.2710
G01 X40.4622
G00 Z5.0000
G00 X54.0683 Y215.2710
G00 Z0.5000
G01 Z0.0000
G01 Z-1.5000
G01 X55.8238
G00 Z5.0000
G00 X64.1762
G00 Z0.5000
G01 Z0.0000
G01 Z-1.5000
G01 X65.9317
G00 Z5.0000
G00 X79.5378 Y206.2710
G00 Z0.5000
G01 Z0.0000
G01 Z-1.5000
G01 X81.5202
G01 X82.4341 Y201.7710
G01 X84.4000
G00 Z5.0000
G00 Y179.2710
G00 Z0.5000
G01 Z0.0000
G01 Z-1.5000
G01 X82.4341
G01 X79.5378 Y174.7710
G01 X79.0387 Y175.1082
G03 X41.3040 Y206.3558 I-19.0390 J15.4165
G03 X79.0387 Y175.1082 I18.6924 J-15.8351
G01 X79.5378 Y174.7710
G01 X81.5202
G01 X81.7842 Y174.2306
G01 X60.0000 Y161.6535
G01 X35.0000 Y176.0873
G01 Y204.9548
G01 X60.0000 Y219.3885
G01 X85.0000 Y204.9548
G01 Y176.0873
G01 X81.7842 Y174.2306
G01 X81.5202 Y174.7710
G01 Z-3.0000
G01 X79.5378
G01 X82.4341 Y179.2710
G01 X84.4000
G00 Z5.0000
G00 Y201.7710
G00 Z-1.0000
G01 Z-1.5000
G01 Z-3.0000
G01 X82.4341
G01 X79.5378 Y206.2710
G01 X81.5202
G00 Z5.0000
G00 X65.9317 Y215.2710
G00 Z-1.0000
G01 Z-1.5000
G01 Z-3.0000
G01 X64.1762
G00 Z5.0000
G00 X55.8238
G00 Z-1.0000
G01 Z-1.5000
G01 Z-3.0000
G01 X54.0683
G00 Z5.0000
G00 X40.4622 Y206.2710
G00 Z-1.0000
G01 Z-1.5000
G01 Z-3.0000
G01 X38.4798
G01 X35.6000 Y201.7710
G01 X37.5659
G00 Z5.0000
G00 Y179.2710
G00 Z-1.0000
G01 Z-1.5000
G01 Z-3.0000
G01 X35.6000
G01 X38.4798 Y174.7710
G01 X40.4622
G00 Z5.0000
G00 X54.0683 Y165.7710
G00 Z-1.0000
G01 Z-1.5000
G01 Z-3.0000
G01 X55.8238
G00 Z5.0000
G00 X64.1762
G00 Z-1.0000
G01 Z-1.5000
G01 Z-3.0000
G01 X64.3745 Y166.4189
G03 X55.9673 Y214.6875 I-4.3725 J24.1049
G03 X64.3745 Y166.4189 I4.0299 J-24.1646
G01 X64.1762 Y165.7710
G01 X65.9317
G01 X66.2462 Y165.2597
G01 X60.0000 Y161.6535
G01 X35.0000 Y176.0873
G01 Y204.9548
G01 X60.0000 Y219.3885
G01 X85.0000 Y204.9548
G01 Y176.0873
G01 X66.2462 Y165.2597
G01 X65.9317 Y165.7710
G01 Z-4.5000
G01 X64.1762
G00 Z5.0000
G00 X55.8238
G00 Z-2.5000
G01 Z-3.0000
G01 Z-4.5000
G01 X54.0683
G00 Z5.0000
G00 X40.4622 Y174.7710
G00 Z-2.5000
G01 Z-3.0000
G01 Z-4.5000
G01 X38.4798
G01 X35.6000 Y179.2710
G01 X37.5659
G00 Z5.0000
G00 Y201.7710
G00 Z-2.5000
G01 Z-3.0000
G01 Z-4.5000
G01 X35.6000
G01 X38.4798 Y206.2710
G01 X40.4622
G00 Z5.0000
G00 X54.0683 Y215.2710
G00 Z-2.5000
G01 Z-3.0000
G01 Z-4.5000
G01 X55.8238
G00 Z5.0000
G00 X64.1762
G00 Z-2.5000
G01 Z-3.0000
G01 Z-4.5000
G01 X65.9317
G00 Z5.0000
G00 X79.5378 Y206.2710
G00 Z-2.5000
G01 Z-3.0000
G01 Z-4.5000
G01 X81.5202
G01 X82.4341 Y201.7710
G01 X84.4000
G00 Z5.0000
G00 Y179.2710
G00 Z-2.5000
G01 Z-3.0000
G01 Z-4.5000
G01 X82.4341
G01 X79.5378 Y174.7710
G01 X79.0387 Y175.1082
G03 X41.3040 Y206.3558 I-19.0390 J15.4165
G03 X79.0387 Y175.1082 I18.6924 J-15.8351
G01 X79.5378 Y174.7710
G01 X81.5202
G01 X81.7842 Y174.2306
G01 X60.0000 Y161.6535
G01 X35.0000 Y176.0873
G01 Y204.9548
G01 X60.0000 Y219.3885
G01 X85.0000 Y204.9548
G01 Y176.0873
G01 X81.7842 Y174.2306
G01 X81.5202 Y174.7710
G01 Z-6.0000
G01 X79.5378
G01 X82.4341 Y179.2710
G01 X84.4000
G00 Z5.0000
G00 Y201.7710
G00 Z-4.0000
G01 Z-4.5000
G01 Z-6.0000
G01 X82.4341
G01 X79.5378 Y206.2710
G01 X81.5202
G00 Z5.0000
G00 X65.9317 Y215.2710
G00 Z-4.0000
G01 Z-4.5000
G01 Z-6.0000
G01 X64.1762
G00 Z5.0000
G00 X55.8238
G00 Z-4.0000
G01 Z-4.5000
G01 Z-6.0000
G01 X54.0683
G00 Z5.0000
G00 X40.4622 Y206.2710
G00 Z-4.0000
G01 Z-4.5000
G01 Z-6.0000
G01 X38.4798
G01 X35.6000 Y201.7710
G01 X37.5659
G00 Z5.0000
G00 Y179.2710
G00 Z-4.0000
G01 Z-4.5000
G01 Z-6.0000
G01 X35.6000
G01 X38.4798 Y174.7710
G01 X40.4622
G00 Z5.0000
G00 X54.0683 Y165.7710
G00 Z-4.0000
G01 Z-4.5000
G01 Z-6.0000
G01 X55.8238
G00 Z5.0000
G00 X64.1762
G00 Z-4.0000
G01 Z-4.5000
G01 Z-6.0000
G01 X64.3745 Y166.4189
G03 X55.9673 Y214.6875 I-4.3725 J24.1049
G03 X64.3745 Y166.4189 I4.0299 J-24.1646
G01 X64.1762 Y165.7710
G01 X65.9317
G01 X66.2462 Y165.2597
G01 X60.0000 Y161.6535
G01 X35.0000 Y176.0873
G01 Y204.9548
G01 X60.0000 Y219.3885
G01 X85.0000 Y204.9548
G01 Y176.0873
G01 X66.2462 Y165.2597
G01 X65.9317 Y165.7710
G01 Z-7.5000
G01 X64.1762
G00 Z5.0000
G00 X55.8238
G00 Z-5.5000
G01 Z-6.0000
G01 Z-7.5000
G01 X54.0683
G00 Z5.0000
G00 X40.4622 Y174.7710
G00 Z-5.5000
G01 Z-6.0000
G01 Z-7.5000
G01 X38.4798
G01 X35.6000 Y179.2710
G01 X37.5659
G00 Z5.0000
G00 Y201.7710
G00 Z-5.5000
G01 Z-6.0000
G01 Z-7.5000
G01 X35.6000
G01 X38.4798 Y206.2710
G01 X40.4622
G00 Z5.0000
G00 X54.0683 Y215.2710
G00 Z-5.5000
G01 Z-6.0000
G01 Z-7.5000
G01 X55.8238
G00 Z5.0000
G00 X64.1762
G00 Z-5.5000
G01 Z-6.0000
G01 Z-7.5000
G01 X65.9317
G00 Z5.0000
G00 X79.5378 Y206.2710
G00 Z-5.5000
G01 Z-6.0000
G01 Z-7.5000
G01 X81.5202
G01 X82.4341 Y201.7710
G01 X84.4000
G00 Z5.0000
G00 Y179.2710
G00 Z-5.5000
G01 Z-6.0000
G01 Z-7.5000
G01 X82.4341
G01 X79.5378 Y174.7710
G01 X79.0387 Y175.1082
G03 X41.3040 Y206.3558 I-19.0390 J15.4165
G03 X79.0387 Y175.1082 I18.6924 J-15.8351
G01 X79.5378 Y174.7710
G01 X81.5202
G01 X81.7842 Y174.2306
G01 X60.0000 Y161.6535
G01 X35.0000 Y176.0873
G01 Y204.9548
G01 X60.0000 Y219.3885
G01 X85.0000 Y204.9548
G01 Y176.0873
G01 X81.7842 Y174.2306
G01 X81.5202 Y174.7710
G01 Z-9.0000
G01 X79.5378
G01 X82.4341 Y179.2710
G01 X84.4000
G00 Z5.0000
G00 Y201.7710
G00 Z-7.0000
G01 Z-7.5000
G01 Z-9.0000
G01 X82.4341
G01 X79.5378 Y206.2710
G01 X81.5202
G00 Z5.0000
G00 X65.9317 Y215.2710
G00 Z-7.0000
G01 Z-7.5000
G01 Z-9.0000
G01 X64.1762
G00 Z5.0000
G00 X55.8238
G00 Z-7.0000
G01 Z-7.5000
G01 Z-9.0000
G01 X54.0683
G00 Z5.0000
G00 X40.4622 Y206.2710
G00 Z-7.0000
G01 Z-7.5000
G01 Z-9.0000
G01 X38.4798
G01 X35.6000 Y201.7710
G01 X37.5659
G00 Z5.0000
G00 Y179.2710
G00 Z-7.0000
G01 Z-7.5000
G01 Z-9.0000
G01 X35.6000
G01 X38.4798 Y174.7710
G01 X40.4622
G00 Z5.0000
G00 X54.0683 Y165.7710
G00 Z-7.0000
G01 Z-7.5000
G01 Z-9.0000
G01 X55.8238
G00 Z5.0000
G00 X64.1762
G00 Z-7.0000
G01 Z-7.5000
G01 Z-9.0000
G01 X64.3745 Y166.4189
G03 X55.9673 Y214.6875 I-4.3725 J24.1049
G03 X64.3745 Y166.4189 I4.0299 J-24.1646
G01 X64.1762 Y165.7710
G01 X65.9317
G01 X66.2462 Y165.2597
G01 X60.0000 Y161.6535
G01 X35.0000 Y176.0873
G01 Y204.9548
G01 X60.0000 Y219.3885
G01 X85.0000 Y204.9548
G01 Y176.0873
G01 X66.2462 Y165.2597
G01 X65.9317 Y165.7710
G01 Z-10.5000
G01 X64.1762
G00 Z5.0000
G00 X55.8238
G00 Z-8.5000
G01 Z-9.0000
G01 Z-10.5000
G01 X54.0683
G00 Z5.0000
G00 X40.4622 Y174.7710
G00 Z-8.5000
G01 Z-9.0000
G01 Z-10.5000
G01 X38.4798
G01 X35.6000 Y179.2710
G01 X37.5659
G00 Z5.0000
G00 Y201.7710
G00 Z-8.5000
G01 Z-9.0000
G01 Z-10.5000
G01 X35.6000
G01 X38.4798 Y206.2710
G01 X40.4622
G00 Z5.0000
G00 X54.0683 Y215.2710
G00 Z-8.5000
G01 Z-9.0000
G01 Z-10.5000
G01 X55.8238
G00 Z5.0000
G00 X64.1762
G00 Z-8.5000
G01 Z-9.0000
G01 Z-10.5000
G01 X65.9317
G00 Z5.0000
G00 X79.5378 Y206.2710
G00 Z-8.5000
G01 Z-9.0000
G01 Z-10.5000
G01 X81.5202
G01 X82.4341 Y201.7710
G01 X84.4000
G00 Z5.0000
G00 Y179.2710
G00 Z-8.5000
G01 Z-9.0000
G01 Z-10.5000
G01 X82.4341
G01 X79.5378 Y174.7710
G01 X79.0387 Y175.1082
G03 X41.3040 Y206.3558 I-19.0390 J15.4165
G03 X79.0387 Y175.1082 I18.6924 J-15.8351
G01 X79.5378 Y174.7710
G01 X81.5202
G01 X81.7842 Y174.2306
G01 X60.0000 Y161.6535
G01 X35.0000 Y176.0873
G01 Y204.9548
G01 X60.0000 Y219.3885
G01 X85.0000 Y204.9548
G01 Y176.0873
G01 X81.7842 Y174.2306
G01 X81.5202 Y174.7710
G01 Z-11.5000
G01 X79.5378
G01 X82.4341 Y179.2710
G01 X84.4000
G00 Z5.0000
G00 Y201.7710
G00 Z-10.0000
G01 Z-10.5000
G01 Z-11.5000
G01 X82.4341
G01 X79.5378 Y206.2710
G01 X81.5202
G00 Z5.0000
G00 X65.9317 Y215.2710
G00 Z-10.0000
G01 Z-10.5000
G01 Z-11.5000
G01 X64.1762
G00 Z5.0000
G00 X55.8238
G00 Z-10.0000
G01 Z-10.5000
G01 Z-11.5000
G01 X54.0683
G00 Z5.0000
G00 X40.4622 Y206.2710
G00 Z-10.0000
G01 Z-10.5000
G01 Z-11.5000
G01 X38.4798
G01 X35.6000 Y201.7710
G01 X37.5659
G00 Z5.0000
G00 Y179.2710
G00 Z-10.0000
G01 Z-10.5000
G01 Z-11.5000
G01 X35.6000
G01 X38.4798 Y174.7710
G01 X40.4622
G00 Z5.0000
G00 X54.0683 Y165.7710
G00 Z-10.0000
G01 Z-10.5000
G01 Z-11.5000
G01 X55.8238
G00 Z5.0000
G00 X64.1762
G00 Z-10.0000
G01 Z-10.5000
G01 Z-11.5000
G01 X64.3745 Y166.4189
G03 X55.9673 Y214.6875 I-4.3725 J24.1049
G03 X64.3745 Y166.4189 I4.0299 J-24.1646
G01 X64.1762 Y165.7710
G01 X65.9317
G01 X66.2462 Y165.2597
G01 X60.0000 Y161.6535
G01 X35.0000 Y176.0873
G01 Y204.9548
G01 X60.0000 Y219.3885
G01 X85.0000 Y204.9548
G01 Y176.0873
G01 X66.2462 Y165.2597
G01 X65.9317 Y165.7710
G00 Z5.0000


(No. 14: Hole 14)


(No. 15: Hole 14)
G00 X56.4786 Y178.5282 Z5.0000
G00 Z0.5000
G01 Z0.0000 F1500
G01 Z-1.5000
G02 X51.3746 Y199.5671 I3.5214 J11.9928
G02 X72.1468 Y193.4678 I8.6254 J-9.0461
G02 X56.4786 Y178.5282 I-12.1468 J-2.9468
G01 Z-3.0000
G02 X51.3746 Y199.5671 I3.5214 J11.9928
G02 X72.1468 Y193.4678 I8.6254 J-9.0461
G02 X56.4786 Y178.5282 I-12.1468 J-2.9468
G01 Z-4.5000
G02 X51.3746 Y199.5671 I3.5214 J11.9928
G02 X72.1468 Y193.4678 I8.6254 J-9.0461
G02 X56.4786 Y178.5282 I-12.1468 J-2.9468
G01 Z-6.0000
G02 X51.3746 Y199.5671 I3.5214 J11.9928
G02 X72.1468 Y193.4678 I8.6254 J-9.0461
G02 X56.4786 Y178.5282 I-12.1468 J-2.9468
G01 Z-7.5000
G02 X51.3746 Y199.5671 I3.5214 J11.9928
G02 X72.1468 Y193.4678 I8.6254 J-9.0461
G02 X56.4786 Y178.5282 I-12.1468 J-2.9468
G01 Z-9.0000
G02 X51.3746 Y199.5671 I3.5214 J11.9928
G02 X72.1468 Y193.4678 I8.6254 J-9.0461
G02 X56.4786 Y178.5282 I-12.1468 J-2.9468
G01 Z-10.5000
G02 X51.3746 Y199.5671 I3.5214 J11.9928
G02 X72.1468 Y193.4678 I8.6254 J-9.0461
G02 X56.4786 Y178.5282 I-12.1468 J-2.9468
G01 Z-12.0000
G02 X51.3746 Y199.5671 I3.5214 J11.9928
G02 X72.1468 Y193.4678 I8.6254 J-9.0461
G02 X56.4786 Y178.5282 I-12.1468 J-2.9468
G01 Z-13.5000
G02 X51.3746 Y199.5671 I3.5214 J11.9928
G02 X72.1468 Y193.4678 I8.6254 J-9.0461
G02 X56.4786 Y178.5282 I-12.1468 J-2.9468
G01 Z-15.0000
G02 X51.3746 Y199.5671 I3.5214 J11.9928
G02 X72.1468 Y193.4678 I8.6254 J-9.0461
G02 X56.4786 Y178.5282 I-12.1468 J-2.9468
G01 Z-15.5000
G02 X51.3746 Y199.5671 I3.5214 J11.9928
G02 X72.1468 Y193.4678 I8.6254 J-9.0461
G02 X56.4786 Y178.5282 I-12.1468 J-2.9468
G00 Z5.0000


(No. 16: Part 18)
G00 X57.5318 Y178.7790 Z5.0000
G00 Z0.5000
G01 Z0.0000 F1500
G01 Z-1.5000
G03 X62.0973 Y202.3349 I2.4682 J11.7420
G03 X49.9094 Y197.0050 I-2.0994 J-11.7992
G03 X49.5167 Y195.5210 I2.6073 J-1.4840
G01 Y185.5210
G03 X50.0767 Y183.7756 I3.0000 J0.0000
G03 X57.5318 Y178.7790 I9.9239 J6.7468
G01 Z-3.0000
G03 X62.0973 Y202.3349 I2.4682 J11.7420
G03 X49.9094 Y197.0050 I-2.0994 J-11.7992
G03 X49.5167 Y195.5210 I2.6073 J-1.4840
G01 Y185.5210
G03 X50.0767 Y183.7756 I3.0000 J0.0000
G03 X57.5318 Y178.7790 I9.9239 J6.7468
G01 Z-4.5000
G03 X62.0973 Y202.3349 I2.4682 J11.7420
G03 X49.9094 Y197.0050 I-2.0994 J-11.7992
G03 X49.5167 Y195.5210 I2.6073 J-1.4840
G01 Y185.5210
G03 X50.0767 Y183.7756 I3.0000 J0.0000
G03 X57.5318 Y178.7790 I9.9239 J6.7468
G01 Z-6.0000
G03 X62.0973 Y202.3349 I2.4682 J11.7420
G03 X49.9094 Y197.0050 I-2.0994 J-11.7992
G03 X49.5167 Y195.5210 I2.6073 J-1.4840
G01 Y185.5210
G03 X50.0767 Y183.7756 I3.0000 J0.0000
G03 X57.5318 Y178.7790 I9.9239 J6.7468
G01 Z-7.5000
G03 X62.0973 Y202.3349 I2.4682 J11.7420
G03 X49.9094 Y197.0050 I-2.0994 J-11.7992
G03 X49.5167 Y195.5210 I2.6073 J-1.4840
G01 Y185.5210
G03 X50.0767 Y183.7756 I3.0000 J0.0000
G03 X57.5318 Y178.7790 I9.9239 J6.7468
G01 Z-9.0000
G03 X62.0973 Y202.3349 I2.4682 J11.7420
G03 X49.9094 Y197.0050 I-2.0994 J-11.7992
G03 X49.5167 Y195.5210 I2.6073 J-1.4840
G01 Y185.5210
G03 X50.0767 Y183.7756 I3.0000 J0.0000
G03 X57.5318 Y178.7790 I9.9239 J6.7468
G01 Z-10.5000
G03 X62.0973 Y202.3349 I2.4682 J11.7420
G03 X49.9094 Y197.0050 I-2.0994 J-11.7992
G03 X49.5167 Y195.5210 I2.6073 J-1.4840
G01 Y185.5210
G03 X50.0767 Y183.7756 I3.0000 J0.0000
G03 X57.5318 Y178.7790 I9.9239 J6.7468
G01 Z-12.0000
G03 X62.0973 Y202.3349 I2.4682 J11.7420
G03 X49.9094 Y197.0050 I-2.0994 J-11.7992
G03 X49.5167 Y195.5210 I2.6073 J-1.4840
G01 Y185.5210
G03 X50.0767 Y183.7756 I3.0000 J0.0000
G03 X57.5318 Y178.7790 I9.9239 J6.7468
G01 Z-13.5000
G03 X62.0973 Y202.3349 I2.4682 J11.7420
G03 X49.9094 Y197.0050 I-2.0994 J-11.7992
G03 X49.5167 Y195.5210 I2.6073 J-1.4840
G01 Y185.5210
G03 X50.0767 Y183.7756 I3.0000 J0.0000
G03 X57.5318 Y178.7790 I9.9239 J6.7468
G01 Z-15.0000
G03 X62.0973 Y202.3349 I2.4682 J11.7420
G03 X49.9094 Y197.0050 I-2.0994 J-11.7992
G03 X49.5167 Y195.5210 I2.6073 J-1.4840
G01 Y185.5210
G03 X50.0767 Y183.7756 I3.0000 J0.0000
G03 X57.5318 Y178.7790 I9.9239 J6.7468
G01 Z-15.5000
G03 X62.0973 Y202.3349 I2.4682 J11.7420
G03 X49.9094 Y197.0050 I-2.0994 J-11.7992
G03 X49.5167 Y195.5210 I2.6073 J-1.4840
G01 Y185.5210
G03 X50.0767 Y183.7756 I3.0000 J0.0000
G03 X57.5318 Y178.7790 I9.9239 J6.7468
G00 Z5.0000


(No. 17: Hole 48)
G00 X95.6000 Y179.2710 Z5.0000
G00 Z0.5000
G01 Z0.0000 F1500
G01 Z-1.5000
G01 X97.5659
G01 X98.4798 Y174.7710
G01 X100.4622
G00 Z5.0000
G00 X114.0683 Y165.7710
G00 Z0.5000
G01 Z0.0000
G01 Z-1.5000
G01 X115.8238
G00 Z5.0000
G00 X124.1762
G00 Z0.5000
G01 Z0.0000
G01 Z-1.5000
G01 X125.9317
G00 Z5.0000
G00 X139.5378 Y174.7710
G00 Z0.5000
G01 Z0.0000
G01 Z-1.5000
G01 X141.5202
G01 X142.4341 Y179.2710
G01 X144.4000
G00 Z5.0000
G00 Y201.7710
G00 Z0.5000
G01 Z0.0000
G01 Z-1.5000
G01 X142.4341
G01 X139.5378 Y206.2710
G01 X141.5202
G00 Z5.0000
G00 X125.9317 Y215.2710
G00 Z0.5000
G01 Z0.0000
G01 Z-1.5000
G01 X124.1762
G00 Z5.0000
G00 X115.8238
G00 Z0.5000
G01 Z0.0000
G01 Z-1.5000
G01 X114.0683
G00 Z5.0000
G00 X100.4622 Y206.2710
G00 Z0.5000
G01 Z0.0000
G01 Z-1.5000
G01 X98.4798
G01 X95.6000 Y201.7710
G01 X95.0000 Y201.7220
G01 Y204.9548
G01 X120.0000 Y219.3885
G01 X145.0000 Y204.9548
G01 Y176.0873
G01 X120.0000 Y161.6535
G01 X95.0000 Y176.0873
G01 Y201.7220
G01 X95.6000 Y201.7710
G01 X97.5659
G01 X98.1735 Y201.6403
G03 X141.5477 Y178.8600 I21.8276 J-11.1227
G03 X98.1735 Y201.6403 I-21.5443 J11.6621
G01 X97.5659 Y201.7710
G01 Z-3.0000
G01 X95.6000
G01 X98.4798 Y206.2710
G01 X100.4622
G00 Z5.0000
G00 X114.0683 Y215.2710
G00 Z-1.0000
G01 Z-1.5000
G01 Z-3.0000
G01 X115.8238
G00 Z5.0000
G00 X124.1762
G00 Z-1.0000
G01 Z-1.5000
G01 Z-3.0000
G01 X125.9317
G00 Z5.0000
G00 X139.5378 Y206.2710
G00 Z-1.0000
G01 Z-1.5000
G01 Z-3.0000
G01 X141.5202
G01 X142.4341 Y201.7710
G01 X144.4000
G00 Z5.0000
G00 Y179.2710
G00 Z-1.0000
G01 Z-1.5000
G01 Z-3.0000
G01 X142.4341
G01 X139.5378 Y174.7710
G01 X141.5202
G00 Z5.0000
G00 X125.9317 Y165.7710
G00 Z-1.0000
G01 Z-1.5000
G01 Z-3.0000
G01 X124.1762
G00 Z5.0000
G00 X115.8238
G00 Z-1.0000
G01 Z-1.5000
G01 Z-3.0000
G01 X114.0683
G00 Z5.0000
G00 X100.4622 Y174.7710
G00 Z-1.0000
G01 Z-1.5000
G01 Z-3.0000
G01 X98.4798
G01 X95.6000 Y179.2710
G01 X95.0000 Y179.3200
G01 Y204.9548
G01 X120.0000 Y219.3885
G01 X145.0000 Y204.9548
G01 Y176.0873
G01 X120.0000 Y161.6535
G01 X95.0000 Y176.0873
G01 Y179.3200
G01 X95.6000 Y179.2710
G01 X97.5659
G01 X98.1735 Y179.4018
G03 X142.0112 Y201.2816 I21.8299 J11.1181
G03 X98.1735 Y179.4018 I-22.0101 J-10.7572
G01 X97.5659 Y179.2710
G01 Z-4.5000
G01 X95.6000
G01 X98.4798 Y174.7710
G01 X100.4622
G00 Z5.0000
G00 X114.0683 Y165.7710
G00 Z-2.5000
G01 Z-3.0000
G01 Z-4.5000
G01 X115.8238
G00 Z5.0000
G00 X124.1762
G00 Z-2.5000
G01 Z-3.0000
G01 Z-4.5000
G01 X125.9317
G00 Z5.0000
G00 X139.5378 Y174.7710
G00 Z-2.5000
G01 Z-3.0000
G01 Z-4.5000
G01 X141.5202
G01 X142.4341 Y179.2710
G01 X144.4000
G00 Z5.0000
G00 Y201.7710
G00 Z-2.5000
G01 Z-3.0000
G01 Z-4.5000
G01 X142.4341
G01 X139.5378 Y206.2710
G01 X141.5202
G00 Z5.0000
G00 X125.9317 Y215.2710
G00 Z-2.5000
G01 Z-3.0000
G01 Z-4.5000
G01 X124.1762
G00 Z5.0000
G00 X115.8238
G00 Z-2.5000
G01 Z-3.0000
G01 Z-4.5000
G01 X114.0683
G00 Z5.0000
G00 X100.4622 Y206.2710
G00 Z-2.5000
G01 Z-3.0000
G01 Z-4.5000
G01 X98.4798
G01 X95.6000 Y201.7710
G01 X95.0000 Y201.7220
G01 Y204.9548
G01 X120.0000 Y219.3885
G01 X145.0000 Y204.9548
G01 Y176.0873
G01 X120.0000 Y161.6535
G01 X95.0000 Y176.0873
G01 Y201.7220
G01 X95.6000 Y201.7710
G01 X97.5659
G01 X98.1735 Y201.6403
G03 X141.5477 Y178.8600 I21.8276 J-11.1227
G03 X98.1735 Y201.6403 I-21.5443 J11.6621
G01 X97.5659 Y201.7710
G01 Z-6.0000
G01 X95.6000
G01 X98.4798 Y206.2710
G01 X100.4622
G00 Z5.0000
G00 X114.0683 Y215.2710
G00 Z-4.0000
G01 Z-4.5000
G01 Z-6.0000
G01 X115.8238
G00 Z5.0000
G00 X124.1762
G00 Z-4.0000
G01 Z-4.5000
G01 Z-6.0000
G01 X125.9317
G00 Z5.0000
G00 X139.5378 Y206.2710
G00 Z-4.0000
G01 Z-4.5000
G01 Z-6.0000
G01 X141.5202
G01 X142.4341 Y201.7710
G01 X144.4000
G00 Z5.0000
G00 Y179.2710
G00 Z-4.0000
G01 Z-4.5000
G01 Z-6.0000
G01 X142.4341
G01 X139.5378 Y174.7710
G01 X141.5202
G00 Z5.0000
G00 X125.9317 Y165.7710
G00 Z-4.0000
G01 Z-4.5000
G01 Z-6.0000
G01 X124.1762
G00 Z5.0000
G00 X115.8238
G00 Z-4.0000
G01 Z-4.5000
G01 Z-6.0000
G01 X114.0683
G00 Z5.0000
G00 X100.4622 Y174.7710
G00 Z-4.0000
G01 Z-4.5000
G01 Z-6.0000
G01 X98.4798
G01 X95.6000 Y179.2710
G01 X95.0000 Y179.3200
G01 Y204.9548
G01 X120.0000 Y219.3885
G01 X145.0000 Y204.9548
G01 Y176.0873
G01 X120.0000 Y161.6535
G01 X95.0000 Y176.0873
G01 Y179.3200
G01 X95.6000 Y179.2710
G01 X97.5659
G01 X98.1735 Y179.4018
G03 X142.0112 Y201.2816 I21.8299 J11.1181
G03 X98.1735 Y179.4018 I-22.0101 J-10.7572
G01 X97.5659 Y179.2710
G01 Z-7.5000
G01 X95.6000
G01 X98.4798 Y174.7710
G01 X100.4622
G00 Z5.0000
G00 X114.0683 Y165.7710
G00 Z-5.5000
G01 Z-6.0000
G01 Z-7.5000
G01 X115.8238
G00 Z5.0000
G00 X124.1762
G00 Z-5.5000
G01 Z-6.0000
G01 Z-7.5000
G01 X125.9317
G00 Z5.0000
G00 X139.5378 Y174.7710
G00 Z-5.5000
G01 Z-6.0000
G01 Z-7.5000
G01 X141.5202
G01 X142.4341 Y179.2710
G01 X144.4000
G00 Z5.0000
G00 Y201.7710
G00 Z-5.5000
G01 Z-6.0000
G01 Z-7.5000
G01 X142.4341
G01 X139.5378 Y206.2710
G01 X141.5202
G00 Z5.0000
G00 X125.9317 Y215.2710
G00 Z-5.5000
G01 Z-6.0000
G01 Z-7.5000
G01 X124.1762
G00 Z5.0000
G00 X115.8238
G00 Z-5.5000
G01 Z-6.0000
G01 Z-7.5000
G01 X114.0683
G00 Z5.0000
G00 X100.4622 Y206.2710
G00 Z-5.5000
G01 Z-6.0000
G01 Z-7.5000
G01 X98.4798
G01 X95.6000 Y201.7710
G01 X95.0000 Y201.7220
G01 Y204.9548
G01 X120.0000 Y219.3885
G01 X145.0000 Y204.9548
G01 Y176.0873
G01 X120.0000 Y161.6535
G01 X95.0000 Y176.0873
G01 Y201.7220
G01 X95.6000 Y201.7710
G01 X97.5659
G01 X98.1735 Y201.6403
G03 X141.5477 Y178.8600 I21.8276 J-11.1227
G03 X98.1735 Y201.6403 I-21.5443 J11.6621
G01 X97.5659 Y201.7710
G01 Z-9.0000
G01 X95.6000
G01 X98.4798 Y206.2710
G01 X100.4622
G00 Z5.0000
G00 X114.0683 Y215.2710
G00 Z-7.0000
G01 Z-7.5000
G01 Z-9.0000
G01 X115.8238
G00 Z5.0000
G00 X124.1762
G00 Z-7.0000
G01 Z-7.5000
G01 Z-9.0000
G01 X125.9317
G00 Z5.0000
G00 X139.5378 Y206.2710
G00 Z-7.0000
G01 Z-7.5000
G01 Z-9.0000
G01 X141.5202
G01 X142.4341 Y201.7710
G01 X144.4000
G00 Z5.0000
G00 Y179.2710
G00 Z-7.0000
G01 Z-7.5000
G01 Z-9.0000
G01 X142.4341
G01 X139.5378 Y174.7710
G01 X141.5202
G00 Z5.0000
G00 X125.9317 Y165.7710
G00 Z-7.0000
G01 Z-7.5000
G01 Z-9.0000
G01 X124.1762
G00 Z5.0000
G00 X115.8238
G00 Z-7.0000
G01 Z-7.5000
G01 Z-9.0000
G01 X114.0683
G00 Z5.0000
G00 X100.4622 Y174.7710
G00 Z-7.0000
G01 Z-7.5000
G01 Z-9.0000
G01 X98.4798
G01 X95.6000 Y179.2710
G01 X95.0000 Y179.3200
G01 Y204.9548
G01 X120.0000 Y219.3885
G01 X145.0000 Y204.9548
G01 Y176.0873
G01 X120.0000 Y161.6535
G01 X95.0000 Y176.0873
G01 Y179.3200
G01 X95.6000 Y179.2710
G01 X97.5659
G01 X98.1735 Y179.4018
G03 X142.0112 Y201.2816 I21.8299 J11.1181
G03 X98.1735 Y179.4018 I-22.0101 J-10.7572
G01 X97.5659 Y179.2710
G01 Z-10.5000
G01 X95.6000
G01 X98.4798 Y174.7710
G01 X100.4622
G00 Z5.0000
G00 X114.0683 Y165.7710
G00 Z-8.5000
G01 Z-9.0000
G01 Z-10.5000
G01 X115.8238
G00 Z5.0000
G00 X124.1762
G00 Z-8.5000
G01 Z-9.0000
G01 Z-10.5000
G01 X125.9317
G00 Z5.0000
G00 X139.5378 Y174.7710
G00 Z-8.5000
G01 Z-9.0000
G01 Z-10.5000
G01 X141.5202
G01 X142.4341 Y179.2710
G01 X144.4000
G00 Z5.0000
G00 Y201.7710
G00 Z-8.5000
G01 Z-9.0000
G01 Z-10.5000
G01 X142.4341
G01 X139.5378 Y206.2710
G01 X141.5202
G00 Z5.0000
G00 X125.9317 Y215.2710
G00 Z-8.5000
G01 Z-9.0000
G01 Z-10.5000
G01 X124.1762
G00 Z5.0000
G00 X115.8238
G00 Z-8.5000
G01 Z-9.0000
G01 Z-10.5000
G01 X114.0683
G00 Z5.0000
G00 X100.4622 Y206.2710
G00 Z-8.5000
G01 Z-9.0000
G01 Z-10.5000
G01 X98.4798
G01 X95.6000 Y201.7710
G01 X95.0000 Y201.7220
G01 Y204.9548
G01 X120.0000 Y219.3885
G01 X145.0000 Y204.9548
G01 Y176.0873
G01 X120.0000 Y161.6535
G01 X95.0000 Y176.0873
G01 Y201.7220
G01 X95.6000 Y201.7710
G01 X97.5659
G01 X98.1735 Y201.6403
G03 X141.5477 Y178.8600 I21.8276 J-11.1227
G03 X98.1735 Y201.6403 I-21.5443 J11.6621
G01 X97.5659 Y201.7710
G01 Z-11.5000
G01 X95.6000
G01 X98.4798 Y206.2710
G01 X100.4622
G00 Z5.0000
G00 X114.0683 Y215.2710
G00 Z-10.0000
G01 Z-10.5000
G01 Z-11.5000
G01 X115.8238
G00 Z5.0000
G00 X124.1762
G00 Z-10.0000
G01 Z-10.5000
G01 Z-11.5000
G01 X125.9317
G00 Z5.0000
G00 X139.5378 Y206.2710
G00 Z-10.0000
G01 Z-10.5000
G01 Z-11.5000
G01 X141.5202
G01 X142.4341 Y201.7710
G01 X144.4000
G00 Z5.0000
G00 Y179.2710
G00 Z-10.0000
G01 Z-10.5000
G01 Z-11.5000
G01 X142.4341
G01 X139.5378 Y174.7710
G01 X141.5202
G00 Z5.0000
G00 X125.9317 Y165.7710
G00 Z-10.0000
G01 Z-10.5000
G01 Z-11.5000
G01 X124.1762
G00 Z5.0000
G00 X115.8238
G00 Z-10.0000
G01 Z-10.5000
G01 Z-11.5000
G01 X114.0683
G00 Z5.0000
G00 X100.4622 Y174.7710
G00 Z-10.0000
G01 Z-10.5000
G01 Z-11.5000
G01 X98.4798
G01 X95.6000 Y179.2710
G01 X95.0000 Y179.3200
G01 Y204.9548
G01 X120.0000 Y219.3885
G01 X145.0000 Y204.9548
G01 Y176.0873
G01 X120.0000 Y161.6535
G01 X95.0000 Y176.0873
G01 Y179.3200
G01 X95.6000 Y179.2710
G01 X97.5659
G01 X98.1735 Y179.4018
G03 X142.0112 Y201.2816 I21.8299 J11.1181
G03 X98.1735 Y179.4018 I-22.0101 J-10.7572
G01 X97.5659 Y179.2710
G00 Z5.0000


(No. 18: Hole 15)


(No. 19: Hole 15)
G00 X113.2424 Y180.0061 Z5.0000
G00 Z0.5000
G01 Z0.0000 F1500
G01 Z-1.5000
G02 X114.2726 Y201.6307 I6.7576 J10.5150
G02 X132.4850 Y189.9263 I5.7274 J-11.1097
G02 X113.2424 Y180.0061 I-12.4850 J0.5947
G01 Z-3.0000
G02 X114.2726 Y201.6307 I6.7576 J10.5150
G02 X132.4850 Y189.9263 I5.7274 J-11.1097
G02 X113.2424 Y180.0061 I-12.4850 J0.5947
G01 Z-4.5000
G02 X114.2726 Y201.6307 I6.7576 J10.5150
G02 X132.4850 Y189.9263 I5.7274 J-11.1097
G02 X113.2424 Y180.0061 I-12.4850 J0.5947
G01 Z-6.0000
G02 X114.2726 Y201.6307 I6.7576 J10.5150
G02 X132.4850 Y189.9263 I5.7274 J-11.1097
G02 X113.2424 Y180.0061 I-12.4850 J0.5947
G01 Z-7.5000
G02 X114.2726 Y201.6307 I6.7576 J10.5150
G02 X132.4850 Y189.9263 I5.7274 J-11.1097
G02 X113.2424 Y180.0061 I-12.4850 J0.5947
G01 Z-9.0000
G02 X114.2726 Y201.6307 I6.7576 J10.5150
G02 X132.4850 Y189.9263 I5.7274 J-11.1097
G02 X113.2424 Y180.0061 I-12.4850 J0.5947
G01 Z-10.5000
G02 X114.2726 Y201.6307 I6.7576 J10.5150
G02 X132.4850 Y189.9263 I5.7274 J-11.1097
G02 X113.2424 Y180.0061 I-12.4850 J0.5947
G01 Z-12.0000
G02 X114.2726 Y201.6307 I6.7576 J10.5150
G02 X132.4850 Y189.9263 I5.7274 J-11.1097
G02 X113.2424 Y180.0061 I-12.4850 J0.5947
G01 Z-13.5000
G02 X114.2726 Y201.6307 I6.7576 J10.5150
G02 X132.4850 Y189.9263 I5.7274 J-11.1097
G02 X113.2424 Y180.0061 I-12.4850 J0.5947
G01 Z-15.0000
G02 X114.2726 Y201.6307 I6.7576 J10.5150
G02 X132.4850 Y189.9263 I5.7274 J-11.1097
G02 X113.2424 Y180.0061 I-12.4850 J0.5947
G01 Z-15.5000
G02 X114.2726 Y201.6307 I6.7576 J10.5150
G02 X132.4850 Y189.9263 I5.7274 J-11.1097
G02 X113.2424 Y180.0061 I-12.4850 J0.5947
G00 Z5.0000


(No. 20: Part 17)
G00 X114.6470 Y179.7827 Z5.0000
G00 Z0.5000
G01 Z0.0000 F1500
G01 Z-1.5000
G03 X125.0123 Y201.4226 I5.3530 J10.7383
G03 X109.8362 Y196.8682 I-5.0105 J-10.8659
G03 X109.5167 Y195.5210 I2.6805 J-1.3472
G01 Y185.5210
G03 X110.0767 Y183.7756 I3.0000 J0.0000
G03 X114.6470 Y179.7827 I9.9250 J6.7480
G01 Z-3.0000
G03 X125.0123 Y201.4226 I5.3530 J10.7383
G03 X109.8362 Y196.8682 I-5.0105 J-10.8659
G03 X109.5167 Y195.5210 I2.6805 J-1.3472
G01 Y185.5210
G03 X110.0767 Y183.7756 I3.0000 J0.0000
G03 X114.6470 Y179.7827 I9.9250 J6.7480
G01 Z-4.5000
G03 X125.0123 Y201.4226 I5.3530 J10.7383
G03 X109.8362 Y196.8682 I-5.0105 J-10.8659
G03 X109.5167 Y195.5210 I2.6805 J-1.3472
G01 Y185.5210
G03 X110.0767 Y183.7756 I3.0000 J0.0000
G03 X114.6470 Y179.7827 I9.9250 J6.7480
G01 Z-6.0000
G03 X125.0123 Y201.4226 I5.3530 J10.7383
G03 X109.8362 Y196.8682 I-5.0105 J-10.8659
G03 X109.5167 Y195.5210 I2.6805 J-1.3472
G01 Y185.5210
G03 X110.0767 Y183.7756 I3.0000 J0.0000
G03 X114.6470 Y179.7827 I9.9250 J6.7480
G01 Z-7.5000
G03 X125.0123 Y201.4226 I5.3530 J10.7383
G03 X109.8362 Y196.8682 I-5.0105 J-10.8659
G03 X109.5167 Y195.5210 I2.6805 J-1.3472
G01 Y185.5210
G03 X110.0767 Y183.7756 I3.0000 J0.0000
G03 X114.6470 Y179.7827 I9.9250 J6.7480
G01 Z-9.0000
G03 X125.0123 Y201.4226 I5.3530 J10.7383
G03 X109.8362 Y196.8682 I-5.0105 J-10.8659
G03 X109.5167 Y195.5210 I2.6805 J-1.3472
G01 Y185.5210
G03 X110.0767 Y183.7756 I3.0000 J0.0000
G03 X114.6470 Y179.7827 I9.9250 J6.7480
G01 Z-10.5000
G03 X125.0123 Y201.4226 I5.3530 J10.7383
G03 X109.8362 Y196.8682 I-5.0105 J-10.8659
G03 X109.5167 Y195.5210 I2.6805 J-1.3472
G01 Y185.5210
G03 X110.0767 Y183.7756 I3.0000 J0.0000
G03 X114.6470 Y179.7827 I9.9250 J6.7480
G01 Z-12.0000
G03 X125.0123 Y201.4226 I5.3530 J10.7383
G03 X109.8362 Y196.8682 I-5.0105 J-10.8659
G03 X109.5167 Y195.5210 I2.6805 J-1.3472
G01 Y185.5210
G03 X110.0767 Y183.7756 I3.0000 J0.0000
G03 X114.6470 Y179.7827 I9.9250 J6.7480
G01 Z-13.5000
G03 X125.0123 Y201.4226 I5.3530 J10.7383
G03 X109.8362 Y196.8682 I-5.0105 J-10.8659
G03 X109.5167 Y195.5210 I2.6805 J-1.3472
G01 Y185.5210
G03 X110.0767 Y183.7756 I3.0000 J0.0000
G03 X114.6470 Y179.7827 I9.9250 J6.7480
G01 Z-15.0000
G03 X125.0123 Y201.4226 I5.3530 J10.7383
G03 X109.8362 Y196.8682 I-5.0105 J-10.8659
G03 X109.5167 Y195.5210 I2.6805 J-1.3472
G01 Y185.5210
G03 X110.0767 Y183.7756 I3.0000 J0.0000
G03 X114.6470 Y179.7827 I9.9250 J6.7480
G01 Z-15.5000
G03 X125.0123 Y201.4226 I5.3530 J10.7383
G03 X109.8362 Y196.8682 I-5.0105 J-10.8659
G03 X109.5167 Y195.5210 I2.6805 J-1.3472
G01 Y185.5210
G03 X110.0767 Y183.7756 I3.0000 J0.0000
G03 X114.6470 Y179.7827 I9.9250 J6.7480
G00 Z5.0000


(No. 21: Hole 51)
G00 X95.9317 Y217.7310 Z5.0000
G00 Z0.5000
G01 Z0.0000 F1500
G01 Z-1.5000
G01 X94.1762
G00 Z5.0000
G00 X85.8238
G00 Z0.5000
G01 Z0.0000
G01 Z-1.5000
G01 X84.0683
G00 Z5.0000
G00 X70.4622 Y226.7310
G00 Z0.5000
G01 Z0.0000
G01 Z-1.5000
G01 X68.4798
G01 X65.6000 Y231.2310
G01 X67.5659
G00 Z5.0000
G00 Y253.7310
G00 Z0.5000
G01 Z0.0000
G01 Z-1.5000
G01 X65.6000
G01 X68.4798 Y258.2310
G01 X70.4622
G00 Z5.0000
G00 X84.0683 Y267.2310
G00 Z0.5000
G01 Z0.0000
G01 Z-1.5000
G01 X85.8238
G00 Z5.0000
G00 X94.1762
G00 Z0.5000
G01 Z0.0000
G01 Z-1.5000
G01 X95.9317
G00 Z5.0000
G00 X109.5378 Y258.2310
G00 Z0.5000
G01 Z0.0000
G01 Z-1.5000
G01 X111.5202
G01 X112.4341 Y253.7310
G01 X114.4000
G00 Z5.0000
G00 Y231.2310
G00 Z0.5000
G01 Z0.0000
G01 Z-1.5000
G01 X112.4341
G01 X109.5378 Y226.7310
G01 X109.0387 Y227.0682
G03 X71.3040 Y258.3158 I-19.0390 J15.4165
G03 X109.0387 Y227.0682 I18.6924 J-15.8351
G01 X109.5378 Y226.7310
G01 X111.5202
G01 X111.7842 Y226.1906
G01 X90.0000 Y213.6135
G01 X65.0000 Y228.0473
G01 Y256.9148
G01 X90.0000 Y271.3485
G01 X115.0000 Y256.9148
G01 Y228.0473
G01 X111.7842 Y226.1906
G01 X111.5202 Y226.7310
G01 Z-3.0000
G01 X109.5378
G01 X112.4341 Y231.2310
G01 X114.4000
G00 Z5.0000
G00 Y253.7310
G00 Z-1.0000
G01 Z-1.5000
G01 Z-3.0000
G01 X112.4341
G01 X109.5378 Y258.2310
G01 X111.5202
G00 Z5.0000
G00 X95.9317 Y267.2310
G00 Z-1.0000
G01 Z-1.5000
G01 Z-3.0000
G01 X94.1762
G00 Z5.0000
G00 X85.8238
G00 Z-1.0000
G01 Z-1.5000
G01 Z-3.0000
G01 X84.0683
G00 Z5.0000
G00 X70.4622 Y258.2310
G00 Z-1.0000
G01 Z-1.5000
G01 Z-3.0000
G01 X68.4798
G01 X65.6000 Y253.7310
G01 X67.5659
G00 Z5.0000
G00 Y231.2310
G00 Z-1.0000
G01 Z-1.5000
G01 Z-3.0000
G01 X65.6000
G01 X68.4798 Y226.7310
G01 X70.4622
G00 Z5.0000
G00 X84.0683 Y217.7310
G00 Z-1.0000
G01 Z-1.5000
G01 Z-3.0000
G01 X85.8238
G00 Z5.0000
G00 X94.1762
G00 Z-1.0000
G01 Z-1.5000
G01 Z-3.0000
G01 X94.3745 Y218.3789
G03 X85.9673 Y266.6475 I-4.3725 J24.1049
G03 X94.3745 Y218.3789 I4.0299 J-24.1646
G01 X94.1762 Y217.7310
G01 X95.9317
G01 X96.2462 Y217.2197
G01 X90.0000 Y213.6135
G01 X65.0000 Y228.0473
G01 Y256.9148
G01 X90.0000 Y271.3485
G01 X115.0000 Y256.9148
G01 Y228.0473
G01 X96.2462 Y217.2197
G01 X95.9317 Y217.7310
G01 Z-4.5000
G01 X94.1762
G00 Z5.0000
G00 X85.8238
G00 Z-2.5000
G01 Z-3.0000
G01 Z-4.5000
G01 X84.0683
G00 Z5.0000
G00 X70.4622 Y226.7310
G00 Z-2.5000
G01 Z-3.0000
G01 Z-4.5000
G01 X68.4798
G01 X65.6000 Y231.2310
G01 X67.5659
G00 Z5.0000
G00 Y253.7310
G00 Z-2.5000
G01 Z-3.0000
G01 Z-4.5000
G01 X65.6000
G01 X68.4798 Y258.2310
G01 X70.4622
G00 Z5.0000
G00 X84.0683 Y267.2310
G00 Z-2.5000
G01 Z-3.0000
G01 Z-4.5000
G01 X85.8238
G00 Z5.0000
G00 X94.1762
G00 Z-2.5000
G01 Z-3.0000
G01 Z-4.5000
G01 X95.9317
G00 Z5.0000
G00 X109.5378 Y258.2310
G00 Z-2.5000
G01 Z-3.0000
G01 Z-4.5000
G01 X111.5202
G01 X112.4341 Y253.7310
G01 X114.4000
G00 Z5.0000
G00 Y231.2310
G00 Z-2.5000
G01 Z-3.0000
G01 Z-4.5000
G01 X112.4341
G01 X109.5378 Y226.7310
G01 X109.0387 Y227.0682
G03 X71.3040 Y258.3158 I-19.0390 J15.4165
G03 X109.0387 Y227.0682 I18.6924 J-15.8351
G01 X109.5378 Y226.7310
G01 X111.5202
G01 X111.7842 Y226.1906
G01 X90.0000 Y213.6135
G01 X65.0000 Y228.0473
G01 Y256.9148
G01 X90.0000 Y271.3485
G01 X115.0000 Y256.9148
G01 Y228.0473
G01 X111.7842 Y226.1906
G01 X111.5202 Y226.7310
G01 Z-6.0000
G01 X109.5378
G01 X112.4341 Y231.2310
G01 X114.4000
G00 Z5.0000
G00 Y253.7310
G00 Z-4.0000
G01 Z-4.5000
G01 Z-6.0000
G01 X112.4341
G01 X109.5378 Y258.2310
G01 X111.5202
G00 Z5.0000
G00 X95.9317 Y267.2310
G00 Z-4.0000
G01 Z-4.5000
G01 Z-6.0000
G01 X94.1762
G00 Z5.0000
G00 X85.8238
G00 Z-4.0000
G01 Z-4.5000
G01 Z-6.0000
G01 X84.0683
G00 Z5.0000
G00 X70.4622 Y258.2310
G00 Z-4.0000
G01 Z-4.5000
G01 Z-6.0000
G01 X68.4798
G01 X65.6000 Y253.7310
G01 X67.5659
G00 Z5.0000
G00 Y231.2310
G00 Z-4.0000
G01 Z-4.5000
G01 Z-6.0000
G01 X65.6000
G01 X68.4798 Y226.7310
G01 X70.4622
G00 Z5.0000
G00 X84.0683 Y217.7310
G00 Z-4.0000
G01 Z-4.5000
G01 Z-6.0000
G01 X85.8238
G00 Z5.0000
G00 X94.1762
G00 Z-4.0000
G01 Z-4.5000
G01 Z-6.0000
G01 X94.3745 Y218.3789
G03 X85.9673 Y266.6475 I-4.3725 J24.1049
G03 X94.3745 Y218.3789 I4.0299 J-24.1646
G01 X94.1762 Y217.7310
G01 X95.9317
G01 X96.2462 Y217.2197
G01 X90.0000 Y213.6135
G01 X65.0000 Y228.0473
G01 Y256.9148
G01 X90.0000 Y271.3485
G01 X115.0000 Y256.9148
G01 Y228.0473
G01 X96.2462 Y217.2197
G01 X95.9317 Y217.7310
G01 Z-7.5000
G01 X94.1762
G00 Z5.0000
G00 X85.8238
G00 Z-5.5000
G01 Z-6.0000
G01 Z-7.5000
G01 X84.0683
G00 Z5.0000
G00 X70.4622 Y226.7310
G00 Z-5.5000
G01 Z-6.0000
G01 Z-7.5000
G01 X68.4798
G01 X65.6000 Y231.2310
G01 X67.5659
G00 Z5.0000
G00 Y253.7310
G00 Z-5.5000
G01 Z-6.0000
G01 Z-7.5000
G01 X65.6000
G01 X68.4798 Y258.2310
G01 X70.4622
G00 Z5.0000
G00 X84.0683 Y267.2310
G00 Z-5.5000
G01 Z-6.0000
G01 Z-7.5000
G01 X85.8238
G00 Z5.0000
G00 X94.1762
G00 Z-5.5000
G01 Z-6.0000
G01 Z-7.5000
G01 X95.9317
G00 Z5.0000
G00 X109.5378 Y258.2310
G00 Z-5.5000
G01 Z-6.0000
G01 Z-7.5000
G01 X111.5202
G01 X112.4341 Y253.7310
G01 X114.4000
G00 Z5.0000
G00 Y231.2310
G00 Z-5.5000
G01 Z-6.0000
G01 Z-7.5000
G01 X112.4341
G01 X109.5378 Y226.7310
G01 X109.0387 Y227.0682
G03 X71.3040 Y258.3158 I-19.0390 J15.4165
G03 X109.0387 Y227.0682 I18.6924 J-15.8351
G01 X109.5378 Y226.7310
G01 X111.5202
G01 X111.7842 Y226.1906
G01 X90.0000 Y213.6135
G01 X65.0000 Y228.0473
G01 Y256.9148
G01 X90.0000 Y271.3485
G01 X115.0000 Y256.9148
G01 Y228.0473
G01 X111.7842 Y226.1906
G01 X111.5202 Y226.7310
G01 Z-9.0000
G01 X109.5378
G01 X112.4341 Y231.2310
G01 X114.4000
G00 Z5.0000
G00 Y253.7310
G00 Z-7.0000
G01 Z-7.5000
G01 Z-9.0000
G01 X112.4341
G01 X109.5378 Y258.2310
G01 X111.5202
G00 Z5.0000
G00 X95.9317 Y267.2310
G00 Z-7.0000
G01 Z-7.5000
G01 Z-9.0000
G01 X94.1762
G00 Z5.0000
G00 X85.8238
G00 Z-7.0000
G01 Z-7.5000
G01 Z-9.0000
G01 X84.0683
G00 Z5.0000
G00 X70.4622 Y258.2310
G00 Z-7.0000
G01 Z-7.5000
G01 Z-9.0000
G01 X68.4798
G01 X65.6000 Y253.7310
G01 X67.5659
G00 Z5.0000
G00 Y231.2310
G00 Z-7.0000
G01 Z-7.5000
G01 Z-9.0000
G01 X65.6000
G01 X68.4798 Y226.7310
G01 X70.4622
G00 Z5.0000
G00 X84.0683 Y217.7310
G00 Z-7.0000
G01 Z-7.5000
G01 Z-9.0000
G01 X85.8238
G00 Z5.0000
G00 X94.1762
G00 Z-7.0000
G01 Z-7.5000
G01 Z-9.0000
G01 X94.3745 Y218.3789
G03 X85.9673 Y266.6475 I-4.3725 J24.1049
G03 X94.3745 Y218.3789 I4.0299 J-24.1646
G01 X94.1762 Y217.7310
G01 X95.9317
G01 X96.2462 Y217.2197
G01 X90.0000 Y213.6135
G01 X65.0000 Y228.0473
G01 Y256.9148
G01 X90.0000 Y271.3485
G01 X115.0000 Y256.9148
G01 Y228.0473
G01 X96.2462 Y217.2197
G01 X95.9317 Y217.7310
G01 Z-10.5000
G01 X94.1762
G00 Z5.0000
G00 X85.8238
G00 Z-8.5000
G01 Z-9.0000
G01 Z-10.5000
G01 X84.0683
G00 Z5.0000
G00 X70.4622 Y226.7310
G00 Z-8.5000
G01 Z-9.0000
G01 Z-10.5000
G01 X68.4798
G01 X65.6000 Y231.2310
G01 X67.5659
G00 Z5.0000
G00 Y253.7310
G00 Z-8.5000
G01 Z-9.0000
G01 Z-10.5000
G01 X65.6000
G01 X68.4798 Y258.2310
G01 X70.4622
G00 Z5.0000
G00 X84.0683 Y267.2310
G00 Z-8.5000
G01 Z-9.0000
G01 Z-10.5000
G01 X85.8238
G00 Z5.0000
G00 X94.1762
G00 Z-8.5000
G01 Z-9.0000
G01 Z-10.5000
G01 X95.9317
G00 Z5.0000
G00 X109.5378 Y258.2310
G00 Z-8.5000
G01 Z-9.0000
G01 Z-10.5000
G01 X111.5202
G01 X112.4341 Y253.7310
G01 X114.4000
G00 Z5.0000
G00 Y231.2310
G00 Z-8.5000
G01 Z-9.0000
G01 Z-10.5000
G01 X112.4341
G01 X109.5378 Y226.7310
G01 X109.0387 Y227.0682
G03 X71.3040 Y258.3158 I-19.0390 J15.4165
G03 X109.0387 Y227.0682 I18.6924 J-15.8351
G01 X109.5378 Y226.7310
G01 X111.5202
G01 X111.7842 Y226.1906
G01 X90.0000 Y213.6135
G01 X65.0000 Y228.0473
G01 Y256.9148
G01 X90.0000 Y271.3485
G01 X115.0000 Y256.9148
G01 Y228.0473
G01 X111.7842 Y226.1906
G01 X111.5202 Y226.7310
G01 Z-11.5000
G01 X109.5378
G01 X112.4341 Y231.2310
G01 X114.4000
G00 Z5.0000
G00 Y253.7310
G00 Z-10.0000
G01 Z-10.5000
G01 Z-11.5000
G01 X112.4341
G01 X109.5378 Y258.2310
G01 X111.5202
G00 Z5.0000
G00 X95.9317 Y267.2310
G00 Z-10.0000
G01 Z-10.5000
G01 Z-11.5000
G01 X94.1762
G00 Z5.0000
G00 X85.8238
G00 Z-10.0000
G01 Z-10.5000
G01 Z-11.5000
G01 X84.0683
G00 Z5.0000
G00 X70.4622 Y258.2310
G00 Z-10.0000
G01 Z-10.5000
G01 Z-11.5000
G01 X68.4798
G01 X65.6000 Y253.7310
G01 X67.5659
G00 Z5.0000
G00 Y231.2310
G00 Z-10.0000
G01 Z-10.5000
G01 Z-11.5000
G01 X65.6000
G01 X68.4798 Y226.7310
G01 X70.4622
G00 Z5.0000
G00 X84.0683 Y217.7310
G00 Z-10.0000
G01 Z-10.5000
G01 Z-11.5000
G01 X85.8238
G00 Z5.0000
G00 X94.1762
G00 Z-10.0000
G01 Z-10.5000
G01 Z-11.5000
G01 X94.3745 Y218.3789
G03 X85.9673 Y266.6475 I-4.3725 J24.1049
G03 X94.3745 Y218.3789 I4.0299 J-24.1646
G01 X94.1762 Y217.7310
G01 X95.9317
G01 X96.2462 Y217.2197
G01 X90.0000 Y213.6135
G01 X65.0000 Y228.0473
G01 Y256.9148
G01 X90.0000 Y271.3485
G01 X115.0000 Y256.9148
G01 Y228.0473
G01 X96.2462 Y217.2197
G01 X95.9317 Y217.7310
G00 Z5.0000


(No. 22: Hole 20)


(No. 23: Hole 20)
G00 X85.9119 Y230.6693 Z5.0000
G00 Z0.5000
G01 Z0.0000 F1500
G01 Z-1.5000
G02 X81.8148 Y251.9272 I4.0881 J11.8117
G02 X102.2733 Y244.8465 I8.1852 J-9.4462
G02 X85.9119 Y230.6693 I-12.2733 J-2.3655
G01 Z-3.0000
G02 X81.8148 Y251.9272 I4.0881 J11.8117
G02 X102.2733 Y244.8465 I8.1852 J-9.4462
G02 X85.9119 Y230.6693 I-12.2733 J-2.3655
G01 Z-4.5000
G02 X81.8148 Y251.9272 I4.0881 J11.8117
G02 X102.2733 Y244.8465 I8.1852 J-9.4462
G02 X85.9119 Y230.6693 I-12.2733 J-2.3655
G01 Z-6.0000
G02 X81.8148 Y251.9272 I4.0881 J11.8117
G02 X102.2733 Y244.8465 I8.1852 J-9.4462
G02 X85.9119 Y230.6693 I-12.2733 J-2.3655
G01 Z-7.5000
G02 X81.8148 Y251.9272 I4.0881 J11.8117
G02 X102.2733 Y244.8465 I8.1852 J-9.4462
G02 X85.9119 Y230.6693 I-12.2733 J-2.3655
G01 Z-9.0000
G02 X81.8148 Y251.9272 I4.0881 J11.8117
G02 X102.2733 Y244.8465 I8.1852 J-9.4462
G02 X85.9119 Y230.6693 I-12.2733 J-2.3655
G01 Z-10.5000
G02 X81.8148 Y251.9272 I4.0881 J11.8117
G02 X102.2733 Y244.8465 I8.1852 J-9.4462
G02 X85.9119 Y230.6693 I-12.2733 J-2.3655
G01 Z-12.0000
G02 X81.8148 Y251.9272 I4.0881 J11.8117
G02 X102.2733 Y244.8465 I8.1852 J-9.4462
G02 X85.9119 Y230.6693 I-12.2733 J-2.3655
G01 Z-13.5000
G02 X81.8148 Y251.9272 I4.0881 J11.8117
G02 X102.2733 Y244.8465 I8.1852 J-9.4462
G02 X85.9119 Y230.6693 I-12.2733 J-2.3655
G01 Z-15.0000
G02 X81.8148 Y251.9272 I4.0881 J11.8117
G02 X102.2733 Y244.8465 I8.1852 J-9.4462
G02 X85.9119 Y230.6693 I-12.2733 J-2.3655
G01 Z-15.5000
G02 X81.8148 Y251.9272 I4.0881 J11.8117
G02 X102.2733 Y244.8465 I8.1852 J-9.4462
G02 X85.9119 Y230.6693 I-12.2733 J-2.3655
G00 Z5.0000


(No. 24: Part 20)
G00 X86.7880 Y230.9203 Z5.0000
G00 Z0.5000
G01 Z0.0000 F1500
G01 Z-1.5000
G03 X92.8464 Y254.1371 I3.2120 J11.5607
G03 X79.9094 Y248.9650 I-2.8476 J-11.6430
G03 X79.5167 Y247.4810 I2.6073 J-1.4840
G01 Y237.4810
G03 X80.0767 Y235.7356 I3.0000 J0.0000
G03 X86.7880 Y230.9203 I9.9241 J6.7470
G01 Z-3.0000
G03 X92.8464 Y254.1371 I3.2120 J11.5607
G03 X79.9094 Y248.9650 I-2.8476 J-11.6430
G03 X79.5167 Y247.4810 I2.6073 J-1.4840
G01 Y237.4810
G03 X80.0767 Y235.7356 I3.0000 J0.0000
G03 X86.7880 Y230.9203 I9.9241 J6.7470
G01 Z-4.5000
G03 X92.8464 Y254.1371 I3.2120 J11.5607
G03 X79.9094 Y248.9650 I-2.8476 J-11.6430
G03 X79.5167 Y247.4810 I2.6073 J-1.4840
G01 Y237.4810
G03 X80.0767 Y235.7356 I3.0000 J0.0000
G03 X86.7880 Y230.9203 I9.9241 J6.7470
G01 Z-6.0000
G03 X92.8464 Y254.1371 I3.2120 J11.5607
G03 X79.9094 Y248.9650 I-2.8476 J-11.6430
G03 X79.5167 Y247.4810 I2.6073 J-1.4840
G01 Y237.4810
G03 X80.0767 Y235.7356 I3.0000 J0.0000
G03 X86.7880 Y230.9203 I9.9241 J6.7470
G01 Z-7.5000
G03 X92.8464 Y254.1371 I3.2120 J11.5607
G03 X79.9094 Y248.9650 I-2.8476 J-11.6430
G03 X79.5167 Y247.4810 I2.6073 J-1.4840
G01 Y237.4810
G03 X80.0767 Y235.7356 I3.0000 J0.0000
G03 X86.7880 Y230.9203 I9.9241 J6.7470
G01 Z-9.0000
G03 X92.8464 Y254.1371 I3.2120 J11.5607
G03 X79.9094 Y248.9650 I-2.8476 J-11.6430
G03 X79.5167 Y247.4810 I2.6073 J-1.4840
G01 Y237.4810
G03 X80.0767 Y235.7356 I3.0000 J0.0000
G03 X86.7880 Y230.9203 I9.9241 J6.7470
G01 Z-10.5000
G03 X92.8464 Y254.1371 I3.2120 J11.5607
G03 X79.9094 Y248.9650 I-2.8476 J-11.6430
G03 X79.5167 Y247.4810 I2.6073 J-1.4840
G01 Y237.4810
G03 X80.0767 Y235.7356 I3.0000 J0.0000
G03 X86.7880 Y230.9203 I9.9241 J6.7470
G01 Z-12.0000
G03 X92.8464 Y254.1371 I3.2120 J11.5607
G03 X79.9094 Y248.9650 I-2.8476 J-11.6430
G03 X79.5167 Y247.4810 I2.6073 J-1.4840
G01 Y237.4810
G03 X80.0767 Y235.7356 I3.0000 J0.0000
G03 X86.7880 Y230.9203 I9.9241 J6.7470
G01 Z-13.5000
G03 X92.8464 Y254.1371 I3.2120 J11.5607
G03 X79.9094 Y248.9650 I-2.8476 J-11.6430
G03 X79.5167 Y247.4810 I2.6073 J-1.4840
G01 Y237.4810
G03 X80.0767 Y235.7356 I3.0000 J0.0000
G03 X86.7880 Y230.9203 I9.9241 J6.7470
G01 Z-15.0000
G03 X92.8464 Y254.1371 I3.2120 J11.5607
G03 X79.9094 Y248.9650 I-2.8476 J-11.6430
G03 X79.5167 Y247.4810 I2.6073 J-1.4840
G01 Y237.4810
G03 X80.0767 Y235.7356 I3.0000 J0.0000
G03 X86.7880 Y230.9203 I9.9241 J6.7470
G01 Z-15.5000
G03 X92.8464 Y254.1371 I3.2120 J11.5607
G03 X79.9094 Y248.9650 I-2.8476 J-11.6430
G03 X79.5167 Y247.4810 I2.6073 J-1.4840
G01 Y237.4810
G03 X80.0767 Y235.7356 I3.0000 J0.0000
G03 X86.7880 Y230.9203 I9.9241 J6.7470
G00 Z5.0000


(No. 25: Hole 52)
G00 X125.6000 Y231.2310 Z5.0000
G00 Z0.5000
G01 Z0.0000 F1500
G01 Z-1.5000
G01 X127.5659
G01 X128.4798 Y226.7310
G01 X130.4622
G00 Z5.0000
G00 X144.0683 Y217.7310
G00 Z0.5000
G01 Z0.0000
G01 Z-1.5000
G01 X145.8238
G00 Z5.0000
G00 X154.1762
G00 Z0.5000
G01 Z0.0000
G01 Z-1.5000
G01 X155.9317
G00 Z5.0000
G00 X169.5378 Y226.7310
G00 Z0.5000
G01 Z0.0000
G01 Z-1.5000
G01 X171.5202
G01 X172.4341 Y231.2310
G01 X174.4000
G00 Z5.0000
G00 Y253.7310
G00 Z0.5000
G01 Z0.0000
G01 Z-1.5000
G01 X172.4341
G01 X169.5378 Y258.2310
G01 X171.5202
G00 Z5.0000
G00 X155.9317 Y267.2310
G00 Z0.5000
G01 Z0.0000
G01 Z-1.5000
G01 X154.1762
G00 Z5.0000
G00 X145.8238
G00 Z0.5000
G01 Z0.0000
G01 Z-1.5000
G01 X144.0683
G00 Z5.0000
G00 X130.4622 Y258.2310
G00 Z0.5000
G01 Z0.0000
G01 Z-1.5000
G01 X128.4798
G01 X125.6000 Y253.7310
G01 X125.0000 Y253.6820
G01 Y256.9148
G01 X150.0000 Y271.3485
G01 X175.0000 Y256.9148
G01 Y228.0473
G01 X150.0000 Y213.6135
G01 X125.0000 Y228.0473
G01 Y253.6820
G01 X125.6000 Y253.7310
G01 X127.5659
G01 X128.1735 Y253.6003
G03 X171.5477 Y230.8200 I21.8276 J-11.1227
G03 X128.1735 Y253.6003 I-21.5443 J11.6621
G01 X127.5659 Y253.7310
G01 Z-3.0000
G01 X125.6000
G01 X128.4798 Y258.2310
G01 X130.4622
G00 Z5.0000
G00 X144.0683 Y267.2310
G00 Z-1.0000
G01 Z-1.5000
G01 Z-3.0000
G01 X145.8238
G00 Z5.0000
G00 X154.1762
G00 Z-1.0000
G01 Z-1.5000
G01 Z-3.0000
G01 X155.9317
G00 Z5.0000
G00 X169.5378 Y258.2310
G00 Z-1.0000
G01 Z-1.5000
G01 Z-3.0000
G01 X171.5202
G01 X172.4341 Y253.7310
G01 X174.4000
G00 Z5.0000
G00 Y231.2310
G00 Z-1.0000
G01 Z-1.5000
G01 Z-3.0000
G01 X172.4341
G01 X169.5378 Y226.7310
G01 X171.5202
G00 Z5.0000
G00 X155.9317 Y217.7310
G00 Z-1.0000
G01 Z-1.5000
G01 Z-3.0000
G01 X154.1762
G00 Z5.0000
G00 X145.8238
G00 Z-1.0000
G01 Z-1.5000
G01 Z-3.0000
G01 X144.0683
G00 Z5.0000
G00 X130.4622 Y226.7310
G00 Z-1.0000
G01 Z-1.5000
G01 Z-3.0000
G01 X128.4798
G01 X125.6000 Y231.2310
G01 X125.0000 Y231.2800
G01 Y256.9148
G01 X150.0000 Y271.3485
G01 X175.0000 Y256.9148
G01 Y228.0473
G01 X150.0000 Y213.6135
G01 X125.0000 Y228.0473
G01 Y231.2800
G01 X125.6000 Y231.2310
G01 X127.5659
G01 X128.1735 Y231.3618
G03 X172.0112 Y253.2416 I21.8299 J11.1181
G03 X128.1735 Y231.3618 I-22.0101 J-10.7572
G01 X127.5659 Y231.2310
G01 Z-4.5000
G01 X125.6000
G01 X128.4798 Y226.7310
G01 X130.4622
G00 Z5.0000
G00 X144.0683 Y217.7310
G00 Z-2.5000
G01 Z-3.0000
G01 Z-4.5000
G01 X145.8238
G00 Z5.0000
G00 X154.1762
G00 Z-2.5000
G01 Z-3.0000
G01 Z-4.5000
G01 X155.9317
G00 Z5.0000
G00 X169.5378 Y226.7310
G00 Z-2.5000
G01 Z-3.0000
G01 Z-4.5000
G01 X171.5202
G01 X172.4341 Y231.2310
G01 X174.4000
G00 Z5.0000
G00 Y253.7310
G00 Z-2.5000
G01 Z-3.0000
G01 Z-4.5000
G01 X172.4341
G01 X169.5378 Y258.2310
G01 X171.5202
G00 Z5.0000
G00 X155.9317 Y267.2310
G00 Z-2.5000
G01 Z-3.0000
G01 Z-4.5000
G01 X154.1762
G00 Z5.0000
G00 X145.8238
G00 Z-2.5000
G01 Z-3.0000
G01 Z-4.5000
G01 X144.0683
G00 Z5.0000
G00 X130.4622 Y258.2310
G00 Z-2.5000
G01 Z-3.0000
G01 Z-4.5000
G01 X128.4798
G01 X125.6000 Y253.7310
G01 X125.0000 Y253.6820
G01 Y256.9148
G01 X150.0000 Y271.3485
G01 X175.0000 Y256.9148
G01 Y228.0473
G01 X150.0000 Y213.6135
G01 X125.0000 Y228.0473
G01 Y253.6820
G01 X125.6000 Y253.7310
G01 X127.5659
G01 X128.1735 Y253.6003
G03 X171.5477 Y230.8200 I21.8276 J-11.1227
G03 X128.1735 Y253.6003 I-21.5443 J11.6621
G01 X127.5659 Y253.7310
G01 Z-6.0000
G01 X125.6000
G01 X128.4798 Y258.2310
G01 X130.4622
G00 Z5.0000
G00 X144.0683 Y267.2310
G00 Z-4.0000
G01 Z-4.5000
G01 Z-6.0000
G01 X145.8238
G00 Z5.0000
G00 X154.1762
G00 Z-4.0000
G01 Z-4.5000
G01 Z-6.0000
G01 X155.9317
G00 Z5.0000
G00 X169.5378 Y258.2310
G00 Z-4.0000
G01 Z-4.5000
G01 Z-6.0000
G01 X171.5202
G01 X172.4341 Y253.7310
G01 X174.4000
G00 Z5.0000
G00 Y231.2310
G00 Z-4.0000
G01 Z-4.5000
G01 Z-6.0000
G01 X172.4341
G01 X169.5378 Y226.7310
G01 X171.5202
G00 Z5.0000
G00 X155.9317 Y217.7310
G00 Z-4.0000
G01 Z-4.5000
G01 Z-6.0000
G01 X154.1762
G00 Z5.0000
G00 X145.8238
G00 Z-4.0000
G01 Z-4.5000
G01 Z-6.0000
G01 X144.0683
G00 Z5.0000
G00 X130.4622 Y226.7310
G00 Z-4.0000
G01 Z-4.5000
G01 Z-6.0000
G01 X128.4798
G01 X125.6000 Y231.2310
G01 X125.0000 Y231.2800
G01 Y256.9148
G01 X150.0000 Y271.3485
G01 X175.0000 Y256.9148
G01 Y228.0473
G01 X150.0000 Y213.6135
G01 X125.0000 Y228.0473
G01 Y231.2800
G01 X125.6000 Y231.2310
G01 X127.5659
G01 X128.1735 Y231.3618
G03 X172.0112 Y253.2416 I21.8299 J11.1181
G03 X128.1735 Y231.3618 I-22.0101 J-10.7572
G01 X127.5659 Y231.2310
G01 Z-7.5000
G01 X125.6000
G01 X128.4798 Y226.7310
G01 X130.4622
G00 Z5.0000
G00 X144.0683 Y217.7310
G00 Z-5.5000
G01 Z-6.0000
G01 Z-7.5000
G01 X145.8238
G00 Z5.0000
G00 X154.1762
G00 Z-5.5000
G01 Z-6.0000
G01 Z-7.5000
G01 X155.9317
G00 Z5.0000
G00 X169.5378 Y226.7310
G00 Z-5.5000
G01 Z-6.0000
G01 Z-7.5000
G01 X171.5202
G01 X172.4341 Y231.2310
G01 X174.4000
G00 Z5.0000
G00 Y253.7310
G00 Z-5.5000
G01 Z-6.0000
G01 Z-7.5000
G01 X172.4341
G01 X169.5378 Y258.2310
G01 X171.5202
G00 Z5.0000
G00 X155.9317 Y267.2310
G00 Z-5.5000
G01 Z-6.0000
G01 Z-7.5000
G01 X154.1762
G00 Z5.0000
G00 X145.8238
G00 Z-5.5000
G01 Z-6.0000
G01 Z-7.5000
G01 X144.0683
G00 Z5.0000
G00 X130.4622 Y258.2310
G00 Z-5.5000
G01 Z-6.0000
G01 Z-7.5000
G01 X128.4798
G01 X125.6000 Y253.7310
G01 X125.0000 Y253.6820
G01 Y256.9148
G01 X150.0000 Y271.3485
G01 X175.0000 Y256.9148
G01 Y228.0473
G01 X150.0000 Y213.6135
G01 X125.0000 Y228.0473
G01 Y253.6820
G01 X125.6000 Y253.7310
G01 X127.5659
G01 X128.1735 Y253.6003
G03 X171.5477 Y230.8200 I21.8276 J-11.1227
G03 X128.1735 Y253.6003 I-21.5443 J11.6621
G01 X127.5659 Y253.7310
G01 Z-9.0000
G01 X125.6000
G01 X128.4798 Y258.2310
G01 X130.4622
G00 Z5.0000
G00 X144.0683 Y267.2310
G00 Z-7.0000
G01 Z-7.5000
G01 Z-9.0000
G01 X145.8238
G00 Z5.0000
G00 X154.1762
G00 Z-7.0000
G01 Z-7.5000
G01 Z-9.0000
G01 X155.9317
G00 Z5.0000
G00 X169.5378 Y258.2310
G00 Z-7.0000
G01 Z-7.5000
G01 Z-9.0000
G01 X171.5202
G01 X172.4341 Y253.7310
G01 X174.4000
G00 Z5.0000
G00 Y231.2310
G00 Z-7.0000
G01 Z-7.5000
G01 Z-9.0000
G01 X172.4341
G01 X169.5378 Y226.7310
G01 X171.5202
G00 Z5.0000
G00 X155.9317 Y217.7310
G00 Z-7.0000
G01 Z-7.5000
G01 Z-9.0000
G01 X154.1762
G00 Z5.0000
G00 X145.8238
G00 Z-7.0000
G01 Z-7.5000
G01 Z-9.0000
G01 X144.0683
G00 Z5.0000
G00 X130.4622 Y226.7310
G00 Z-7.0000
G01 Z-7.5000
G01 Z-9.0000
G01 X128.4798
G01 X125.6000 Y231.2310
G01 X125.0000 Y231.2800
G01 Y256.9148
G01 X150.0000 Y271.3485
G01 X175.0000 Y256.9148
G01 Y228.0473
G01 X150.0000 Y213.6135
G01 X125.0000 Y228.0473
G01 Y231.2800
G01 X125.6000 Y231.2310
G01 X127.5659
G01 X128.1735 Y231.3618
G03 X172.0112 Y253.2416 I21.8299 J11.1181
G03 X128.1735 Y231.3618 I-22.0101 J-10.7572
G01 X127.5659 Y231.2310
G01 Z-10.5000
G01 X125.6000
G01 X128.4798 Y226.7310
G01 X130.4622
G00 Z5.0000
G00 X144.0683 Y217.7310
G00 Z-8.5000
G01 Z-9.0000
G01 Z-10.5000
G01 X145.8238
G00 Z5.0000
G00 X154.1762
G00 Z-8.5000
G01 Z-9.0000
G01 Z-10.5000
G01 X155.9317
G00 Z5.0000
G00 X169.5378 Y226.7310
G00 Z-8.5000
G01 Z-9.0000
G01 Z-10.5000
G01 X171.5202
G01 X172.4341 Y231.2310
G01 X174.4000
G00 Z5.0000
G00 Y253.7310
G00 Z-8.5000
G01 Z-9.0000
G01 Z-10.5000
G01 X172.4341
G01 X169.5378 Y258.2310
G01 X171.5202
G00 Z5.0000
G00 X155.9317 Y267.2310
G00 Z-8.5000
G01 Z-9.0000
G01 Z-10.5000
G01 X154.1762
G00 Z5.0000
G00 X145.8238
G00 Z-8.5000
G01 Z-9.0000
G01 Z-10.5000
G01 X144.0683
G00 Z5.0000
G00 X130.4622 Y258.2310
G00 Z-8.5000
G01 Z-9.0000
G01 Z-10.5000
G01 X128.4798
G01 X125.6000 Y253.7310
G01 X125.0000 Y253.6820
G01 Y256.9148
G01 X150.0000 Y271.3485
G01 X175.0000 Y256.9148
G01 Y228.0473
G01 X150.0000 Y213.6135
G01 X125.0000 Y228.0473
G01 Y253.6820
G01 X125.6000 Y253.7310
G01 X127.5659
G01 X128.1735 Y253.6003
G03 X171.5477 Y230.8200 I21.8276 J-11.1227
G03 X128.1735 Y253.6003 I-21.5443 J11.6621
G01 X127.5659 Y253.7310
G01 Z-11.5000
G01 X125.6000
G01 X128.4798 Y258.2310
G01 X130.4622
G00 Z5.0000
G00 X144.0683 Y267.2310
G00 Z-10.0000
G01 Z-10.5000
G01 Z-11.5000
G01 X145.8238
G00 Z5.0000
G00 X154.1762
G00 Z-10.0000
G01 Z-10.5000
G01 Z-11.5000
G01 X155.9317
G00 Z5.0000
G00 X169.5378 Y258.2310
G00 Z-10.0000
G01 Z-10.5000
G01 Z-11.5000
G01 X171.5202
G01 X172.4341 Y253.7310
G01 X174.4000
G00 Z5.0000
G00 Y231.2310
G00 Z-10.0000
G01 Z-10.5000
G01 Z-11.5000
G01 X172.4341
G01 X169.5378 Y226.7310
G01 X171.5202
G00 Z5.0000
G00 X155.9317 Y217.7310
G00 Z-10.0000
G01 Z-10.5000
G01 Z-11.5000
G01 X154.1762
G00 Z5.0000
G00 X145.8238
G00 Z-10.0000
G01 Z-10.5000
G01 Z-11.5000
G01 X144.0683
G00 Z5.0000
G00 X130.4622 Y226.7310
G00 Z-10.0000
G01 Z-10.5000
G01 Z-11.5000
G01 X128.4798
G01 X125.6000 Y231.2310
G01 X125.0000 Y231.2800
G01 Y256.9148
G01 X150.0000 Y271.3485
G01 X175.0000 Y256.9148
G01 Y228.0473
G01 X150.0000 Y213.6135
G01 X125.0000 Y228.0473
G01 Y231.2800
G01 X125.6000 Y231.2310
G01 X127.5659
G01 X128.1735 Y231.3618
G03 X172.0112 Y253.2416 I21.8299 J11.1181
G03 X128.1735 Y231.3618 I-22.0101 J-10.7572
G01 X127.5659 Y231.2310
G00 Z5.0000


(No. 26: Hole 21)


(No. 27: Hole 21)
G00 X143.2424 Y231.9661 Z5.0000
G00 Z0.5000
G01 Z0.0000 F1500
G01 Z-1.5000
G02 X144.2726 Y253.5907 I6.7576 J10.5150
G02 X162.4850 Y241.8863 I5.7274 J-11.1097
G02 X143.2424 Y231.9661 I-12.4850 J0.5947
G01 Z-3.0000
G02 X144.2726 Y253.5907 I6.7576 J10.5150
G02 X162.4850 Y241.8863 I5.7274 J-11.1097
G02 X143.2424 Y231.9661 I-12.4850 J0.5947
G01 Z-4.5000
G02 X144.2726 Y253.5907 I6.7576 J10.5150
G02 X162.4850 Y241.8863 I5.7274 J-11.1097
G02 X143.2424 Y231.9661 I-12.4850 J0.5947
G01 Z-6.0000
G02 X144.2726 Y253.5907 I6.7576 J10.5150
G02 X162.4850 Y241.8863 I5.7274 J-11.1097
G02 X143.2424 Y231.9661 I-12.4850 J0.5947
G01 Z-7.5000
G02 X144.2726 Y253.5907 I6.7576 J10.5150
G02 X162.4850 Y241.8863 I5.7274 J-11.1097
G02 X143.2424 Y231.9661 I-12.4850 J0.5947
G01 Z-9.0000
G02 X144.2726 Y253.5907 I6.7576 J10.5150
G02 X162.4850 Y241.8863 I5.7274 J-11.1097
G02 X143.2424 Y231.9661 I-12.4850 J0.5947
G01 Z-10.5000
G02 X144.2726 Y253.5907 I6.7576 J10.5150
G02 X162.4850 Y241.8863 I5.7274 J-11.1097
G02 X143.2424 Y231.9661 I-12.4850 J0.5947
G01 Z-12.0000
G02 X144.2726 Y253.5907 I6.7576 J10.5150
G02 X162.4850 Y241.8863 I5.7274 J-11.1097
G02 X143.2424 Y231.9661 I-12.4850 J0.5947
G01 Z-13.5000
G02 X144.2726 Y253.5907 I6.7576 J10.5150
G02 X162.4850 Y241.8863 I5.7274 J-11.1097
G02 X143.2424 Y231.9661 I-12.4850 J0.5947
G01 Z-15.0000
G02 X144.2726 Y253.5907 I6.7576 J10.5150
G02 X162.4850 Y241.8863 I5.7274 J-11.1097
G02 X143.2424 Y231.9661 I-12.4850 J0.5947
G01 Z-15.5000
G02 X144.2726 Y253.5907 I6.7576 J10.5150
G02 X162.4850 Y241.8863 I5.7274 J-11.1097
G02 X143.2424 Y231.9661 I-12.4850 J0.5947
G00 Z5.0000


(No. 28: Part 21)
G00 X144.6470 Y231.7427 Z5.0000
G00 Z0.5000
G01 Z0.0000 F1500
G01 Z-1.5000
G03 X155.0123 Y253.3826 I5.3530 J10.7383
G03 X139.9094 Y248.9650 I-5.0118 J-10.8913
G03 X139.5167 Y247.4810 I2.6073 J-1.4840
G01 Y237.4810
G03 X140.0767 Y235.7356 I3.0000 J0.0000
G03 X144.6470 Y231.7427 I9.9250 J6.7480
G01 Z-3.0000
G03 X155.0123 Y253.3826 I5.3530 J10.7383
G03 X139.9094 Y248.9650 I-5.0118 J-10.8913
G03 X139.5167 Y247.4810 I2.6073 J-1.4840
G01 Y237.4810
G03 X140.0767 Y235.7356 I3.0000 J0.0000
G03 X144.6470 Y231.7427 I9.9250 J6.7480
G01 Z-4.5000
G03 X155.0123 Y253.3826 I5.3530 J10.7383
G03 X139.9094 Y248.9650 I-5.0118 J-10.8913
G03 X139.5167 Y247.4810 I2.6073 J-1.4840
G01 Y237.4810
G03 X140.0767 Y235.7356 I3.0000 J0.0000
G03 X144.6470 Y231.7427 I9.9250 J6.7480
G01 Z-6.0000
G03 X155.0123 Y253.3826 I5.3530 J10.7383
G03 X139.9094 Y248.9650 I-5.0118 J-10.8913
G03 X139.5167 Y247.4810 I2.6073 J-1.4840
G01 Y237.4810
G03 X140.0767 Y235.7356 I3.0000 J0.0000
G03 X144.6470 Y231.7427 I9.9250 J6.7480
G01 Z-7.5000
G03 X155.0123 Y253.3826 I5.3530 J10.7383
G03 X139.9094 Y248.9650 I-5.0118 J-10.8913
G03 X139.5167 Y247.4810 I2.6073 J-1.4840
G01 Y237.4810
G03 X140.0767 Y235.7356 I3.0000 J0.0000
G03 X144.6470 Y231.7427 I9.9250 J6.7480
G01 Z-9.0000
G03 X155.0123 Y253.3826 I5.3530 J10.7383
G03 X139.9094 Y248.9650 I-5.0118 J-10.8913
G03 X139.5167 Y247.4810 I2.6073 J-1.4840
G01 Y237.4810
G03 X140.0767 Y235.7356 I3.0000 J0.0000
G03 X144.6470 Y231.7427 I9.9250 J6.7480
G01 Z-10.5000
G03 X155.0123 Y253.3826 I5.3530 J10.7383
G03 X139.9094 Y248.9650 I-5.0118 J-10.8913
G03 X139.5167 Y247.4810 I2.6073 J-1.4840
G01 Y237.4810
G03 X140.0767 Y235.7356 I3.0000 J0.0000
G03 X144.6470 Y231.7427 I9.9250 J6.7480
G01 Z-12.0000
G03 X155.0123 Y253.3826 I5.3530 J10.7383
G03 X139.9094 Y248.9650 I-5.0118 J-10.8913
G03 X139.5167 Y247.4810 I2.6073 J-1.4840
G01 Y237.4810
G03 X140.0767 Y235.7356 I3.0000 J0.0000
G03 X144.6470 Y231.7427 I9.9250 J6.7480
G01 Z-13.5000
G03 X155.0123 Y253.3826 I5.3530 J10.7383
G03 X139.9094 Y248.9650 I-5.0118 J-10.8913
G03 X139.5167 Y247.4810 I2.6073 J-1.4840
G01 Y237.4810
G03 X140.0767 Y235.7356 I3.0000 J0.0000
G03 X144.6470 Y231.7427 I9.9250 J6.7480
G01 Z-15.0000
G03 X155.0123 Y253.3826 I5.3530 J10.7383
G03 X139.9094 Y248.9650 I-5.0118 J-10.8913
G03 X139.5167 Y247.4810 I2.6073 J-1.4840
G01 Y237.4810
G03 X140.0767 Y235.7356 I3.0000 J0.0000
G03 X144.6470 Y231.7427 I9.9250 J6.7480
G01 Z-15.5000
G03 X155.0123 Y253.3826 I5.3530 J10.7383
G03 X139.9094 Y248.9650 I-5.0118 J-10.8913
G03 X139.5167 Y247.4810 I2.6073 J-1.4840
G01 Y237.4810
G03 X140.0767 Y235.7356 I3.0000 J0.0000
G03 X144.6470 Y231.7427 I9.9250 J6.7480
G00 Z5.0000


(No. 29: Hole 57)
G00 X125.9317 Y269.6910 Z5.0000
G00 Z0.5000
G01 Z0.0000 F1500
G01 Z-1.5000
G01 X124.1762
G00 Z5.0000
G00 X115.8238
G00 Z0.5000
G01 Z0.0000
G01 Z-1.5000
G01 X114.0683
G00 Z5.0000
G00 X100.4622 Y278.6910
G00 Z0.5000
G01 Z0.0000
G01 Z-1.5000
G01 X98.4798
G01 X95.6000 Y283.1910
G01 X97.5659
G00 Z5.0000
G00 Y305.6910
G00 Z0.5000
G01 Z0.0000
G01 Z-1.5000
G01 X95.6000
G01 X98.4798 Y310.1910
G01 X100.4622
G00 Z5.0000
G00 X114.0683 Y319.1910
G00 Z0.5000
G01 Z0.0000
G01 Z-1.5000
G01 X115.8238
G00 Z5.0000
G00 X124.1762
G00 Z0.5000
G01 Z0.0000
G01 Z-1.5000
G01 X125.9317
G00 Z5.0000
G00 X139.5378 Y310.1910
G00 Z0.5000
G01 Z0.0000
G01 Z-1.5000
G01 X141.5202
G01 X142.4341 Y305.6910
G01 X144.4000
G00 Z5.0000
G00 Y283.1910
G00 Z0.5000
G01 Z0.0000
G01 Z-1.5000
G01 X142.4341
G01 X139.5378 Y278.6910
G01 X139.0387 Y279.0282
G03 X101.3040 Y310.2758 I-19.0390 J15.4165
G03 X139.0387 Y279.0282 I18.6924 J-15.8351
G01 X139.5378 Y278.6910
G01 X141.5202
G01 X141.7842 Y278.1506
G01 X120.0000 Y265.5735
G01 X95.0000 Y280.0073
G01 Y308.8748
G01 X120.0000 Y323.3085
G01 X145.0000 Y308.8748
G01 Y280.0073
G01 X141.7842 Y278.1506
G01 X141.5202 Y278.6910
G01 Z-3.0000
G01 X139.5378
G01 X142.4341 Y283.1910
G01 X144.4000
G00 Z5.0000
G00 Y305.6910
G00 Z-1.0000
G01 Z-1.5000
G01 Z-3.0000
G01 X142.4341
G01 X139.5378 Y310.1910
G01 X141.5202
G00 Z5.0000
G00 X125.9317 Y319.1910
G00 Z-1.0000
G01 Z-1.5000
G01 Z-3.0000
G01 X124.1762
G00 Z5.0000
G00 X115.8238
G00 Z-1.0000
G01 Z-1.5000
G01 Z-3.0000
G01 X114.0683
G00 Z5.0000
G00 X100.4622 Y310.1910
G00 Z-1.0000
G01 Z-1.5000
G01 Z-3.0000
G01 X98.4798
G01 X95.6000 Y305.6910
G01 X97.5659
G00 Z5.0000
G00 Y283.1910
G00 Z-1.0000
G01 Z-1.5000
G01 Z-3.0000
G01 X95.6000
G01 X98.4798 Y278.6910
G01 X100.4622
G00 Z5.0000
G00 X114.0683 Y269.6910
G00 Z-1.0000
G01 Z-1.5000
G01 Z-3.0000
G01 X115.8238
G00 Z5.0000
G00 X124.1762
G00 Z-1.0000
G01 Z-1.5000
G01 Z-3.0000
G01 X124.3745 Y270.3389
G03 X115.9673 Y318.6075 I-4.3725 J24.1049
G03 X124.3745 Y270.3389 I4.0299 J-24.1646
G01 X124.1762 Y269.6910
G01 X125.9317
G01 X126.2462 Y269.1797
G01 X120.0000 Y265.5735
G01 X95.0000 Y280.0073
G01 Y308.8748
G01 X120.0000 Y323.3085
G01 X145.0000 Y308.8748
G01 Y280.0073
G01 X126.2462 Y269.1797
G01 X125.9317 Y269.6910
G01 Z-4.5000
G01 X124.1762
G00 Z5.0000
G00 X115.8238
G00 Z-2.5000
G01 Z-3.0000
G01 Z-4.5000
G01 X114.0683
G00 Z5.0000
G00 X100.4622 Y278.6910
G00 Z-2.5000
G01 Z-3.0000
G01 Z-4.5000
G01 X98.4798
G01 X95.6000 Y283.1910
G01 X97.5659
G00 Z5.0000
G00 Y305.6910
G00 Z-2.5000
G01 Z-3.0000
G01 Z-4.5000
G01 X95.6000
G01 X98.4798 Y310.1910
G01 X100.4622
G00 Z5.0000
G00 X114.0683 Y319.1910
G00 Z-2.5000
G01 Z-3.0000
G01 Z-4.5000
G01 X115.8238
G00 Z5.0000
G00 X124.1762
G00 Z-2.5000
G01 Z-3.0000
G01 Z-4.5000
G01 X125.9317
G00 Z5.0000
G00 X139.5378 Y310.1910
G00 Z-2.5000
G01 Z-3.0000
G01 Z-4.5000
G01 X141.5202
G01 X142.4341 Y305.6910
G01 X144.4000
G00 Z5.0000
G00 Y283.1910
G00 Z-2.5000
G01 Z-3.0000
G01 Z-4.5000
G01 X142.4341
G01 X139.5378 Y278.6910
G01 X139.0387 Y279.0282
G03 X101.3040 Y310.2758 I-19.0390 J15.4165
G03 X139.0387 Y279.0282 I18.6924 J-15.8351
G01 X139.5378 Y278.6910
G01 X141.5202
G01 X141.7842 Y278.1506
G01 X120.0000 Y265.5735
G01 X95.0000 Y280.0073
G01 Y308.8748
G01 X120.0000 Y323.3085
G01 X145.0000 Y308.8748
G01 Y280.0073
G01 X141.7842 Y278.1506
G01 X141.5202 Y278.6910
G01 Z-6.0000
G01 X139.5378
G01 X142.4341 Y283.1910
G01 X144.4000
G00 Z5.0000
G00 Y305.6910
G00 Z-4.0000
G01 Z-4.5000
G01 Z-6.0000
G01 X142.4341
G01 X139.5378 Y310.1910
G01 X141.5202
G00 Z5.0000
G00 X125.9317 Y319.1910
G00 Z-4.0000
G01 Z-4.5000
G01 Z-6.0000
G01 X124.1762
G00 Z5.0000
G00 X115.8238
G00 Z-4.0000
G01 Z-4.5000
G01 Z-6.0000
G01 X114.0683
G00 Z5.0000
G00 X100.4622 Y310.1910
G00 Z-4.0000
G01 Z-4.5000
G01 Z-6.0000
G01 X98.4798
G01 X95.6000 Y305.6910
G01 X97.5659
G00 Z5.0000
G00 Y283.1910
G00 Z-4.0000
G01 Z-4.5000
G01 Z-6.0000
G01 X95.6000
G01 X98.4798 Y278.6910
G01 X100.4622
G00 Z5.0000
G00 X114.0683 Y269.6910
G00 Z-4.0000
G01 Z-4.5000
G01 Z-6.0000
G01 X115.8238
G00 Z5.0000
G00 X124.1762
G00 Z-4.0000
G01 Z-4.5000
G01 Z-6.0000
G01 X124.3745 Y270.3389
G03 X115.9673 Y318.6075 I-4.3725 J24.1049
G03 X124.3745 Y270.3389 I4.0299 J-24.1646
G01 X124.1762 Y269.6910
G01 X125.9317
G01 X126.2462 Y269.1797
G01 X120.0000 Y265.5735
G01 X95.0000 Y280.0073
G01 Y308.8748
G01 X120.0000 Y323.3085
G01 X145.0000 Y308.8748
G01 Y280.0073
G01 X126.2462 Y269.1797
G01 X125.9317 Y269.6910
G01 Z-7.5000
G01 X124.1762
G00 Z5.0000
G00 X115.8238
G00 Z-5.5000
G01 Z-6.0000
G01 Z-7.5000
G01 X114.0683
G00 Z5.0000
G00 X100.4622 Y278.6910
G00 Z-5.5000
G01 Z-6.0000
G01 Z-7.5000
G01 X98.4798
G01 X95.6000 Y283.1910
G01 X97.5659
G00 Z5.0000
G00 Y305.6910
G00 Z-5.5000
G01 Z-6.0000
G01 Z-7.5000
G01 X95.6000
G01 X98.4798 Y310.1910
G01 X100.4622
G00 Z5.0000
G00 X114.0683 Y319.1910
G00 Z-5.5000
G01 Z-6.0000
G01 Z-7.5000
G01 X115.8238
G00 Z5.0000
G00 X124.1762
G00 Z-5.5000
G01 Z-6.0000
G01 Z-7.5000
G01 X125.9317
G00 Z5.0000
G00 X139.5378 Y310.1910
G00 Z-5.5000
G01 Z-6.0000
G01 Z-7.5000
G01 X141.5202
G01 X142.4341 Y305.6910
G01 X144.4000
G00 Z5.0000
G00 Y283.1910
G00 Z-5.5000
G01 Z-6.0000
G01 Z-7.5000
G01 X142.4341
G01 X139.5378 Y278.6910
G01 X139.0387 Y279.0282
G03 X101.3040 Y310.2758 I-19.0390 J15.4165
G03 X139.0387 Y279.0282 I18.6924 J-15.8351
G01 X139.5378 Y278.6910
G01 X141.5202
G01 X141.7842 Y278.1506
G01 X120.0000 Y265.5735
G01 X95.0000 Y280.0073
G01 Y308.8748
G01 X120.0000 Y323.3085
G01 X145.0000 Y308.8748
G01 Y280.0073
G01 X141.7842 Y278.1506
G01 X141.5202 Y278.6910
G01 Z-9.0000
G01 X139.5378
G01 X142.4341 Y283.1910
G01 X144.4000
G00 Z5.0000
G00 Y305.6910
G00 Z-7.0000
G01 Z-7.5000
G01 Z-9.0000
G01 X142.4341
G01 X139.5378 Y310.1910
G01 X141.5202
G00 Z5.0000
G00 X125.9317 Y319.1910
G00 Z-7.0000
G01 Z-7.5000
G01 Z-9.0000
G01 X124.1762
G00 Z5.0000
G00 X115.8238
G00 Z-7.0000
G01 Z-7.5000
G01 Z-9.0000
G01 X114.0683
G00 Z5.0000
G00 X100.4622 Y310.1910
G00 Z-7.0000
G01 Z-7.5000
G01 Z-9.0000
G01 X98.4798
G01 X95.6000 Y305.6910
G01 X97.5659
G00 Z5.0000
G00 Y283.1910
G00 Z-7.0000
G01 Z-7.5000
G01 Z-9.0000
G01 X95.6000
G01 X98.4798 Y278.6910
G01 X100.4622
G00 Z5.0000
G00 X114.0683 Y269.6910
G00 Z-7.0000
G01 Z-7.5000
G01 Z-9.0000
G01 X115.8238
G00 Z5.0000
G00 X124.1762
G00 Z-7.0000
G01 Z-7.5000
G01 Z-9.0000
G01 X124.3745 Y270.3389
G03 X115.9673 Y318.6075 I-4.3725 J24.1049
G03 X124.3745 Y270.3389 I4.0299 J-24.1646
G01 X124.1762 Y269.6910
G01 X125.9317
G01 X126.2462 Y269.1797
G01 X120.0000 Y265.5735
G01 X95.0000 Y280.0073
G01 Y308.8748
G01 X120.0000 Y323.3085
G01 X145.0000 Y308.8748
G01 Y280.0073
G01 X126.2462 Y269.1797
G01 X125.9317 Y269.6910
G01 Z-10.5000
G01 X124.1762
G00 Z5.0000
G00 X115.8238
G00 Z-8.5000
G01 Z-9.0000
G01 Z-10.5000
G01 X114.0683
G00 Z5.0000
G00 X100.4622 Y278.6910
G00 Z-8.5000
G01 Z-9.0000
G01 Z-10.5000
G01 X98.4798
G01 X95.6000 Y283.1910
G01 X97.5659
G00 Z5.0000
G00 Y305.6910
G00 Z-8.5000
G01 Z-9.0000
G01 Z-10.5000
G01 X95.6000
G01 X98.4798 Y310.1910
G01 X100.4622
G00 Z5.0000
G00 X114.0683 Y319.1910
G00 Z-8.5000
G01 Z-9.0000
G01 Z-10.5000
G01 X115.8238
G00 Z5.0000
G00 X124.1762
G00 Z-8.5000
G01 Z-9.0000
G01 Z-10.5000
G01 X125.9317
G00 Z5.0000
G00 X139.5378 Y310.1910
G00 Z-8.5000
G01 Z-9.0000
G01 Z-10.5000
G01 X141.5202
G01 X142.4341 Y305.6910
G01 X144.4000
G00 Z5.0000
G00 Y283.1910
G00 Z-8.5000
G01 Z-9.0000
G01 Z-10.5000
G01 X142.4341
G01 X139.5378 Y278.6910
G01 X139.0387 Y279.0282
G03 X101.3040 Y310.2758 I-19.0390 J15.4165
G03 X139.0387 Y279.0282 I18.6924 J-15.8351
G01 X139.5378 Y278.6910
G01 X141.5202
G01 X141.7842 Y278.1506
G01 X120.0000 Y265.5735
G01 X95.0000 Y280.0073
G01 Y308.8748
G01 X120.0000 Y323.3085
G01 X145.0000 Y308.8748
G01 Y280.0073
G01 X141.7842 Y278.1506
G01 X141.5202 Y278.6910
G01 Z-11.5000
G01 X139.5378
G01 X142.4341 Y283.1910
G01 X144.4000
G00 Z5.0000
G00 Y305.6910
G00 Z-10.0000
G01 Z-10.5000
G01 Z-11.5000
G01 X142.4341
G01 X139.5378 Y310.1910
G01 X141.5202
G00 Z5.0000
G00 X125.9317 Y319.1910
G00 Z-10.0000
G01 Z-10.5000
G01 Z-11.5000
G01 X124.1762
G00 Z5.0000
G00 X115.8238
G00 Z-10.0000
G01 Z-10.5000
G01 Z-11.5000
G01 X114.0683
G00 Z5.0000
G00 X100.4622 Y310.1910
G00 Z-10.0000
G01 Z-10.5000
G01 Z-11.5000
G01 X98.4798
G01 X95.6000 Y305.6910
G01 X97.5659
G00 Z5.0000
G00 Y283.1910
G00 Z-10.0000
G01 Z-10.5000
G01 Z-11.5000
G01 X95.6000
G01 X98.4798 Y278.6910
G01 X100.4622
G00 Z5.0000
G00 X114.0683 Y269.6910
G00 Z-10.0000
G01 Z-10.5000
G01 Z-11.5000
G01 X115.8238
G00 Z5.0000
G00 X124.1762
G00 Z-10.0000
G01 Z-10.5000
G01 Z-11.5000
G01 X124.3745 Y270.3389
G03 X115.9673 Y318.6075 I-4.3725 J24.1049
G03 X124.3745 Y270.3389 I4.0299 J-24.1646
G01 X124.1762 Y269.6910
G01 X125.9317
G01 X126.2462 Y269.1797
G01 X120.0000 Y265.5735
G01 X95.0000 Y280.0073
G01 Y308.8748
G01 X120.0000 Y323.3085
G01 X145.0000 Y308.8748
G01 Y280.0073
G01 X126.2462 Y269.1797
G01 X125.9317 Y269.6910
G00 Z5.0000


(No. 30: Hole 25)


(No. 31: Hole 25)
G00 X115.3545 Y282.8372 Z5.0000
G00 Z0.5000
G01 Z0.0000 F1500
G01 Z-1.5000
G02 X112.2735 Y304.2660 I4.6455 J11.6038
G02 X132.3719 Y296.2198 I7.7265 J-9.8250
G02 X115.3545 Y282.8372 I-12.3719 J-1.7788
G01 Z-3.0000
G02 X112.2735 Y304.2660 I4.6455 J11.6038
G02 X132.3719 Y296.2198 I7.7265 J-9.8250
G02 X115.3545 Y282.8372 I-12.3719 J-1.7788
G01 Z-4.5000
G02 X112.2735 Y304.2660 I4.6455 J11.6038
G02 X132.3719 Y296.2198 I7.7265 J-9.8250
G02 X115.3545 Y282.8372 I-12.3719 J-1.7788
G01 Z-6.0000
G02 X112.2735 Y304.2660 I4.6455 J11.6038
G02 X132.3719 Y296.2198 I7.7265 J-9.8250
G02 X115.3545 Y282.8372 I-12.3719 J-1.7788
G01 Z-7.5000
G02 X112.2735 Y304.2660 I4.6455 J11.6038
G02 X132.3719 Y296.2198 I7.7265 J-9.8250
G02 X115.3545 Y282.8372 I-12.3719 J-1.7788
G01 Z-9.0000
G02 X112.2735 Y304.2660 I4.6455 J11.6038
G02 X132.3719 Y296.2198 I7.7265 J-9.8250
G02 X115.3545 Y282.8372 I-12.3719 J-1.7788
G01 Z-10.5000
G02 X112.2735 Y304.2660 I4.6455 J11.6038
G02 X132.3719 Y296.2198 I7.7265 J-9.8250
G02 X115.3545 Y282.8372 I-12.3719 J-1.7788
G01 Z-12.0000
