(Project hexasurf)
(Created by Estlcam version 11 build 11,244)
(Machining time about 00:13:19 hours)

(Required tools:)
(30mm)

G90
M03 S24000
G00 Z5.0000


(No. 1: Part 3)
G00 X-8.3887 Y95.3461
G00 Z0.5000
G01 Z0.0000 F1200 S24000
G01 Z-0.5000
G01 X368.3887
G01 X372.0000 Y117.8461
G01 X-12.0000
G01 Y140.3461
G01 X372.0000
G01 Y162.8461
G01 X-12.0000
G01 Y185.3461
G01 X372.0000
G01 Y207.8461
G01 X-12.0000
G01 Y230.3461
G01 X372.0000
G01 Y252.8461
G01 X-12.0000
G01 Y275.3461
G01 X372.0000
G01 Y297.8461
G01 X-12.0000
G01 X-8.3887 Y320.3461
G01 X368.3887
G01 X330.1731 Y342.8461
G01 X29.8269
G01 X68.7980 Y365.3461
G01 X291.2020
G01 X252.2309 Y387.8461
G01 X107.7691
G01 X146.7403 Y410.3461
G01 X213.2597
G00 Z5.0000
G00 X330.1731 Y95.3461
G00 Z0.5000
G01 Z-0.5000
G01 Y72.8461
G01 X29.8269
G01 X68.7980 Y50.3461
G01 X291.2020
G01 X252.2309 Y27.8461
G01 X107.7691
G01 X146.7403 Y5.3461
G01 X213.2597
G01 X214.8611 Y2.8066
G01 X367.5000 Y90.9327
G03 X375.0000 Y103.9230 I-7.5000 J12.9904
G01 Y311.7691
G03 X367.5000 Y324.7595 I-15.0000 J0.0000
G01 X187.5000 Y428.6826
G03 X172.5000 I-7.5000 J-12.9904
G01 X-7.5000 Y324.7595
G03 X-15.0000 Y311.7691 I7.5000 J-12.9904
G01 Y103.9230
G03 X-7.5000 Y90.9327 I15.0000 J0.0000
G01 X172.5000 Y-12.9904
G03 X187.5000 I7.5000 J12.9904
G01 X214.8611 Y2.8066
G01 X213.2597 Y5.3461
G01 Z-1.0000
G01 X146.7403
G01 X107.7691 Y27.8461
G01 X252.2309
G01 X291.2020 Y50.3461
G01 X68.7980
G01 X29.8269 Y72.8461
G01 X330.1731
G01 X368.3887 Y95.3461
G01 X-8.3887
G01 X-12.0000 Y117.8461
G01 X372.0000
G01 Y140.3461
G01 X-12.0000
G01 Y162.8461
G01 X372.0000
G01 Y185.3461
G01 X-12.0000
G01 Y207.8461
G01 X372.0000
G01 Y230.3461
G01 X-12.0000
G01 Y252.8461
G01 X372.0000
G01 Y275.3461
G01 X-12.0000
G01 Y297.8461
G01 X372.0000
G01 X368.3887 Y320.3461
G01 X-8.3887
G01 X29.8269 Y342.8461
G01 X330.1731
G01 X291.2020 Y365.3461
G01 X68.7980
G01 X107.7691 Y387.8461
G01 X252.2309
G01 X213.2597 Y410.3461
G01 X146.7403
G01 X145.1389 Y412.8856
G01 X-7.5000 Y324.7595
G03 X-15.0000 Y311.7691 I7.5000 J-12.9904
G01 Y103.9230
G03 X-7.5000 Y90.9327 I15.0000 J0.0000
G01 X172.5000 Y-12.9904
G03 X187.5000 I7.5000 J12.9904
G01 X367.5000 Y90.9327
G03 X375.0000 Y103.9230 I-7.5000 J12.9904
G01 Y311.7691
G03 X367.5000 Y324.7595 I-15.0000 J0.0000
G01 X187.5000 Y428.6826
G03 X172.5000 I-7.5000 J-12.9904
G01 X145.1389 Y412.8856
G01 X146.7403 Y410.3461
G00 Z5.0000
G00 X0.0000 Y0.0000

M05
M30
