(Project hexaext)
(Created by Estlcam version 11 build 11,244)
(Machining time about 00:13:44 hours)

(Required tools:)
(30mm)

G90
M03 S24000
G00 Z5.0000


(No. 1: Hole 4)
G00 X176.5800 Y203.1750
G00 Z0.5000
G01 Z-0.2500 F1200 S24000
G01 X173.6100 Y204.9300
G01 Y209.7900
G01 X180.9000 Y213.5700
G01 X186.5700 Y210.3300
G01 Y205.2000
G01 X181.4400 Y201.9600
G01 X179.5500 Y201.4200
G01 X176.5800 Y203.1750
G01 X169.8551 Y191.0880
G01 X159.8400 Y196.8300
G01 Y217.8900
G01 X179.2800 Y228.9600
G01 X181.1700 Y229.5000
G01 X200.3400 Y218.1600
G01 Y197.1000
G01 X180.0900 Y185.2200
G01 X169.8551 Y191.0880
G01 X164.0941 Y178.2986
G01 X152.2800 Y185.2200
G01 X146.0700 Y189.0000
G01 Y225.9900
G01 X180.9000 Y245.7000
G01 X214.1100 Y226.2600
G01 Y189.2700
G01 X180.3600 Y169.2900
G01 X179.0100 Y169.5600
G01 X164.0941 Y178.2986
G01 X156.4179 Y166.8188
G01 X132.3000 Y180.9000
G01 Y234.0900
G01 X179.2800 Y261.0900
G01 X181.1700 Y261.6300
G01 X227.8800 Y234.0900
G01 Y181.1700
G01 X180.3600 Y153.3600
G01 X175.7700 Y155.5200
G01 X156.4179 Y166.8188
G01 X149.3384 Y154.9562
G01 X118.5300 Y172.8000
G01 Y242.1900
G01 X180.9000 Y277.8300
G01 X241.6500 Y242.1900
G01 Y173.3400
G01 X180.6300 Y137.4300
G01 X178.2000 Y138.2400
G01 X149.3384 Y154.9562
G01 X142.4052 Y143.0131
G01 X104.7600 Y164.7000
G01 Y250.2900
G01 X180.6300 Y294.0300
G01 X255.4200 Y250.2900
G01 Y165.2400
G01 X180.6300 Y121.5000
G01 X179.2800 Y121.7700
G01 X142.4052 Y143.0131
G01 X135.8128 Y130.9219
G01 X97.7400 Y152.8200
G01 X90.9900 Y156.8700
G01 Y258.3900
G01 X180.3600 Y310.2300
G01 X269.1900 Y258.3900
G01 Y157.1400
G01 X180.3600 Y105.3000
G01 X135.8128 Y130.9219
G01 X128.8002 Y118.8508
G01 X77.2200 Y148.7700
G01 Y266.4900
G01 X178.4700 Y325.3500
G01 X180.9000 Y325.8900
G01 X282.9600 Y266.4900
G01 Y149.0400
G01 X180.0900 Y89.1000
G01 X128.8002 Y118.8508
G01 X121.8323 Y106.8497
G01 X70.7400 Y136.6200
G01 X63.4500 Y140.9400
G01 Y274.5900
G01 X173.8800 Y338.5800
G01 X179.5500 Y341.8200
G01 X180.9000
G01 X296.7300 Y274.5900
G01 Y140.9400
G01 X180.6300 Y73.4400
G01 X179.2800
G01 X173.6100 Y76.6800
G01 X121.8323 Y106.8497
G01 X114.8895 Y94.9370
G01 X49.6800 Y132.8400
G01 Y282.6900
G01 X178.2000 Y356.9400
G01 X180.9000 Y357.7500
G01 X310.5000 Y282.6900
G01 Y132.8400
G01 X183.3300 Y59.1300
G01 X179.2800 Y57.5100
G01 X114.8895 Y94.9370
G01 X107.9324 Y82.9643
G01 X35.9100 Y124.7400
G01 Y290.7900
G01 X179.2800 Y373.4100
G01 X180.9000 Y373.6800
G01 X324.2700 Y290.7900
G01 Y124.7400
G01 X180.9000 Y41.8500
G01 X179.2800 Y41.5800
G01 X107.9324 Y82.9643
G01 X101.0046 Y70.9958
G01 X22.1400 Y116.6400
G01 Y298.8900
G01 X180.3600 Y389.8800
G01 X338.0400 Y298.8900
G01 Y116.6400
G01 X179.8200 Y25.3800
G01 X101.0046 Y70.9958
G01 X97.5113 Y64.9454
G01 X15.0000 Y112.5833
G01 Y303.1089
G01 X180.0000 Y398.3717
G01 X345.0000 Y303.1089
G01 Y112.5833
G01 X180.0000 Y17.3205
G01 X97.5113 Y64.9454
G00 Z5.0000
G00 X176.5809 Y203.1745
G00 Z0.2500
G01 Z-0.5000
G01 X173.6100 Y204.9300
G01 Y209.7900
G01 X180.9000 Y213.5700
G01 X186.5700 Y210.3300
G01 Y205.2000
G01 X181.4400 Y201.9600
G01 X179.5500 Y201.4200
G01 X176.5809 Y203.1745
G01 X169.8555 Y191.0878
G01 X159.8400 Y196.8300
G01 Y217.8900
G01 X179.2800 Y228.9600
G01 X181.1700 Y229.5000
G01 X200.3400 Y218.1600
G01 Y197.1000
G01 X180.0900 Y185.2200
G01 X169.8555 Y191.0878
G01 X164.0943 Y178.2985
G01 X152.2800 Y185.2200
G01 X146.0700 Y189.0000
G01 Y225.9900
G01 X180.9000 Y245.7000
G01 X214.1100 Y226.2600
G01 Y189.2700
G01 X180.3600 Y169.2900
G01 X179.0100 Y169.5600
G01 X164.0943 Y178.2985
G01 X156.4180 Y166.8187
G01 X132.3000 Y180.9000
G01 Y234.0900
G01 X179.2800 Y261.0900
G01 X181.1700 Y261.6300
G01 X227.8800 Y234.0900
G01 Y181.1700
G01 X180.3600 Y153.3600
G01 X175.7700 Y155.5200
G01 X156.4180 Y166.8187
G01 X149.3385 Y154.9562
G01 X118.5300 Y172.8000
G01 Y242.1900
G01 X180.9000 Y277.8300
G01 X241.6500 Y242.1900
G01 Y173.3400
G01 X180.6300 Y137.4300
G01 X178.2000 Y138.2400
G01 X149.3385 Y154.9562
G01 X142.4053 Y143.0130
G01 X104.7600 Y164.7000
G01 Y250.2900
G01 X180.6300 Y294.0300
G01 X255.4200 Y250.2900
G01 Y165.2400
G01 X180.6300 Y121.5000
G01 X179.2800 Y121.7700
G01 X142.4053 Y143.0130
G01 X135.8129 Y130.9219
G01 X97.7400 Y152.8200
G01 X90.9900 Y156.8700
G01 Y258.3900
G01 X180.3600 Y310.2300
G01 X269.1900 Y258.3900
G01 Y157.1400
G01 X180.3600 Y105.3000
G01 X135.8129 Y130.9219
G01 X128.8003 Y118.8507
G01 X77.2200 Y148.7700
G01 Y266.4900
G01 X178.4700 Y325.3500
G01 X180.9000 Y325.8900
G01 X282.9600 Y266.4900
G01 Y149.0400
G01 X180.0900 Y89.1000
G01 X128.8003 Y118.8507
G01 X121.8324 Y106.8496
G01 X70.7400 Y136.6200
G01 X63.4500 Y140.9400
G01 Y274.5900
G01 X173.8800 Y338.5800
G01 X179.5500 Y341.8200
G01 X180.9000
G01 X296.7300 Y274.5900
G01 Y140.9400
G01 X180.6300 Y73.4400
G01 X179.2800
G01 X173.6100 Y76.6800
G01 X121.8324 Y106.8496
G01 X114.8896 Y94.9369
G01 X49.6800 Y132.8400
G01 Y282.6900
G01 X178.2000 Y356.9400
G01 X180.9000 Y357.7500
G01 X310.5000 Y282.6900
G01 Y132.8400
G01 X183.3300 Y59.1300
G01 X179.2800 Y57.5100
G01 X114.8896 Y94.9369
G01 X107.9325 Y82.9643
G01 X35.9100 Y124.7400
G01 Y290.7900
G01 X179.2800 Y373.4100
G01 X180.9000 Y373.6800
G01 X324.2700 Y290.7900
G01 Y124.7400
G01 X180.9000 Y41.8500
G01 X179.2800 Y41.5800
G01 X107.9325 Y82.9643
G01 X101.0047 Y70.9957
G01 X22.1400 Y116.6400
G01 Y298.8900
G01 X180.3600 Y389.8800
G01 X338.0400 Y298.8900
G01 Y116.6400
G01 X179.8200 Y25.3800
G01 X101.0047 Y70.9957
G01 X97.5114 Y64.9453
G01 X15.0000 Y112.5833
G01 Y303.1089
G01 X180.0000 Y398.3717
G01 X345.0000 Y303.1089
G01 Y112.5833
G01 X180.0000 Y17.3205
G01 X97.5114 Y64.9453
G00 Z5.0000
G00 X0.0000 Y0.0000

M05
M30
