(Project hexa)
(Created by Estlcam version 11 build 11,244)
(Machining time about 00:19:21 hours)

(Required tools:)
(Fraise 6)

G90
M03 S24000
G00 Z5.0000


(No. 1: Graver 6)
G00 X60.0035 Y69.2793
G00 Z0.5000
G01 Z0.0000 F1500 S24000
G01 Z-2.0000
G01 X90.0009 Y86.6010
G01 X120.0009 Y69.2805
G01 X150.0009 Y86.6010
G01 X180.0009 Y69.2805
G01 X210.0009 Y86.6010
G01 X239.9982 Y69.2790
G01 X269.9982 Y86.5995
G01 Y121.2405
G01 X299.9956 Y138.5595
G01 X299.9982 Y173.2020
G01 X329.9956 Y190.5210
G01 Y225.1620
G01 X299.9956 Y242.4825
G01 Y277.1236
G01 X269.9956 Y294.4441
G01 Y329.0851
G01 X239.9956 Y346.4056
G01 X209.9982 Y329.0866
G01 X179.9956 Y346.4056
G01 X149.9982 Y329.0866
G01 X119.9982 Y346.4071
G01 X90.0009 Y329.0881
G01 X89.9982 Y294.4456
G01 X60.0009 Y277.1266
G01 Y242.4856
G01 X30.0035 Y225.1666
G01 X30.0009 Y190.5241
G01 X60.0009 Y173.2036
G01 Y138.5625
G01 X90.0009 Y121.2420
G01 X120.0009 Y138.5625
G01 X150.0009 Y121.2420
G01 X180.0009 Y138.5625
G01 X209.9982 Y121.2405
G01 X239.9982 Y138.5610
G01 Y173.2020
G01 X269.9956 Y190.5210
G01 X269.9982 Y225.1636
G01 X239.9982 Y242.4841
G01 X239.9956 Y277.1236
G01 X209.9956 Y294.4441
G01 X179.9982 Y277.1251
G01 X149.9982 Y294.4456
G01 X120.0009 Y277.1266
G01 X119.9982 Y242.4841
G01 X90.0009 Y225.1651
G01 Y190.5241
G01 X120.0009 Y173.2036
G01 X150.0009 Y190.5241
G01 X180.0009 Y173.2036
G01 X209.9982 Y190.5225
G01 Y225.1636
G01 X179.9982 Y242.4841
G01 X149.9982 Y225.1636
G01 X119.9982 Y242.4841
G01 Z-4.0000
G01 X149.9982 Y225.1636
G01 X179.9982 Y242.4841
G01 X209.9982 Y225.1636
G01 Y190.5225
G01 X180.0009 Y173.2036
G01 X150.0009 Y190.5241
G01 X120.0009 Y173.2036
G01 X90.0009 Y190.5241
G01 Y225.1651
G01 X119.9982 Y242.4841
G01 X120.0009 Y277.1266
G01 X149.9982 Y294.4456
G01 X179.9982 Y277.1251
G01 X209.9956 Y294.4441
G01 X239.9956 Y277.1236
G01 X239.9982 Y242.4841
G01 X269.9982 Y225.1636
G01 X269.9956 Y190.5210
G01 X239.9982 Y173.2020
G01 Y138.5610
G01 X209.9982 Y121.2405
G01 X180.0009 Y138.5625
G01 X150.0009 Y121.2420
G01 X120.0009 Y138.5625
G01 X90.0009 Y121.2420
G01 X60.0009 Y138.5625
G01 Y173.2036
G01 X30.0009 Y190.5241
G01 X30.0035 Y225.1666
G01 X60.0009 Y242.4856
G01 Y277.1266
G01 X89.9982 Y294.4456
G01 X90.0009 Y329.0881
G01 X119.9982 Y346.4071
G01 X149.9982 Y329.0866
G01 X179.9956 Y346.4056
G01 X209.9982 Y329.0866
G01 X239.9956 Y346.4056
G01 X269.9956 Y329.0851
G01 Y294.4441
G01 X299.9956 Y277.1236
G01 Y242.4825
G01 X329.9956 Y225.1620
G01 Y190.5210
G01 X299.9982 Y173.2020
G01 X299.9956 Y138.5595
G01 X269.9982 Y121.2405
G01 Y86.5995
G01 X239.9982 Y69.2790
G01 X210.0009 Y86.6010
G01 X180.0009 Y69.2805
G01 X150.0009 Y86.6010
G01 X120.0009 Y69.2805
G01 X90.0009 Y86.6010
G01 X60.0035 Y69.2793
G01 Z-6.0000
G01 X90.0009 Y86.6010
G01 X120.0009 Y69.2805
G01 X150.0009 Y86.6010
G01 X180.0009 Y69.2805
G01 X210.0009 Y86.6010
G01 X239.9982 Y69.2790
G01 X269.9982 Y86.5995
G01 Y121.2405
G01 X299.9956 Y138.5595
G01 X299.9982 Y173.2020
G01 X329.9956 Y190.5210
G01 Y225.1620
G01 X299.9956 Y242.4825
G01 Y277.1236
G01 X269.9956 Y294.4441
G01 Y329.0851
G01 X239.9956 Y346.4056
G01 X209.9982 Y329.0866
G01 X179.9956 Y346.4056
G01 X149.9982 Y329.0866
G01 X119.9982 Y346.4071
G01 X90.0009 Y329.0881
G01 X89.9982 Y294.4456
G01 X60.0009 Y277.1266
G01 Y242.4856
G01 X30.0035 Y225.1666
G01 X30.0009 Y190.5241
G01 X60.0009 Y173.2036
G01 Y138.5625
G01 X90.0009 Y121.2420
G01 X120.0009 Y138.5625
G01 X150.0009 Y121.2420
G01 X180.0009 Y138.5625
G01 X209.9982 Y121.2405
G01 X239.9982 Y138.5610
G01 Y173.2020
G01 X269.9956 Y190.5210
G01 X269.9982 Y225.1636
G01 X239.9982 Y242.4841
G01 X239.9956 Y277.1236
G01 X209.9956 Y294.4441
G01 X179.9982 Y277.1251
G01 X149.9982 Y294.4456
G01 X120.0009 Y277.1266
G01 X119.9982 Y242.4841
G01 X90.0009 Y225.1651
G01 Y190.5241
G01 X120.0009 Y173.2036
G01 X150.0009 Y190.5241
G01 X180.0009 Y173.2036
G01 X209.9982 Y190.5225
G01 Y225.1636
G01 X179.9982 Y242.4841
G01 X149.9982 Y225.1636
G01 X119.9982 Y242.4841
G01 Z-8.0000
G01 X149.9982 Y225.1636
G01 X179.9982 Y242.4841
G01 X209.9982 Y225.1636
G01 Y190.5225
G01 X180.0009 Y173.2036
G01 X150.0009 Y190.5241
G01 X120.0009 Y173.2036
G01 X90.0009 Y190.5241
G01 Y225.1651
G01 X119.9982 Y242.4841
G01 X120.0009 Y277.1266
G01 X149.9982 Y294.4456
G01 X179.9982 Y277.1251
G01 X209.9956 Y294.4441
G01 X239.9956 Y277.1236
G01 X239.9982 Y242.4841
G01 X269.9982 Y225.1636
G01 X269.9956 Y190.5210
G01 X239.9982 Y173.2020
G01 Y138.5610
G01 X209.9982 Y121.2405
G01 X180.0009 Y138.5625
G01 X150.0009 Y121.2420
G01 X120.0009 Y138.5625
G01 X90.0009 Y121.2420
G01 X60.0009 Y138.5625
G01 Y173.2036
G01 X30.0009 Y190.5241
G01 X30.0035 Y225.1666
G01 X60.0009 Y242.4856
G01 Y277.1266
G01 X89.9982 Y294.4456
G01 X90.0009 Y329.0881
G01 X119.9982 Y346.4071
G01 X149.9982 Y329.0866
G01 X179.9956 Y346.4056
G01 X209.9982 Y329.0866
G01 X239.9956 Y346.4056
G01 X269.9956 Y329.0851
G01 Y294.4441
G01 X299.9956 Y277.1236
G01 Y242.4825
G01 X329.9956 Y225.1620
G01 Y190.5210
G01 X299.9982 Y173.2020
G01 X299.9956 Y138.5595
G01 X269.9982 Y121.2405
G01 Y86.5995
G01 X239.9982 Y69.2790
G01 X210.0009 Y86.6010
G01 X180.0009 Y69.2805
G01 X150.0009 Y86.6010
G01 X120.0009 Y69.2805
G01 X90.0009 Y86.6010
G01 X60.0035 Y69.2793
G01 Z-10.0000
G01 X90.0009 Y86.6010
G01 X120.0009 Y69.2805
G01 X150.0009 Y86.6010
G01 X180.0009 Y69.2805
G01 X210.0009 Y86.6010
G01 X239.9982 Y69.2790
G01 X269.9982 Y86.5995
G01 Y121.2405
G01 X299.9956 Y138.5595
G01 X299.9982 Y173.2020
G01 X329.9956 Y190.5210
G01 Y225.1620
G01 X299.9956 Y242.4825
G01 Y277.1236
G01 X269.9956 Y294.4441
G01 Y329.0851
G01 X239.9956 Y346.4056
G01 X209.9982 Y329.0866
G01 X179.9956 Y346.4056
G01 X149.9982 Y329.0866
G01 X119.9982 Y346.4071
G01 X90.0009 Y329.0881
G01 X89.9982 Y294.4456
G01 X60.0009 Y277.1266
G01 Y242.4856
G01 X30.0035 Y225.1666
G01 X30.0009 Y190.5241
G01 X60.0009 Y173.2036
G01 Y138.5625
G01 X90.0009 Y121.2420
G01 X120.0009 Y138.5625
G01 X150.0009 Y121.2420
G01 X180.0009 Y138.5625
G01 X209.9982 Y121.2405
G01 X239.9982 Y138.5610
G01 Y173.2020
G01 X269.9956 Y190.5210
G01 X269.9982 Y225.1636
G01 X239.9982 Y242.4841
G01 X239.9956 Y277.1236
G01 X209.9956 Y294.4441
G01 X179.9982 Y277.1251
G01 X149.9982 Y294.4456
G01 X120.0009 Y277.1266
G01 X119.9982 Y242.4841
G01 X90.0009 Y225.1651
G01 Y190.5241
G01 X120.0009 Y173.2036
G01 X150.0009 Y190.5241
G01 X180.0009 Y173.2036
G01 X209.9982 Y190.5225
G01 Y225.1636
G01 X179.9982 Y242.4841
G01 X149.9982 Y225.1636
G01 X119.9982 Y242.4841
G01 Z-12.0000
G01 X149.9982 Y225.1636
G01 X179.9982 Y242.4841
G01 X209.9982 Y225.1636
G01 Y190.5225
G01 X180.0009 Y173.2036
G01 X150.0009 Y190.5241
G01 X120.0009 Y173.2036
G01 X90.0009 Y190.5241
G01 Y225.1651
G01 X119.9982 Y242.4841
G01 X120.0009 Y277.1266
G01 X149.9982 Y294.4456
G01 X179.9982 Y277.1251
G01 X209.9956 Y294.4441
G01 X239.9956 Y277.1236
G01 X239.9982 Y242.4841
G01 X269.9982 Y225.1636
G01 X269.9956 Y190.5210
G01 X239.9982 Y173.2020
G01 Y138.5610
G01 X209.9982 Y121.2405
G01 X180.0009 Y138.5625
G01 X150.0009 Y121.2420
G01 X120.0009 Y138.5625
G01 X90.0009 Y121.2420
G01 X60.0009 Y138.5625
G01 Y173.2036
G01 X30.0009 Y190.5241
G01 X30.0035 Y225.1666
G01 X60.0009 Y242.4856
G01 Y277.1266
G01 X89.9982 Y294.4456
G01 X90.0009 Y329.0881
G01 X119.9982 Y346.4071
G01 X149.9982 Y329.0866
G01 X179.9956 Y346.4056
G01 X209.9982 Y329.0866
G01 X239.9956 Y346.4056
G01 X269.9956 Y329.0851
G01 Y294.4441
G01 X299.9956 Y277.1236
G01 Y242.4825
G01 X329.9956 Y225.1620
G01 Y190.5210
G01 X299.9982 Y173.2020
G01 X299.9956 Y138.5595
G01 X269.9982 Y121.2405
G01 Y86.5995
G01 X239.9982 Y69.2790
G01 X210.0009 Y86.6010
G01 X180.0009 Y69.2805
G01 X150.0009 Y86.6010
G01 X120.0009 Y69.2805
G01 X90.0009 Y86.6010
G01 X60.0035 Y69.2793
G01 Z-13.0000
G01 X90.0009 Y86.6010
G01 X120.0009 Y69.2805
G01 X150.0009 Y86.6010
G01 X180.0009 Y69.2805
G01 X210.0009 Y86.6010
G01 X239.9982 Y69.2790
G01 X269.9982 Y86.5995
G01 Y121.2405
G01 X299.9956 Y138.5595
G01 X299.9982 Y173.2020
G01 X329.9956 Y190.5210
G01 Y225.1620
G01 X299.9956 Y242.4825
G01 Y277.1236
G01 X269.9956 Y294.4441
G01 Y329.0851
G01 X239.9956 Y346.4056
G01 X209.9982 Y329.0866
G01 X179.9956 Y346.4056
G01 X149.9982 Y329.0866
G01 X119.9982 Y346.4071
G01 X90.0009 Y329.0881
G01 X89.9982 Y294.4456
G01 X60.0009 Y277.1266
G01 Y242.4856
G01 X30.0035 Y225.1666
G01 X30.0009 Y190.5241
G01 X60.0009 Y173.2036
G01 Y138.5625
G01 X90.0009 Y121.2420
G01 X120.0009 Y138.5625
G01 X150.0009 Y121.2420
G01 X180.0009 Y138.5625
G01 X209.9982 Y121.2405
G01 X239.9982 Y138.5610
G01 Y173.2020
G01 X269.9956 Y190.5210
G01 X269.9982 Y225.1636
G01 X239.9982 Y242.4841
G01 X239.9956 Y277.1236
G01 X209.9956 Y294.4441
G01 X179.9982 Y277.1251
G01 X149.9982 Y294.4456
G01 X120.0009 Y277.1266
G01 X119.9982 Y242.4841
G01 X90.0009 Y225.1651
G01 Y190.5241
G01 X120.0009 Y173.2036
G01 X150.0009 Y190.5241
G01 X180.0009 Y173.2036
G01 X209.9982 Y190.5225
G01 Y225.1636
G01 X179.9982 Y242.4841
G01 X149.9982 Y225.1636
G01 X119.9982 Y242.4841
G00 Z5.0000


(No. 2: Graver 7)
G00 X149.9982 Y225.1636 Z5.0000
G00 Z0.5000
G01 Z0.0000 F1500
G01 Z-2.0000
G01 Y190.5225
G01 Z-4.0000
G01 Y225.1636
G01 Z-6.0000
G01 Y190.5225
G01 Z-8.0000
G01 Y225.1636
G01 Z-10.0000
G01 Y190.5225
G01 Z-12.0000
G01 Y225.1636
G01 Z-13.0000
G01 Y190.5225
G00 Z5.0000


(No. 3: Graver 12)
G00 X120.0009 Y138.5625 Z5.0000
G00 Z0.5000
G01 Z0.0000 F1500
G01 Z-2.0000
G01 Y173.2036
G01 Z-4.0000
G01 Y138.5625
G01 Z-6.0000
G01 Y173.2036
G01 Z-8.0000
G01 Y138.5625
G01 Z-10.0000
G01 Y173.2036
G01 Z-12.0000
G01 Y138.5625
G01 Z-13.0000
G01 Y173.2036
G00 Z5.0000


(No. 4: Graver 24)
G00 X90.0035 Y121.2436 Z5.0000
G00 Z0.5000
G01 Z0.0000 F1500
G01 Z-2.0000
G01 Y86.6025
G01 Z-4.0000
G01 Y121.2436
G01 Z-6.0000
G01 Y86.6025
G01 Z-8.0000
G01 Y121.2436
G01 Z-10.0000
G01 Y86.6025
G01 Z-12.0000
G01 Y121.2436
G01 Z-13.0000
G01 Y86.6025
G00 Z5.0000


(No. 5: Graver 25)
G00 X120.0009 Y69.2805 Z5.0000
G00 Z0.5000
G01 Z0.0000 F1500
G01 Z-2.0000
G01 X120.0035 Y34.6410
G01 Z-4.0000
G01 X120.0009 Y69.2805
G01 Z-6.0000
G01 X120.0035 Y34.6410
G01 Z-8.0000
G01 X120.0009 Y69.2805
G01 Z-10.0000
G01 X120.0035 Y34.6410
G01 Z-12.0000
G01 X120.0009 Y69.2805
G01 Z-13.0000
G01 X120.0035 Y34.6410
G00 Z5.0000


(No. 6: Graver 26)
G00 X150.0009 Y17.3190 Z5.0000
G00 Z0.5000
G01 Z0.0000 F1500
G01 Z-2.0000
G01 X180.0009 Y34.6395
G01 X209.9977 Y17.3208
G01 Z-4.0000
G01 X180.0009 Y34.6395
G01 X150.0009 Y17.3190
G01 Z-6.0000
G01 X180.0009 Y34.6395
G01 X209.9977 Y17.3208
G01 Z-8.0000
G01 X180.0009 Y34.6395
G01 X150.0009 Y17.3190
G01 Z-10.0000
G01 X180.0009 Y34.6395
G01 X209.9977 Y17.3208
G01 Z-12.0000
G01 X180.0009 Y34.6395
G01 X150.0009 Y17.3190
G01 Z-13.0000
G01 X180.0009 Y34.6395
G01 X209.9977 Y17.3208
G00 Z5.0000


(No. 7: Graver 27)
G00 X180.0009 Y34.6395 Z5.0000
G00 Z0.5000
G01 Z0.0000 F1500
G01 Z-2.0000
G01 Y69.2805
G01 Z-4.0000
G01 Y34.6395
G01 Z-6.0000
G01 Y69.2805
G01 Z-8.0000
G01 Y34.6395
G01 Z-10.0000
G01 Y69.2805
G01 Z-12.0000
G01 Y34.6395
G01 Z-13.0000
G01 Y69.2805
G00 Z5.0000


(No. 8: Graver 22)
G00 X209.9982 Y121.2405 Z5.0000
G00 Z0.5000
G01 Z0.0000 F1500
G01 Z-2.0000
G01 Y86.5995
G01 Z-4.0000
G01 Y121.2405
G01 Z-6.0000
G01 Y86.5995
G01 Z-8.0000
G01 Y121.2405
G01 Z-10.0000
G01 Y86.5995
G01 Z-12.0000
G01 Y121.2405
G01 Z-13.0000
G01 Y86.5995
G00 Z5.0000


(No. 9: Graver 28)
G00 X240.0009 Y34.6429 Z5.0000
G00 Z0.5000
G01 Z0.0000 F1500
G01 Z-2.0000
G01 X239.9982 Y69.2790
G01 Z-4.0000
G01 X240.0009 Y34.6429
G01 Z-6.0000
G01 X239.9982 Y69.2790
G01 Z-8.0000
G01 X240.0009 Y34.6429
G01 Z-10.0000
G01 X239.9982 Y69.2790
G01 Z-12.0000
G01 X240.0009 Y34.6429
G01 Z-13.0000
G01 X239.9982 Y69.2790
G00 Z5.0000


(No. 10: Graver 29)
G00 X299.9959 Y69.2803 Z5.0000
G00 Z0.5000
G01 Z0.0000 F1500
G01 Z-2.0000
G01 X269.9982 Y86.5995
G01 Z-4.0000
G01 X299.9959 Y69.2803
G01 Z-6.0000
G01 X269.9982 Y86.5995
G01 Z-8.0000
G01 X299.9959 Y69.2803
G01 Z-10.0000
G01 X269.9982 Y86.5995
G01 Z-12.0000
G01 X299.9959 Y69.2803
G01 Z-13.0000
G01 X269.9982 Y86.5995
G00 Z5.0000


(No. 11: Graver 30)
G00 X329.9982 Y86.5995 Z5.0000
G00 Z0.5000
G01 Z0.0000 F1500
G01 Z-2.0000
G01 Y121.2405
G01 X359.9956 Y138.5595
G01 Z-4.0000
G01 X329.9982 Y121.2405
G01 Y86.5995
G01 Z-6.0000
G01 Y121.2405
G01 X359.9956 Y138.5595
G01 Z-8.0000
G01 X329.9982 Y121.2405
G01 Y86.5995
G01 Z-10.0000
G01 Y121.2405
G01 X359.9956 Y138.5595
G01 Z-12.0000
G01 X329.9982 Y121.2405
G01 Y86.5995
G01 Z-13.0000
G01 Y121.2405
G01 X359.9956 Y138.5595
G00 Z5.0000


(No. 12: Graver 32)
G00 X359.9956 Y173.2005 Z5.0000
G00 Z0.5000
G01 Z0.0000 F1500
G01 Z-2.0000
G01 X329.9956 Y190.5210
G01 Z-4.0000
G01 X359.9956 Y173.2005
G01 Z-6.0000
G01 X329.9956 Y190.5210
G01 Z-8.0000
G01 X359.9956 Y173.2005
G01 Z-10.0000
G01 X329.9956 Y190.5210
G01 Z-12.0000
G01 X359.9956 Y173.2005
G01 Z-13.0000
G01 X329.9956 Y190.5210
G00 Z5.0000


(No. 13: Graver 33)
G00 X329.9956 Y225.1620 Z5.0000
G00 Z0.5000
G01 Z0.0000 F1500
G01 Z-2.0000
G01 X359.9959 Y242.4824
G01 Z-4.0000
G01 X329.9956 Y225.1620
G01 Z-6.0000
G01 X359.9959 Y242.4824
G01 Z-8.0000
G01 X329.9956 Y225.1620
G01 Z-10.0000
G01 X359.9959 Y242.4824
G01 Z-12.0000
G01 X329.9956 Y225.1620
G01 Z-13.0000
G01 X359.9959 Y242.4824
G00 Z5.0000


(No. 14: Graver 34)
G00 X359.9930 Y277.1220 Z5.0000
G00 Z0.5000
G01 Z0.0000 F1500
G01 Z-2.0000
G01 X329.9956 Y294.4441
G01 X329.9930 Y329.0836
G01 Z-4.0000
G01 X329.9956 Y294.4441
G01 X359.9930 Y277.1220
G01 Z-6.0000
G01 X329.9956 Y294.4441
G01 X329.9930 Y329.0836
G01 Z-8.0000
G01 X329.9956 Y294.4441
G01 X359.9930 Y277.1220
G01 Z-10.0000
G01 X329.9956 Y294.4441
G01 X329.9930 Y329.0836
G01 Z-12.0000
G01 X329.9956 Y294.4441
G01 X359.9930 Y277.1220
G01 Z-13.0000
G01 X329.9956 Y294.4441
G01 X329.9930 Y329.0836
G00 Z5.0000


(No. 15: Graver 36)
G00 X299.9956 Y346.4056 Z5.0000
G00 Z0.5000
G01 Z0.0000 F1500
G01 Z-2.0000
G01 X269.9956 Y329.0851
G01 Z-4.0000
G01 X299.9956 Y346.4056
G01 Z-6.0000
G01 X269.9956 Y329.0851
G01 Z-8.0000
G01 X299.9956 Y346.4056
G01 Z-10.0000
G01 X269.9956 Y329.0851
G01 Z-12.0000
G01 X299.9956 Y346.4056
G01 Z-13.0000
G01 X269.9956 Y329.0851
G00 Z5.0000


(No. 16: Graver 18)
G00 X239.9982 Y277.1251 Z5.0000
G00 Z0.5000
G01 Z0.0000 F1500
G01 Z-2.0000
G01 X269.9956 Y294.4441
G01 Z-4.0000
G01 X239.9982 Y277.1251
G01 Z-6.0000
G01 X269.9956 Y294.4441
G01 Z-8.0000
G01 X239.9982 Y277.1251
G01 Z-10.0000
G01 X269.9956 Y294.4441
G01 Z-12.0000
G01 X239.9982 Y277.1251
G01 Z-13.0000
G01 X269.9956 Y294.4441
G00 Z5.0000


(No. 17: Graver 35)
G00 X329.9930 Y294.4425 Z5.0000
G00 Z0.5000
G01 Z0.0000 F1500
G01 Z-2.0000
G01 X299.9956 Y277.1236
G01 Z-4.0000
G01 X329.9930 Y294.4425
G01 Z-6.0000
G01 X299.9956 Y277.1236
G01 Z-8.0000
G01 X329.9930 Y294.4425
G01 Z-10.0000
G01 X299.9956 Y277.1236
G01 Z-12.0000
G01 X329.9930 Y294.4425
G01 Z-13.0000
G01 X299.9956 Y277.1236
G00 Z5.0000


(No. 18: Graver 19)
G00 X269.9956 Y225.1620 Z5.0000
G00 Z0.5000
G01 Z0.0000 F1500
G01 Z-2.0000
G01 X299.9956 Y242.4825
G01 Z-4.0000
G01 X269.9956 Y225.1620
G01 Z-6.0000
G01 X299.9956 Y242.4825
G01 Z-8.0000
G01 X269.9956 Y225.1620
G01 Z-10.0000
G01 X299.9956 Y242.4825
G01 Z-12.0000
G01 X269.9956 Y225.1620
G01 Z-13.0000
G01 X299.9956 Y242.4825
G00 Z5.0000


(No. 19: Graver 20)
G00 X269.9982 Y190.5225 Z5.0000
G00 Z0.5000
G01 Z0.0000 F1500
G01 Z-2.0000
G01 X299.9956 Y173.2005
G01 Z-4.0000
G01 X269.9982 Y190.5225
G01 Z-6.0000
G01 X299.9956 Y173.2005
G01 Z-8.0000
G01 X269.9982 Y190.5225
G01 Z-10.0000
G01 X299.9956 Y173.2005
G01 Z-12.0000
G01 X269.9982 Y190.5225
G01 Z-13.0000
G01 X299.9956 Y173.2005
G00 Z5.0000


(No. 20: Graver 10)
G00 X239.9982 Y173.2020 Z5.0000
G00 Z0.5000
G01 Z0.0000 F1500
G01 Z-2.0000
G01 X209.9982 Y190.5225
G01 Z-4.0000
G01 X239.9982 Y173.2020
G01 Z-6.0000
G01 X209.9982 Y190.5225
G01 Z-8.0000
G01 X239.9982 Y173.2020
G01 Z-10.0000
G01 X209.9982 Y190.5225
G01 Z-12.0000
G01 X239.9982 Y173.2020
G01 Z-13.0000
G01 X209.9982 Y190.5225
G00 Z5.0000


(No. 21: Graver 9)
G00 X239.9956 Y242.4825 Z5.0000
G00 Z0.5000
G01 Z0.0000 F1500
G01 Z-2.0000
G01 X209.9982 Y225.1636
G01 Z-4.0000
G01 X239.9956 Y242.4825
G01 Z-6.0000
G01 X209.9982 Y225.1636
G01 Z-8.0000
G01 X239.9956 Y242.4825
G01 Z-10.0000
G01 X209.9982 Y225.1636
G01 Z-12.0000
G01 X239.9956 Y242.4825
G01 Z-13.0000
G01 X209.9982 Y225.1636
G00 Z5.0000


(No. 22: Graver 8)
G00 X179.9982 Y277.1251 Z5.0000
G00 Z0.5000
G01 Z0.0000 F1500
G01 Z-2.0000
G01 Y242.4841
G01 Z-4.0000
G01 Y277.1251
G01 Z-6.0000
G01 Y242.4841
G01 Z-8.0000
G01 Y277.1251
G01 Z-10.0000
G01 Y242.4841
G01 Z-12.0000
G01 Y277.1251
G01 Z-13.0000
G01 Y242.4841
G00 Z5.0000


(No. 23: Graver 17)
G00 X209.9982 Y329.0866 Z5.0000
G00 Z0.5000
G01 Z0.0000 F1500
G01 Z-2.0000
G01 Y294.4456
G01 Z-4.0000
G01 Y329.0866
G01 Z-6.0000
G01 Y294.4456
G01 Z-8.0000
G01 Y329.0866
G01 Z-10.0000
G01 Y294.4456
G01 Z-12.0000
G01 Y329.0866
G01 Z-13.0000
G01 Y294.4456
G00 Z5.0000


(No. 24: Graver 16)
G00 X149.9982 Y329.0866 Z5.0000
G00 Z0.5000
G01 Z0.0000 F1500
G01 Z-2.0000
G01 Y294.4456
G01 Z-4.0000
G01 Y329.0866
G01 Z-6.0000
G01 Y294.4456
G01 Z-8.0000
G01 Y329.0866
G01 Z-10.0000
G01 Y294.4456
G01 Z-12.0000
G01 Y329.0866
G01 Z-13.0000
G01 Y294.4456
G00 Z5.0000


(No. 25: Graver 15)
G00 X90.0009 Y294.4471 Z5.0000
G00 Z0.5000
G01 Z0.0000 F1500
G01 Z-2.0000
G01 X120.0009 Y277.1266
G01 Z-4.0000
G01 X90.0009 Y294.4471
G01 Z-6.0000
G01 X120.0009 Y277.1266
G01 Z-8.0000
G01 X90.0009 Y294.4471
G01 Z-10.0000
G01 X120.0009 Y277.1266
G01 Z-12.0000
G01 X90.0009 Y294.4471
G01 Z-13.0000
G01 X120.0009 Y277.1266
G00 Z5.0000


(No. 26: Graver 14)
G00 X60.0009 Y242.4856 Z5.0000
G00 Z0.5000
G01 Z0.0000 F1500
G01 Z-2.0000
G01 X90.0009 Y225.1651
G01 Z-4.0000
G01 X60.0009 Y242.4856
G01 Z-6.0000
G01 X90.0009 Y225.1651
G01 Z-8.0000
G01 X60.0009 Y242.4856
G01 Z-10.0000
G01 X90.0009 Y225.1651
G01 Z-12.0000
G01 X60.0009 Y242.4856
G01 Z-13.0000
G01 X90.0009 Y225.1651
G00 Z5.0000


(No. 27: Graver 13)
G00 X60.0035 Y173.2051 Z5.0000
G00 Z0.5000
G01 Z0.0000 F1500
G01 Z-2.0000
G01 X90.0009 Y190.5241
G01 Z-4.0000
G01 X60.0035 Y173.2051
G01 Z-6.0000
G01 X90.0009 Y190.5241
G01 Z-8.0000
G01 X60.0035 Y173.2051
G01 Z-10.0000
G01 X90.0009 Y190.5241
G01 Z-12.0000
G01 X60.0035 Y173.2051
G01 Z-13.0000
G01 X90.0009 Y190.5241
G00 Z5.0000


(No. 28: Graver 45)
G00 X0.0035 Y173.2051 Z5.0000
G00 Z0.5000
G01 Z0.0000 F1500
G01 Z-2.0000
G01 X30.0009 Y190.5241
G01 Z-4.0000
G01 X0.0035 Y173.2051
G01 Z-6.0000
G01 X30.0009 Y190.5241
G01 Z-8.0000
G01 X0.0035 Y173.2051
G01 Z-10.0000
G01 X30.0009 Y190.5241
G01 Z-12.0000
G01 X0.0035 Y173.2051
G01 Z-13.0000
G01 X30.0009 Y190.5241
G00 Z5.0000


(No. 29: Graver 46)
G00 X0.0035 Y138.5641 Z5.0000
G00 Z0.5000
G01 Z0.0000 F1500
G01 Z-2.0000
G01 X30.0035 Y121.2436
G01 X30.0015 Y86.6014
G01 Z-4.0000
G01 X30.0035 Y121.2436
G01 X0.0035 Y138.5641
G01 Z-6.0000
G01 X30.0035 Y121.2436
G01 X30.0015 Y86.6014
G01 Z-8.0000
G01 X30.0035 Y121.2436
G01 X0.0035 Y138.5641
G01 Z-10.0000
G01 X30.0035 Y121.2436
G01 X30.0015 Y86.6014
G01 Z-12.0000
G01 X30.0035 Y121.2436
G01 X0.0035 Y138.5641
G01 Z-13.0000
G01 X30.0035 Y121.2436
G01 X30.0015 Y86.6014
G00 Z5.0000


(No. 30: Graver 47)
G00 X30.0035 Y121.2436 Z5.0000
G00 Z0.5000
G01 Z0.0000 F1500
G01 Z-2.0000
G01 X60.0009 Y138.5625
G01 Z-4.0000
G01 X30.0035 Y121.2436
G01 Z-6.0000
G01 X60.0009 Y138.5625
G01 Z-8.0000
G01 X30.0035 Y121.2436
G01 Z-10.0000
G01 X60.0009 Y138.5625
G01 Z-12.0000
G01 X30.0035 Y121.2436
G01 Z-13.0000
G01 X60.0009 Y138.5625
G00 Z5.0000


(No. 31: Graver 23)
G00 X150.0009 Y121.2420 Z5.0000
G00 Z0.5000
G01 Z0.0000 F1500
G01 Z-2.0000
G01 Y86.6010
G01 Z-4.0000
G01 Y121.2420
G01 Z-6.0000
G01 Y86.6010
G01 Z-8.0000
G01 Y121.2420
G01 Z-10.0000
G01 Y86.6010
G01 Z-12.0000
G01 Y121.2420
G01 Z-13.0000
G01 Y86.6010
G00 Z5.0000


(No. 32: Graver 11)
G00 X179.9982 Y138.5610 Z5.0000
G00 Z0.5000
G01 Z0.0000 F1500
G01 Z-2.0000
G01 Y173.2020
G01 Z-4.0000
G01 Y138.5610
G01 Z-6.0000
G01 Y173.2020
G01 Z-8.0000
G01 Y138.5610
G01 Z-10.0000
G01 Y173.2020
G01 Z-12.0000
G01 Y138.5610
G01 Z-13.0000
G01 Y173.2020
G00 Z5.0000


(No. 33: Graver 21)
G00 X239.9982 Y138.5610 Z5.0000
G00 Z0.5000
G01 Z0.0000 F1500
G01 Z-2.0000
G01 X269.9982 Y121.2405
G01 Z-4.0000
G01 X239.9982 Y138.5610
G01 Z-6.0000
G01 X269.9982 Y121.2405
G01 Z-8.0000
G01 X239.9982 Y138.5610
G01 Z-10.0000
G01 X269.9982 Y121.2405
G01 Z-12.0000
G01 X239.9982 Y138.5610
G01 Z-13.0000
G01 X269.9982 Y121.2405
G00 Z5.0000


(No. 34: Graver 31)
G00 X329.9956 Y121.2390 Z5.0000
G00 Z0.5000
G01 Z0.0000 F1500
G01 Z-2.0000
G01 X299.9982 Y138.5610
G01 Z-4.0000
G01 X329.9956 Y121.2390
G01 Z-6.0000
G01 X299.9982 Y138.5610
G01 Z-8.0000
G01 X329.9956 Y121.2390
G01 Z-10.0000
G01 X299.9982 Y138.5610
G01 Z-12.0000
G01 X329.9956 Y121.2390
G01 Z-13.0000
G01 X299.9982 Y138.5610
G00 Z5.0000


(No. 35: Graver 37)
G00 X239.9956 Y381.0466 Z5.0000
G00 Z0.5000
G01 Z0.0000 F1500
G01 Z-2.0000
G01 Y346.4056
G01 Z-4.0000
G01 Y381.0466
G01 Z-6.0000
G01 Y346.4056
G01 Z-8.0000
G01 Y381.0466
G01 Z-10.0000
G01 Y346.4056
G01 Z-12.0000
G01 Y381.0466
G01 Z-13.0000
G01 Y346.4056
G00 Z5.0000


(No. 36: Graver 39)
G00 X179.9982 Y381.0481 Z5.0000
G00 Z0.5000
G01 Z0.0000 F1500
G01 Z-2.0000
G01 Y346.4071
G01 Z-4.0000
G01 Y381.0481
G01 Z-6.0000
G01 Y346.4071
G01 Z-8.0000
G01 Y381.0481
G01 Z-10.0000
G01 Y346.4071
G01 Z-12.0000
G01 Y381.0481
G01 Z-13.0000
G01 Y346.4071
G00 Z5.0000


(No. 37: Graver 38)
G00 X149.9956 Y398.3671 Z5.0000
G00 Z0.5000
G01 Z0.0000 F1500
G01 Z-2.0000
G01 X179.9956 Y381.0466
G01 X209.9956 Y398.3671
G01 Z-4.0000
G01 X179.9956 Y381.0466
G01 X149.9956 Y398.3671
G01 Z-6.0000
G01 X179.9956 Y381.0466
G01 X209.9956 Y398.3671
G01 Z-8.0000
G01 X179.9956 Y381.0466
G01 X149.9956 Y398.3671
G01 Z-10.0000
G01 X179.9956 Y381.0466
G01 X209.9956 Y398.3671
G01 Z-12.0000
G01 X179.9956 Y381.0466
G01 X149.9956 Y398.3671
G01 Z-13.0000
G01 X179.9956 Y381.0466
G01 X209.9956 Y398.3671
G00 Z5.0000


(No. 38: Graver 40)
G00 X119.9982 Y381.0447 Z5.0000
G00 Z0.5000
G01 Z0.0000 F1500
G01 Z-2.0000
G01 Y346.4071
G01 Z-4.0000
G01 Y381.0447
G01 Z-6.0000
G01 Y346.4071
G01 Z-8.0000
G01 Y381.0447
G01 Z-10.0000
G01 Y346.4071
G01 Z-12.0000
G01 Y381.0447
G01 Z-13.0000
G01 Y346.4071
G00 Z5.0000


(No. 39: Graver 41)
G00 X59.9982 Y346.4071 Z5.0000
G00 Z0.5000
G01 Z0.0000 F1500
G01 Z-2.0000
G01 X90.0009 Y329.0881
G01 Z-4.0000
G01 X59.9982 Y346.4071
G01 Z-6.0000
G01 X90.0009 Y329.0881
G01 Z-8.0000
G01 X59.9982 Y346.4071
G01 Z-10.0000
G01 X90.0009 Y329.0881
G01 Z-12.0000
G01 X59.9982 Y346.4071
G01 Z-13.0000
G01 X90.0009 Y329.0881
G00 Z5.0000


(No. 40: Graver 42)
G00 X30.0009 Y329.0858 Z5.0000
G00 Z0.5000
G01 Z0.0000 F1500
G01 Z-2.0000
G01 Y294.4471
G01 X0.0015 Y277.1269
G01 Z-4.0000
G01 X30.0009 Y294.4471
G01 Y329.0858
G01 Z-6.0000
G01 Y294.4471
G01 X0.0015 Y277.1269
G01 Z-8.0000
G01 X30.0009 Y294.4471
G01 Y329.0858
G01 Z-10.0000
G01 Y294.4471
G01 X0.0015 Y277.1269
G01 Z-12.0000
G01 X30.0009 Y294.4471
G01 Y329.0858
G01 Z-13.0000
G01 Y294.4471
G01 X0.0015 Y277.1269
G00 Z5.0000


(No. 41: Graver 43)
G00 X30.0009 Y294.4471 Z5.0000
G00 Z0.5000
G01 Z0.0000 F1500
G01 Z-2.0000
G01 X60.0009 Y277.1266
G01 Z-4.0000
G01 X30.0009 Y294.4471
G01 Z-6.0000
G01 X60.0009 Y277.1266
G01 Z-8.0000
G01 X30.0009 Y294.4471
G01 Z-10.0000
G01 X60.0009 Y277.1266
G01 Z-12.0000
G01 X30.0009 Y294.4471
G01 Z-13.0000
G01 X60.0009 Y277.1266
G00 Z5.0000


(No. 42: Graver 44)
G00 X0.0009 Y242.4856 Z5.0000
G00 Z0.5000
G01 Z0.0000 F1500
G01 Z-2.0000
G01 X30.0035 Y225.1666
G01 Z-4.0000
G01 X0.0009 Y242.4856
G01 Z-6.0000
G01 X30.0035 Y225.1666
G01 Z-8.0000
G01 X0.0009 Y242.4856
G01 Z-10.0000
G01 X30.0035 Y225.1666
G01 Z-12.0000
G01 X0.0009 Y242.4856
G01 Z-13.0000
G01 X30.0035 Y225.1666
G00 Z5.0000
G00 X0.0000 Y0.0000

M05
M30
