(Project hexa2)
(Created by Estlcam version 11 build 11,244)
(Machining time about 01:22:25 hours)

(Required tools:)
(6mm)

G90
M03 S24000
G00 Z5.0000


(No. 1: Hole 7)
G00 X38.4798 Y88.1738
G00 Z0.5000
G01 Z0.0000 F1500 S24000
G01 Z-2.0000
G01 X40.4622
G01 X35.6000 Y92.6738
G01 X37.5659
G00 Z5.0000
G00 X54.0683 Y79.1738
G00 Z0.5000
G01 Z0.0000
G01 Z-2.0000
G01 X55.8238
G00 Z5.0000
G00 X64.1762
G00 Z0.5000
G01 Z0.0000
G01 Z-2.0000
G01 X65.9317
G00 Z5.0000
G00 X79.5378 Y88.1738
G00 Z0.5000
G01 Z0.0000
G01 Z-2.0000
G01 X81.5202
G01 X82.4341 Y92.6738
G01 X84.4000
G00 Z5.0000
G00 Y115.1738
G00 Z0.5000
G01 Z0.0000
G01 Z-2.0000
G01 X82.4341
G01 X79.5378 Y119.6738
G01 X81.5202
G00 Z5.0000
G00 X65.9317 Y128.6738
G00 Z0.5000
G01 Z0.0000
G01 Z-2.0000
G01 X64.1762
G00 Z5.0000
G00 X55.8238
G00 Z0.5000
G01 Z0.0000
G01 Z-2.0000
G01 X54.0683
G00 Z5.0000
G00 X40.4622 Y119.6738
G00 Z0.5000
G01 Z0.0000
G01 Z-2.0000
G01 X38.4798
G01 X35.6000 Y115.1738
G01 X35.0000 Y115.1248
G01 Y118.3576
G01 X60.0000 Y132.7913
G01 X85.0000 Y118.3576
G01 Y89.4901
G01 X60.0000 Y75.0563
G01 X35.0000 Y89.4901
G01 Y115.1248
G01 X35.6000 Y115.1738
G01 X37.5659
G01 X38.1735 Y115.0431
G03 X81.5477 Y92.2628 I21.8276 J-11.1227
G03 X38.1735 Y115.0431 I-21.5443 J11.6621
G01 X37.5659 Y115.1738
G01 Z-4.0000
G01 X35.6000
G01 X38.4798 Y119.6738
G01 X40.4622
G00 Z5.0000
G00 X54.0683 Y128.6738
G00 Z-1.5000
G01 Z-2.0000
G01 Z-4.0000
G01 X55.8238
G00 Z5.0000
G00 X64.1762
G00 Z-1.5000
G01 Z-2.0000
G01 Z-4.0000
G01 X65.9317
G00 Z5.0000
G00 X79.5378 Y119.6738
G00 Z-1.5000
G01 Z-2.0000
G01 Z-4.0000
G01 X81.5202
G01 X82.4341 Y115.1738
G01 X84.4000
G00 Z5.0000
G00 Y92.6738
G00 Z-1.5000
G01 Z-2.0000
G01 Z-4.0000
G01 X82.4341
G01 X79.5378 Y88.1738
G01 X81.5202
G00 Z5.0000
G00 X65.9317 Y79.1738
G00 Z-1.5000
G01 Z-2.0000
G01 Z-4.0000
G01 X64.1762
G00 Z5.0000
G00 X55.8238
G00 Z-1.5000
G01 Z-2.0000
G01 Z-4.0000
G01 X54.0683
G00 Z5.0000
G00 X40.4622 Y88.1738
G00 Z-1.5000
G01 Z-2.0000
G01 Z-4.0000
G01 X38.4798
G01 X35.6000 Y92.6738
G01 X35.0000 Y92.7228
G01 Y118.3576
G01 X60.0000 Y132.7913
G01 X85.0000 Y118.3576
G01 Y89.4901
G01 X60.0000 Y75.0563
G01 X35.0000 Y89.4901
G01 Y92.7228
G01 X35.6000 Y92.6738
G01 X37.5659
G01 X38.1735 Y92.8046
G03 X82.0112 Y114.6844 I21.8299 J11.1181
G03 X38.1735 Y92.8046 I-22.0101 J-10.7572
G01 X37.5659 Y92.6738
G01 Z-6.0000
G01 X35.6000
G01 X38.4798 Y88.1738
G01 X40.4622
G00 Z5.0000
G00 X54.0683 Y79.1738
G00 Z-3.5000
G01 Z-4.0000
G01 Z-6.0000
G01 X55.8238
G00 Z5.0000
G00 X64.1762
G00 Z-3.5000
G01 Z-4.0000
G01 Z-6.0000
G01 X65.9317
G00 Z5.0000
G00 X79.5378 Y88.1738
G00 Z-3.5000
G01 Z-4.0000
G01 Z-6.0000
G01 X81.5202
G01 X82.4341 Y92.6738
G01 X84.4000
G00 Z5.0000
G00 Y115.1738
G00 Z-3.5000
G01 Z-4.0000
G01 Z-6.0000
G01 X82.4341
G01 X79.5378 Y119.6738
G01 X81.5202
G00 Z5.0000
G00 X65.9317 Y128.6738
G00 Z-3.5000
G01 Z-4.0000
G01 Z-6.0000
G01 X64.1762
G00 Z5.0000
G00 X55.8238
G00 Z-3.5000
G01 Z-4.0000
G01 Z-6.0000
G01 X54.0683
G00 Z5.0000
G00 X40.4622 Y119.6738
G00 Z-3.5000
G01 Z-4.0000
G01 Z-6.0000
G01 X38.4798
G01 X35.6000 Y115.1738
G01 X35.0000 Y115.1248
G01 Y118.3576
G01 X60.0000 Y132.7913
G01 X85.0000 Y118.3576
G01 Y89.4901
G01 X60.0000 Y75.0563
G01 X35.0000 Y89.4901
G01 Y115.1248
G01 X35.6000 Y115.1738
G01 X37.5659
G01 X38.1735 Y115.0431
G03 X81.5477 Y92.2628 I21.8276 J-11.1227
G03 X38.1735 Y115.0431 I-21.5443 J11.6621
G01 X37.5659 Y115.1738
G01 Z-8.0000
G01 X35.6000
G01 X38.4798 Y119.6738
G01 X40.4622
G00 Z5.0000
G00 X54.0683 Y128.6738
G00 Z-5.5000
G01 Z-6.0000
G01 Z-8.0000
G01 X55.8238
G00 Z5.0000
G00 X64.1762
G00 Z-5.5000
G01 Z-6.0000
G01 Z-8.0000
G01 X65.9317
G00 Z5.0000
G00 X79.5378 Y119.6738
G00 Z-5.5000
G01 Z-6.0000
G01 Z-8.0000
G01 X81.5202
G01 X82.4341 Y115.1738
G01 X84.4000
G00 Z5.0000
G00 Y92.6738
G00 Z-5.5000
G01 Z-6.0000
G01 Z-8.0000
G01 X82.4341
G01 X79.5378 Y88.1738
G01 X81.5202
G00 Z5.0000
G00 X65.9317 Y79.1738
G00 Z-5.5000
G01 Z-6.0000
G01 Z-8.0000
G01 X64.1762
G00 Z5.0000
G00 X55.8238
G00 Z-5.5000
G01 Z-6.0000
G01 Z-8.0000
G01 X54.0683
G00 Z5.0000
G00 X40.4622 Y88.1738
G00 Z-5.5000
G01 Z-6.0000
G01 Z-8.0000
G01 X38.4798
G01 X35.6000 Y92.6738
G01 X35.0000 Y92.7228
G01 Y118.3576
G01 X60.0000 Y132.7913
G01 X85.0000 Y118.3576
G01 Y89.4901
G01 X60.0000 Y75.0563
G01 X35.0000 Y89.4901
G01 Y92.7228
G01 X35.6000 Y92.6738
G01 X37.5659
G01 X38.1735 Y92.8046
G03 X82.0112 Y114.6844 I21.8299 J11.1181
G03 X38.1735 Y92.8046 I-22.0101 J-10.7572
G01 X37.5659 Y92.6738
G01 Z-10.0000
G01 X35.6000
G01 X38.4798 Y88.1738
G01 X40.4622
G00 Z5.0000
G00 X54.0683 Y79.1738
G00 Z-7.5000
G01 Z-8.0000
G01 Z-10.0000
G01 X55.8238
G00 Z5.0000
G00 X64.1762
G00 Z-7.5000
G01 Z-8.0000
G01 Z-10.0000
G01 X65.9317
G00 Z5.0000
G00 X79.5378 Y88.1738
G00 Z-7.5000
G01 Z-8.0000
G01 Z-10.0000
G01 X81.5202
G01 X82.4341 Y92.6738
G01 X84.4000
G00 Z5.0000
G00 Y115.1738
G00 Z-7.5000
G01 Z-8.0000
G01 Z-10.0000
G01 X82.4341
G01 X79.5378 Y119.6738
G01 X81.5202
G00 Z5.0000
G00 X65.9317 Y128.6738
G00 Z-7.5000
G01 Z-8.0000
G01 Z-10.0000
G01 X64.1762
G00 Z5.0000
G00 X55.8238
G00 Z-7.5000
G01 Z-8.0000
G01 Z-10.0000
G01 X54.0683
G00 Z5.0000
G00 X40.4622 Y119.6738
G00 Z-7.5000
G01 Z-8.0000
G01 Z-10.0000
G01 X38.4798
G01 X35.6000 Y115.1738
G01 X35.0000 Y115.1248
G01 Y118.3576
G01 X60.0000 Y132.7913
G01 X85.0000 Y118.3576
G01 Y89.4901
G01 X60.0000 Y75.0563
G01 X35.0000 Y89.4901
G01 Y115.1248
G01 X35.6000 Y115.1738
G01 X37.5659
G01 X38.1735 Y115.0431
G03 X81.5477 Y92.2628 I21.8276 J-11.1227
G03 X38.1735 Y115.0431 I-21.5443 J11.6621
G01 X37.5659 Y115.1738
G01 Z-11.5000
G01 X35.6000
G01 X38.4798 Y119.6738
G01 X40.4622
G00 Z5.0000
G00 X54.0683 Y128.6738
G00 Z-9.5000
G01 Z-10.0000
G01 Z-11.5000
G01 X55.8238
G00 Z5.0000
G00 X64.1762
G00 Z-9.5000
G01 Z-10.0000
G01 Z-11.5000
G01 X65.9317
G00 Z5.0000
G00 X79.5378 Y119.6738
G00 Z-9.5000
G01 Z-10.0000
G01 Z-11.5000
G01 X81.5202
G01 X82.4341 Y115.1738
G01 X84.4000
G00 Z5.0000
G00 Y92.6738
G00 Z-9.5000
G01 Z-10.0000
G01 Z-11.5000
G01 X82.4341
G01 X79.5378 Y88.1738
G01 X81.5202
G00 Z5.0000
G00 X65.9317 Y79.1738
G00 Z-9.5000
G01 Z-10.0000
G01 Z-11.5000
G01 X64.1762
G00 Z5.0000
G00 X55.8238
G00 Z-9.5000
G01 Z-10.0000
G01 Z-11.5000
G01 X54.0683
G00 Z5.0000
G00 X40.4622 Y88.1738
G00 Z-9.5000
G01 Z-10.0000
G01 Z-11.5000
G01 X38.4798
G01 X35.6000 Y92.6738
G01 X35.0000 Y92.7228
G01 Y118.3576
G01 X60.0000 Y132.7913
G01 X85.0000 Y118.3576
G01 Y89.4901
G01 X60.0000 Y75.0563
G01 X35.0000 Y89.4901
G01 Y92.7228
G01 X35.6000 Y92.6738
G01 X37.5659
G01 X38.1735 Y92.8046
G03 X82.0112 Y114.6844 I21.8299 J11.1181
G03 X38.1735 Y92.8046 I-22.0101 J-10.7572
G01 X37.5659 Y92.6738
G00 Z5.0000


(No. 2: Hole 6)
G00 X95.6000 Y92.6738 Z5.0000
G00 Z0.5000
G01 Z0.0000 F1500
G01 Z-2.0000
G01 X97.5659
G01 X98.4798 Y88.1738
G01 X100.4622
G00 Z5.0000
G00 X114.0683 Y79.1738
G00 Z0.5000
G01 Z0.0000
G01 Z-2.0000
G01 X115.8238
G00 Z5.0000
G00 X124.1762
G00 Z0.5000
G01 Z0.0000
G01 Z-2.0000
G01 X125.9317
G00 Z5.0000
G00 X139.5378 Y88.1738
G00 Z0.5000
G01 Z0.0000
G01 Z-2.0000
G01 X141.5202
G01 X142.4341 Y92.6738
G01 X144.4000
G00 Z5.0000
G00 Y115.1738
G00 Z0.5000
G01 Z0.0000
G01 Z-2.0000
G01 X142.4341
G01 X139.5378 Y119.6738
G01 X141.5202
G00 Z5.0000
G00 X125.9317 Y128.6738
G00 Z0.5000
G01 Z0.0000
G01 Z-2.0000
G01 X124.1762
G00 Z5.0000
G00 X115.8238
G00 Z0.5000
G01 Z0.0000
G01 Z-2.0000
G01 X114.0683
G00 Z5.0000
G00 X100.4622 Y119.6738
G00 Z0.5000
G01 Z0.0000
G01 Z-2.0000
G01 X98.4798
G01 X95.6000 Y115.1738
G01 X95.0000 Y115.1248
G01 Y118.3576
G01 X120.0000 Y132.7913
G01 X145.0000 Y118.3576
G01 Y89.4901
G01 X120.0000 Y75.0563
G01 X95.0000 Y89.4901
G01 Y115.1248
G01 X95.6000 Y115.1738
G01 X97.5659
G01 X98.1735 Y115.0431
G03 X141.5477 Y92.2628 I21.8276 J-11.1227
G03 X98.1735 Y115.0431 I-21.5443 J11.6621
G01 X97.5659 Y115.1738
G01 Z-4.0000
G01 X95.6000
G01 X98.4798 Y119.6738
G01 X100.4622
G00 Z5.0000
G00 X114.0683 Y128.6738
G00 Z-1.5000
G01 Z-2.0000
G01 Z-4.0000
G01 X115.8238
G00 Z5.0000
G00 X124.1762
G00 Z-1.5000
G01 Z-2.0000
G01 Z-4.0000
G01 X125.9317
G00 Z5.0000
G00 X139.5378 Y119.6738
G00 Z-1.5000
G01 Z-2.0000
G01 Z-4.0000
G01 X141.5202
G01 X142.4341 Y115.1738
G01 X144.4000
G00 Z5.0000
G00 Y92.6738
G00 Z-1.5000
G01 Z-2.0000
G01 Z-4.0000
G01 X142.4341
G01 X139.5378 Y88.1738
G01 X141.5202
G00 Z5.0000
G00 X125.9317 Y79.1738
G00 Z-1.5000
G01 Z-2.0000
G01 Z-4.0000
G01 X124.1762
G00 Z5.0000
G00 X115.8238
G00 Z-1.5000
G01 Z-2.0000
G01 Z-4.0000
G01 X114.0683
G00 Z5.0000
G00 X100.4622 Y88.1738
G00 Z-1.5000
G01 Z-2.0000
G01 Z-4.0000
G01 X98.4798
G01 X95.6000 Y92.6738
G01 X95.0000 Y92.7228
G01 Y118.3576
G01 X120.0000 Y132.7913
G01 X145.0000 Y118.3576
G01 Y89.4901
G01 X120.0000 Y75.0563
G01 X95.0000 Y89.4901
G01 Y92.7228
G01 X95.6000 Y92.6738
G01 X97.5659
G01 X98.1735 Y92.8046
G03 X142.0112 Y114.6844 I21.8299 J11.1181
G03 X98.1735 Y92.8046 I-22.0101 J-10.7572
G01 X97.5659 Y92.6738
G01 Z-6.0000
G01 X95.6000
G01 X98.4798 Y88.1738
G01 X100.4622
G00 Z5.0000
G00 X114.0683 Y79.1738
G00 Z-3.5000
G01 Z-4.0000
G01 Z-6.0000
G01 X115.8238
G00 Z5.0000
G00 X124.1762
G00 Z-3.5000
G01 Z-4.0000
G01 Z-6.0000
G01 X125.9317
G00 Z5.0000
G00 X139.5378 Y88.1738
G00 Z-3.5000
G01 Z-4.0000
G01 Z-6.0000
G01 X141.5202
G01 X142.4341 Y92.6738
G01 X144.4000
G00 Z5.0000
G00 Y115.1738
G00 Z-3.5000
G01 Z-4.0000
G01 Z-6.0000
G01 X142.4341
G01 X139.5378 Y119.6738
G01 X141.5202
G00 Z5.0000
G00 X125.9317 Y128.6738
G00 Z-3.5000
G01 Z-4.0000
G01 Z-6.0000
G01 X124.1762
G00 Z5.0000
G00 X115.8238
G00 Z-3.5000
G01 Z-4.0000
G01 Z-6.0000
G01 X114.0683
G00 Z5.0000
G00 X100.4622 Y119.6738
G00 Z-3.5000
G01 Z-4.0000
G01 Z-6.0000
G01 X98.4798
G01 X95.6000 Y115.1738
G01 X95.0000 Y115.1248
G01 Y118.3576
G01 X120.0000 Y132.7913
G01 X145.0000 Y118.3576
G01 Y89.4901
G01 X120.0000 Y75.0563
G01 X95.0000 Y89.4901
G01 Y115.1248
G01 X95.6000 Y115.1738
G01 X97.5659
G01 X98.1735 Y115.0431
G03 X141.5477 Y92.2628 I21.8276 J-11.1227
G03 X98.1735 Y115.0431 I-21.5443 J11.6621
G01 X97.5659 Y115.1738
G01 Z-8.0000
G01 X95.6000
G01 X98.4798 Y119.6738
G01 X100.4622
G00 Z5.0000
G00 X114.0683 Y128.6738
G00 Z-5.5000
G01 Z-6.0000
G01 Z-8.0000
G01 X115.8238
G00 Z5.0000
G00 X124.1762
G00 Z-5.5000
G01 Z-6.0000
G01 Z-8.0000
G01 X125.9317
G00 Z5.0000
G00 X139.5378 Y119.6738
G00 Z-5.5000
G01 Z-6.0000
G01 Z-8.0000
G01 X141.5202
G01 X142.4341 Y115.1738
G01 X144.4000
G00 Z5.0000
G00 Y92.6738
G00 Z-5.5000
G01 Z-6.0000
G01 Z-8.0000
G01 X142.4341
G01 X139.5378 Y88.1738
G01 X141.5202
G00 Z5.0000
G00 X125.9317 Y79.1738
G00 Z-5.5000
G01 Z-6.0000
G01 Z-8.0000
G01 X124.1762
G00 Z5.0000
G00 X115.8238
G00 Z-5.5000
G01 Z-6.0000
G01 Z-8.0000
G01 X114.0683
G00 Z5.0000
G00 X100.4622 Y88.1738
G00 Z-5.5000
G01 Z-6.0000
G01 Z-8.0000
G01 X98.4798
G01 X95.6000 Y92.6738
G01 X95.0000 Y92.7228
G01 Y118.3576
G01 X120.0000 Y132.7913
G01 X145.0000 Y118.3576
G01 Y89.4901
G01 X120.0000 Y75.0563
G01 X95.0000 Y89.4901
G01 Y92.7228
G01 X95.6000 Y92.6738
G01 X97.5659
G01 X98.1735 Y92.8046
G03 X142.0112 Y114.6844 I21.8299 J11.1181
G03 X98.1735 Y92.8046 I-22.0101 J-10.7572
G01 X97.5659 Y92.6738
G01 Z-10.0000
G01 X95.6000
G01 X98.4798 Y88.1738
G01 X100.4622
G00 Z5.0000
G00 X114.0683 Y79.1738
G00 Z-7.5000
G01 Z-8.0000
G01 Z-10.0000
G01 X115.8238
G00 Z5.0000
G00 X124.1762
G00 Z-7.5000
G01 Z-8.0000
G01 Z-10.0000
G01 X125.9317
G00 Z5.0000
G00 X139.5378 Y88.1738
G00 Z-7.5000
G01 Z-8.0000
G01 Z-10.0000
G01 X141.5202
G01 X142.4341 Y92.6738
G01 X144.4000
G00 Z5.0000
G00 Y115.1738
G00 Z-7.5000
G01 Z-8.0000
G01 Z-10.0000
G01 X142.4341
G01 X139.5378 Y119.6738
G01 X141.5202
G00 Z5.0000
G00 X125.9317 Y128.6738
G00 Z-7.5000
G01 Z-8.0000
G01 Z-10.0000
G01 X124.1762
G00 Z5.0000
G00 X115.8238
G00 Z-7.5000
G01 Z-8.0000
G01 Z-10.0000
G01 X114.0683
G00 Z5.0000
G00 X100.4622 Y119.6738
G00 Z-7.5000
G01 Z-8.0000
G01 Z-10.0000
G01 X98.4798
G01 X95.6000 Y115.1738
G01 X95.0000 Y115.1248
G01 Y118.3576
G01 X120.0000 Y132.7913
G01 X145.0000 Y118.3576
G01 Y89.4901
G01 X120.0000 Y75.0563
G01 X95.0000 Y89.4901
G01 Y115.1248
G01 X95.6000 Y115.1738
G01 X97.5659
G01 X98.1735 Y115.0431
G03 X141.5477 Y92.2628 I21.8276 J-11.1227
G03 X98.1735 Y115.0431 I-21.5443 J11.6621
G01 X97.5659 Y115.1738
G01 Z-11.5000
G01 X95.6000
G01 X98.4798 Y119.6738
G01 X100.4622
G00 Z5.0000
G00 X114.0683 Y128.6738
G00 Z-9.5000
G01 Z-10.0000
G01 Z-11.5000
G01 X115.8238
G00 Z5.0000
G00 X124.1762
G00 Z-9.5000
G01 Z-10.0000
G01 Z-11.5000
G01 X125.9317
G00 Z5.0000
G00 X139.5378 Y119.6738
G00 Z-9.5000
G01 Z-10.0000
G01 Z-11.5000
G01 X141.5202
G01 X142.4341 Y115.1738
G01 X144.4000
G00 Z5.0000
G00 Y92.6738
G00 Z-9.5000
G01 Z-10.0000
G01 Z-11.5000
G01 X142.4341
G01 X139.5378 Y88.1738
G01 X141.5202
G00 Z5.0000
G00 X125.9317 Y79.1738
G00 Z-9.5000
G01 Z-10.0000
G01 Z-11.5000
G01 X124.1762
G00 Z5.0000
G00 X115.8238
G00 Z-9.5000
G01 Z-10.0000
G01 Z-11.5000
G01 X114.0683
G00 Z5.0000
G00 X100.4622 Y88.1738
G00 Z-9.5000
G01 Z-10.0000
G01 Z-11.5000
G01 X98.4798
G01 X95.6000 Y92.6738
G01 X95.0000 Y92.7228
G01 Y118.3576
G01 X120.0000 Y132.7913
G01 X145.0000 Y118.3576
G01 Y89.4901
G01 X120.0000 Y75.0563
G01 X95.0000 Y89.4901
G01 Y92.7228
G01 X95.6000 Y92.6738
G01 X97.5659
G01 X98.1735 Y92.8046
G03 X142.0112 Y114.6844 I21.8299 J11.1181
G03 X98.1735 Y92.8046 I-22.0101 J-10.7572
G01 X97.5659 Y92.6738
G00 Z5.0000


(No. 3: Hole 11)
G00 X128.4798 Y140.1338 Z5.0000
G00 Z0.5000
G01 Z0.0000 F1500
G01 Z-2.0000
G01 X130.4622
G01 X125.6000 Y144.6338
G01 X127.5659
G00 Z5.0000
G00 X144.0683 Y131.1338
G00 Z0.5000
G01 Z0.0000
G01 Z-2.0000
G01 X145.8238
G00 Z5.0000
G00 X154.1762
G00 Z0.5000
G01 Z0.0000
G01 Z-2.0000
G01 X155.9317
G00 Z5.0000
G00 X169.5378 Y140.1338
G00 Z0.5000
G01 Z0.0000
G01 Z-2.0000
G01 X171.5202
G01 X172.4341 Y144.6338
G01 X174.4000
G00 Z5.0000
G00 Y167.1338
G00 Z0.5000
G01 Z0.0000
G01 Z-2.0000
G01 X172.4341
G01 X169.5378 Y171.6338
G01 X171.5202
G00 Z5.0000
G00 X155.9317 Y180.6338
G00 Z0.5000
G01 Z0.0000
G01 Z-2.0000
G01 X154.1762
G00 Z5.0000
G00 X145.8238
G00 Z0.5000
G01 Z0.0000
G01 Z-2.0000
G01 X144.0683
G00 Z5.0000
G00 X130.4622 Y171.6338
G00 Z0.5000
G01 Z0.0000
G01 Z-2.0000
G01 X128.4798
G01 X125.6000 Y167.1338
G01 X125.0000 Y167.0848
G01 Y170.3176
G01 X150.0000 Y184.7513
G01 X175.0000 Y170.3176
G01 Y141.4501
G01 X150.0000 Y127.0163
G01 X125.0000 Y141.4501
G01 Y167.0848
G01 X125.6000 Y167.1338
G01 X127.5659
G01 X128.1735 Y167.0031
G03 X171.5477 Y144.2228 I21.8276 J-11.1227
G03 X128.1735 Y167.0031 I-21.5443 J11.6621
G01 X127.5659 Y167.1338
G01 Z-4.0000
G01 X125.6000
G01 X128.4798 Y171.6338
G01 X130.4622
G00 Z5.0000
G00 X144.0683 Y180.6338
G00 Z-1.5000
G01 Z-2.0000
G01 Z-4.0000
G01 X145.8238
G00 Z5.0000
G00 X154.1762
G00 Z-1.5000
G01 Z-2.0000
G01 Z-4.0000
G01 X155.9317
G00 Z5.0000
G00 X169.5378 Y171.6338
G00 Z-1.5000
G01 Z-2.0000
G01 Z-4.0000
G01 X171.5202
G01 X172.4341 Y167.1338
G01 X174.4000
G00 Z5.0000
G00 Y144.6338
G00 Z-1.5000
G01 Z-2.0000
G01 Z-4.0000
G01 X172.4341
G01 X169.5378 Y140.1338
G01 X171.5202
G00 Z5.0000
G00 X155.9317 Y131.1338
G00 Z-1.5000
G01 Z-2.0000
G01 Z-4.0000
G01 X154.1762
G00 Z5.0000
G00 X145.8238
G00 Z-1.5000
G01 Z-2.0000
G01 Z-4.0000
G01 X144.0683
G00 Z5.0000
G00 X130.4622 Y140.1338
G00 Z-1.5000
G01 Z-2.0000
G01 Z-4.0000
G01 X128.4798
G01 X125.6000 Y144.6338
G01 X125.0000 Y144.6828
G01 Y170.3176
G01 X150.0000 Y184.7513
G01 X175.0000 Y170.3176
G01 Y141.4501
G01 X150.0000 Y127.0163
G01 X125.0000 Y141.4501
G01 Y144.6828
G01 X125.6000 Y144.6338
G01 X127.5659
G01 X128.1735 Y144.7646
G03 X172.0112 Y166.6444 I21.8299 J11.1181
G03 X128.1735 Y144.7646 I-22.0101 J-10.7572
G01 X127.5659 Y144.6338
G01 Z-6.0000
G01 X125.6000
G01 X128.4798 Y140.1338
G01 X130.4622
G00 Z5.0000
G00 X144.0683 Y131.1338
G00 Z-3.5000
G01 Z-4.0000
G01 Z-6.0000
G01 X145.8238
G00 Z5.0000
G00 X154.1762
G00 Z-3.5000
G01 Z-4.0000
G01 Z-6.0000
G01 X155.9317
G00 Z5.0000
G00 X169.5378 Y140.1338
G00 Z-3.5000
G01 Z-4.0000
G01 Z-6.0000
G01 X171.5202
G01 X172.4341 Y144.6338
G01 X174.4000
G00 Z5.0000
G00 Y167.1338
G00 Z-3.5000
G01 Z-4.0000
G01 Z-6.0000
G01 X172.4341
G01 X169.5378 Y171.6338
G01 X171.5202
G00 Z5.0000
G00 X155.9317 Y180.6338
G00 Z-3.5000
G01 Z-4.0000
G01 Z-6.0000
G01 X154.1762
G00 Z5.0000
G00 X145.8238
G00 Z-3.5000
G01 Z-4.0000
G01 Z-6.0000
G01 X144.0683
G00 Z5.0000
G00 X130.4622 Y171.6338
G00 Z-3.5000
G01 Z-4.0000
G01 Z-6.0000
G01 X128.4798
G01 X125.6000 Y167.1338
G01 X125.0000 Y167.0848
G01 Y170.3176
G01 X150.0000 Y184.7513
G01 X175.0000 Y170.3176
G01 Y141.4501
G01 X150.0000 Y127.0163
G01 X125.0000 Y141.4501
G01 Y167.0848
G01 X125.6000 Y167.1338
G01 X127.5659
G01 X128.1735 Y167.0031
G03 X171.5477 Y144.2228 I21.8276 J-11.1227
G03 X128.1735 Y167.0031 I-21.5443 J11.6621
G01 X127.5659 Y167.1338
G01 Z-8.0000
G01 X125.6000
G01 X128.4798 Y171.6338
G01 X130.4622
G00 Z5.0000
G00 X144.0683 Y180.6338
G00 Z-5.5000
G01 Z-6.0000
G01 Z-8.0000
G01 X145.8238
G00 Z5.0000
G00 X154.1762
G00 Z-5.5000
G01 Z-6.0000
G01 Z-8.0000
G01 X155.9317
G00 Z5.0000
G00 X169.5378 Y171.6338
G00 Z-5.5000
G01 Z-6.0000
G01 Z-8.0000
G01 X171.5202
G01 X172.4341 Y167.1338
G01 X174.4000
G00 Z5.0000
G00 Y144.6338
G00 Z-5.5000
G01 Z-6.0000
G01 Z-8.0000
G01 X172.4341
G01 X169.5378 Y140.1338
G01 X171.5202
G00 Z5.0000
G00 X155.9317 Y131.1338
G00 Z-5.5000
G01 Z-6.0000
G01 Z-8.0000
G01 X154.1762
G00 Z5.0000
G00 X145.8238
G00 Z-5.5000
G01 Z-6.0000
G01 Z-8.0000
G01 X144.0683
G00 Z5.0000
G00 X130.4622 Y140.1338
G00 Z-5.5000
G01 Z-6.0000
G01 Z-8.0000
G01 X128.4798
G01 X125.6000 Y144.6338
G01 X125.0000 Y144.6828
G01 Y170.3176
G01 X150.0000 Y184.7513
G01 X175.0000 Y170.3176
G01 Y141.4501
G01 X150.0000 Y127.0163
G01 X125.0000 Y141.4501
G01 Y144.6828
G01 X125.6000 Y144.6338
G01 X127.5659
G01 X128.1735 Y144.7646
G03 X172.0112 Y166.6444 I21.8299 J11.1181
G03 X128.1735 Y144.7646 I-22.0101 J-10.7572
G01 X127.5659 Y144.6338
G01 Z-10.0000
G01 X125.6000
G01 X128.4798 Y140.1338
G01 X130.4622
G00 Z5.0000
G00 X144.0683 Y131.1338
G00 Z-7.5000
G01 Z-8.0000
G01 Z-10.0000
G01 X145.8238
G00 Z5.0000
G00 X154.1762
G00 Z-7.5000
G01 Z-8.0000
G01 Z-10.0000
G01 X155.9317
G00 Z5.0000
G00 X169.5378 Y140.1338
G00 Z-7.5000
G01 Z-8.0000
G01 Z-10.0000
G01 X171.5202
G01 X172.4341 Y144.6338
G01 X174.4000
G00 Z5.0000
G00 Y167.1338
G00 Z-7.5000
G01 Z-8.0000
G01 Z-10.0000
G01 X172.4341
G01 X169.5378 Y171.6338
G01 X171.5202
G00 Z5.0000
G00 X155.9317 Y180.6338
G00 Z-7.5000
G01 Z-8.0000
G01 Z-10.0000
G01 X154.1762
G00 Z5.0000
G00 X145.8238
G00 Z-7.5000
G01 Z-8.0000
G01 Z-10.0000
G01 X144.0683
G00 Z5.0000
G00 X130.4622 Y171.6338
G00 Z-7.5000
G01 Z-8.0000
G01 Z-10.0000
G01 X128.4798
G01 X125.6000 Y167.1338
G01 X125.0000 Y167.0848
G01 Y170.3176
G01 X150.0000 Y184.7513
G01 X175.0000 Y170.3176
G01 Y141.4501
G01 X150.0000 Y127.0163
G01 X125.0000 Y141.4501
G01 Y167.0848
G01 X125.6000 Y167.1338
G01 X127.5659
G01 X128.1735 Y167.0031
G03 X171.5477 Y144.2228 I21.8276 J-11.1227
G03 X128.1735 Y167.0031 I-21.5443 J11.6621
G01 X127.5659 Y167.1338
G01 Z-11.5000
G01 X125.6000
G01 X128.4798 Y171.6338
G01 X130.4622
G00 Z5.0000
G00 X144.0683 Y180.6338
G00 Z-9.5000
G01 Z-10.0000
G01 Z-11.5000
G01 X145.8238
G00 Z5.0000
G00 X154.1762
G00 Z-9.5000
G01 Z-10.0000
G01 Z-11.5000
G01 X155.9317
G00 Z5.0000
G00 X169.5378 Y171.6338
G00 Z-9.5000
G01 Z-10.0000
G01 Z-11.5000
G01 X171.5202
G01 X172.4341 Y167.1338
G01 X174.4000
G00 Z5.0000
G00 Y144.6338
G00 Z-9.5000
G01 Z-10.0000
G01 Z-11.5000
G01 X172.4341
G01 X169.5378 Y140.1338
G01 X171.5202
G00 Z5.0000
G00 X155.9317 Y131.1338
G00 Z-9.5000
G01 Z-10.0000
G01 Z-11.5000
G01 X154.1762
G00 Z5.0000
G00 X145.8238
G00 Z-9.5000
G01 Z-10.0000
G01 Z-11.5000
G01 X144.0683
G00 Z5.0000
G00 X130.4622 Y140.1338
G00 Z-9.5000
G01 Z-10.0000
G01 Z-11.5000
G01 X128.4798
G01 X125.6000 Y144.6338
G01 X125.0000 Y144.6828
G01 Y170.3176
G01 X150.0000 Y184.7513
G01 X175.0000 Y170.3176
G01 Y141.4501
G01 X150.0000 Y127.0163
G01 X125.0000 Y141.4501
G01 Y144.6828
G01 X125.6000 Y144.6338
G01 X127.5659
G01 X128.1735 Y144.7646
G03 X172.0112 Y166.6444 I21.8299 J11.1181
G03 X128.1735 Y144.7646 I-22.0101 J-10.7572
G01 X127.5659 Y144.6338
G00 Z5.0000


(No. 4: Hole 17)
G00 X125.9317 Y183.0938 Z5.0000
G00 Z0.5000
G01 Z0.0000 F1500
G01 Z-2.0000
G01 X124.1762
G00 Z5.0000
G00 X115.8238
G00 Z0.5000
G01 Z0.0000
G01 Z-2.0000
G01 X114.0683
G00 Z5.0000
G00 X100.4622 Y192.0938
G00 Z0.5000
G01 Z0.0000
G01 Z-2.0000
G01 X98.4798
G01 X95.6000 Y196.5938
G01 X97.5659
G00 Z5.0000
G00 Y219.0938
G00 Z0.5000
G01 Z0.0000
G01 Z-2.0000
G01 X95.6000
G01 X98.4798 Y223.5938
G01 X100.4622
G00 Z5.0000
G00 X114.0683 Y232.5938
G00 Z0.5000
G01 Z0.0000
G01 Z-2.0000
G01 X115.8238
G00 Z5.0000
G00 X124.1762
G00 Z0.5000
G01 Z0.0000
G01 Z-2.0000
G01 X125.9317
G00 Z5.0000
G00 X139.5378 Y223.5938
G00 Z0.5000
G01 Z0.0000
G01 Z-2.0000
G01 X141.5202
G01 X142.4341 Y219.0938
G01 X144.4000
G00 Z5.0000
G00 Y196.5938
G00 Z0.5000
G01 Z0.0000
G01 Z-2.0000
G01 X142.4341
G01 X139.5378 Y192.0938
G01 X139.0387 Y192.4310
G03 X101.3040 Y223.6786 I-19.0390 J15.4165
G03 X139.0387 Y192.4310 I18.6924 J-15.8351
G01 X139.5378 Y192.0938
G01 X141.5202
G01 X141.7842 Y191.5534
G01 X120.0000 Y178.9763
G01 X95.0000 Y193.4101
G01 Y222.2776
G01 X120.0000 Y236.7113
G01 X145.0000 Y222.2776
G01 Y193.4101
G01 X141.7842 Y191.5534
G01 X141.5202 Y192.0938
G01 Z-4.0000
G01 X139.5378
G01 X142.4341 Y196.5938
G01 X144.4000
G00 Z5.0000
G00 Y219.0938
G00 Z-1.5000
G01 Z-2.0000
G01 Z-4.0000
G01 X142.4341
G01 X139.5378 Y223.5938
G01 X141.5202
G00 Z5.0000
G00 X125.9317 Y232.5938
G00 Z-1.5000
G01 Z-2.0000
G01 Z-4.0000
G01 X124.1762
G00 Z5.0000
G00 X115.8238
G00 Z-1.5000
G01 Z-2.0000
G01 Z-4.0000
G01 X114.0683
G00 Z5.0000
G00 X100.4622 Y223.5938
G00 Z-1.5000
G01 Z-2.0000
G01 Z-4.0000
G01 X98.4798
G01 X95.6000 Y219.0938
G01 X97.5659
G00 Z5.0000
G00 Y196.5938
G00 Z-1.5000
G01 Z-2.0000
G01 Z-4.0000
G01 X95.6000
G01 X98.4798 Y192.0938
G01 X100.4622
G00 Z5.0000
G00 X114.0683 Y183.0938
G00 Z-1.5000
G01 Z-2.0000
G01 Z-4.0000
G01 X115.8238
G00 Z5.0000
G00 X124.1762
G00 Z-1.5000
G01 Z-2.0000
G01 Z-4.0000
G01 X124.3745 Y183.7417
G03 X115.9673 Y232.0103 I-4.3725 J24.1049
G03 X124.3745 Y183.7417 I4.0299 J-24.1646
G01 X124.1762 Y183.0938
G01 X125.9317
G01 X126.2462 Y182.5825
G01 X120.0000 Y178.9763
G01 X95.0000 Y193.4101
G01 Y222.2776
G01 X120.0000 Y236.7113
G01 X145.0000 Y222.2776
G01 Y193.4101
G01 X126.2462 Y182.5825
G01 X125.9317 Y183.0938
G01 Z-6.0000
G01 X124.1762
G00 Z5.0000
G00 X115.8238
G00 Z-3.5000
G01 Z-4.0000
G01 Z-6.0000
G01 X114.0683
G00 Z5.0000
G00 X100.4622 Y192.0938
G00 Z-3.5000
G01 Z-4.0000
G01 Z-6.0000
G01 X98.4798
G01 X95.6000 Y196.5938
G01 X97.5659
G00 Z5.0000
G00 Y219.0938
G00 Z-3.5000
G01 Z-4.0000
G01 Z-6.0000
G01 X95.6000
G01 X98.4798 Y223.5938
G01 X100.4622
G00 Z5.0000
G00 X114.0683 Y232.5938
G00 Z-3.5000
G01 Z-4.0000
G01 Z-6.0000
G01 X115.8238
G00 Z5.0000
G00 X124.1762
G00 Z-3.5000
G01 Z-4.0000
G01 Z-6.0000
G01 X125.9317
G00 Z5.0000
G00 X139.5378 Y223.5938
G00 Z-3.5000
G01 Z-4.0000
G01 Z-6.0000
G01 X141.5202
G01 X142.4341 Y219.0938
G01 X144.4000
G00 Z5.0000
G00 Y196.5938
G00 Z-3.5000
G01 Z-4.0000
G01 Z-6.0000
G01 X142.4341
G01 X139.5378 Y192.0938
G01 X139.0387 Y192.4310
G03 X101.3040 Y223.6786 I-19.0390 J15.4165
G03 X139.0387 Y192.4310 I18.6924 J-15.8351
G01 X139.5378 Y192.0938
G01 X141.5202
G01 X141.7842 Y191.5534
G01 X120.0000 Y178.9763
G01 X95.0000 Y193.4101
G01 Y222.2776
G01 X120.0000 Y236.7113
G01 X145.0000 Y222.2776
G01 Y193.4101
G01 X141.7842 Y191.5534
G01 X141.5202 Y192.0938
G01 Z-8.0000
G01 X139.5378
G01 X142.4341 Y196.5938
G01 X144.4000
G00 Z5.0000
G00 Y219.0938
G00 Z-5.5000
G01 Z-6.0000
G01 Z-8.0000
G01 X142.4341
G01 X139.5378 Y223.5938
G01 X141.5202
G00 Z5.0000
G00 X125.9317 Y232.5938
G00 Z-5.5000
G01 Z-6.0000
G01 Z-8.0000
G01 X124.1762
G00 Z5.0000
G00 X115.8238
G00 Z-5.5000
G01 Z-6.0000
G01 Z-8.0000
G01 X114.0683
G00 Z5.0000
G00 X100.4622 Y223.5938
G00 Z-5.5000
G01 Z-6.0000
G01 Z-8.0000
G01 X98.4798
G01 X95.6000 Y219.0938
G01 X97.5659
G00 Z5.0000
G00 Y196.5938
G00 Z-5.5000
G01 Z-6.0000
G01 Z-8.0000
G01 X95.6000
G01 X98.4798 Y192.0938
G01 X100.4622
G00 Z5.0000
G00 X114.0683 Y183.0938
G00 Z-5.5000
G01 Z-6.0000
G01 Z-8.0000
G01 X115.8238
G00 Z5.0000
G00 X124.1762
G00 Z-5.5000
G01 Z-6.0000
G01 Z-8.0000
G01 X124.3745 Y183.7417
G03 X115.9673 Y232.0103 I-4.3725 J24.1049
G03 X124.3745 Y183.7417 I4.0299 J-24.1646
G01 X124.1762 Y183.0938
G01 X125.9317
G01 X126.2462 Y182.5825
G01 X120.0000 Y178.9763
G01 X95.0000 Y193.4101
G01 Y222.2776
G01 X120.0000 Y236.7113
G01 X145.0000 Y222.2776
G01 Y193.4101
G01 X126.2462 Y182.5825
G01 X125.9317 Y183.0938
G01 Z-10.0000
G01 X124.1762
G00 Z5.0000
G00 X115.8238
G00 Z-7.5000
G01 Z-8.0000
G01 Z-10.0000
G01 X114.0683
G00 Z5.0000
G00 X100.4622 Y192.0938
G00 Z-7.5000
G01 Z-8.0000
G01 Z-10.0000
G01 X98.4798
G01 X95.6000 Y196.5938
G01 X97.5659
G00 Z5.0000
G00 Y219.0938
G00 Z-7.5000
G01 Z-8.0000
G01 Z-10.0000
G01 X95.6000
G01 X98.4798 Y223.5938
G01 X100.4622
G00 Z5.0000
G00 X114.0683 Y232.5938
G00 Z-7.5000
G01 Z-8.0000
G01 Z-10.0000
G01 X115.8238
G00 Z5.0000
G00 X124.1762
G00 Z-7.5000
G01 Z-8.0000
G01 Z-10.0000
G01 X125.9317
G00 Z5.0000
G00 X139.5378 Y223.5938
G00 Z-7.5000
G01 Z-8.0000
G01 Z-10.0000
G01 X141.5202
G01 X142.4341 Y219.0938
G01 X144.4000
G00 Z5.0000
G00 Y196.5938
G00 Z-7.5000
G01 Z-8.0000
G01 Z-10.0000
G01 X142.4341
G01 X139.5378 Y192.0938
G01 X139.0387 Y192.4310
G03 X101.3040 Y223.6786 I-19.0390 J15.4165
G03 X139.0387 Y192.4310 I18.6924 J-15.8351
G01 X139.5378 Y192.0938
G01 X141.5202
G01 X141.7842 Y191.5534
G01 X120.0000 Y178.9763
G01 X95.0000 Y193.4101
G01 Y222.2776
G01 X120.0000 Y236.7113
G01 X145.0000 Y222.2776
G01 Y193.4101
G01 X141.7842 Y191.5534
G01 X141.5202 Y192.0938
G01 Z-11.5000
G01 X139.5378
G01 X142.4341 Y196.5938
G01 X144.4000
G00 Z5.0000
G00 Y219.0938
G00 Z-9.5000
G01 Z-10.0000
G01 Z-11.5000
G01 X142.4341
G01 X139.5378 Y223.5938
G01 X141.5202
G00 Z5.0000
G00 X125.9317 Y232.5938
G00 Z-9.5000
G01 Z-10.0000
G01 Z-11.5000
G01 X124.1762
G00 Z5.0000
G00 X115.8238
G00 Z-9.5000
G01 Z-10.0000
G01 Z-11.5000
G01 X114.0683
G00 Z5.0000
G00 X100.4622 Y223.5938
G00 Z-9.5000
G01 Z-10.0000
G01 Z-11.5000
G01 X98.4798
G01 X95.6000 Y219.0938
G01 X97.5659
G00 Z5.0000
G00 Y196.5938
G00 Z-9.5000
G01 Z-10.0000
G01 Z-11.5000
G01 X95.6000
G01 X98.4798 Y192.0938
G01 X100.4622
G00 Z5.0000
G00 X114.0683 Y183.0938
G00 Z-9.5000
G01 Z-10.0000
G01 Z-11.5000
G01 X115.8238
G00 Z5.0000
G00 X124.1762
G00 Z-9.5000
G01 Z-10.0000
G01 Z-11.5000
G01 X124.3745 Y183.7417
G03 X115.9673 Y232.0103 I-4.3725 J24.1049
G03 X124.3745 Y183.7417 I4.0299 J-24.1646
G01 X124.1762 Y183.0938
G01 X125.9317
G01 X126.2462 Y182.5825
G01 X120.0000 Y178.9763
G01 X95.0000 Y193.4101
G01 Y222.2776
G01 X120.0000 Y236.7113
G01 X145.0000 Y222.2776
G01 Y193.4101
G01 X126.2462 Y182.5825
G01 X125.9317 Y183.0938
G00 Z5.0000


(No. 5: Hole 23)
G00 X95.9317 Y235.0538 Z5.0000
G00 Z0.5000
G01 Z0.0000 F1500
G01 Z-2.0000
G01 X94.1762
G00 Z5.0000
G00 X85.8238
G00 Z0.5000
G01 Z0.0000
G01 Z-2.0000
G01 X84.0683
G00 Z5.0000
G00 X70.4622 Y244.0538
G00 Z0.5000
G01 Z0.0000
G01 Z-2.0000
G01 X68.4798
G01 X65.6000 Y248.5538
G01 X67.5659
G00 Z5.0000
G00 Y271.0538
G00 Z0.5000
G01 Z0.0000
G01 Z-2.0000
G01 X65.6000
G01 X68.4798 Y275.5538
G01 X70.4622
G00 Z5.0000
G00 X84.0683 Y284.5538
G00 Z0.5000
G01 Z0.0000
G01 Z-2.0000
G01 X85.8238
G00 Z5.0000
G00 X94.1762
G00 Z0.5000
G01 Z0.0000
G01 Z-2.0000
G01 X95.9317
G00 Z5.0000
G00 X109.5378 Y275.5538
G00 Z0.5000
G01 Z0.0000
G01 Z-2.0000
G01 X111.5202
G01 X112.4341 Y271.0538
G01 X114.4000
G00 Z5.0000
G00 Y248.5538
G00 Z0.5000
G01 Z0.0000
G01 Z-2.0000
G01 X112.4341
G01 X109.5378 Y244.0538
G01 X109.0387 Y244.3910
G03 X71.3040 Y275.6386 I-19.0390 J15.4165
G03 X109.0387 Y244.3910 I18.6924 J-15.8351
G01 X109.5378 Y244.0538
G01 X111.5202
G01 X111.7842 Y243.5134
G01 X90.0000 Y230.9363
G01 X65.0000 Y245.3701
G01 Y274.2376
G01 X90.0000 Y288.6713
G01 X115.0000 Y274.2376
G01 Y245.3701
G01 X111.7842 Y243.5134
G01 X111.5202 Y244.0538
G01 Z-4.0000
G01 X109.5378
G01 X112.4341 Y248.5538
G01 X114.4000
G00 Z5.0000
G00 Y271.0538
G00 Z-1.5000
G01 Z-2.0000
G01 Z-4.0000
G01 X112.4341
G01 X109.5378 Y275.5538
G01 X111.5202
G00 Z5.0000
G00 X95.9317 Y284.5538
G00 Z-1.5000
G01 Z-2.0000
G01 Z-4.0000
G01 X94.1762
G00 Z5.0000
G00 X85.8238
G00 Z-1.5000
G01 Z-2.0000
G01 Z-4.0000
G01 X84.0683
G00 Z5.0000
G00 X70.4622 Y275.5538
G00 Z-1.5000
G01 Z-2.0000
G01 Z-4.0000
G01 X68.4798
G01 X65.6000 Y271.0538
G01 X67.5659
G00 Z5.0000
G00 Y248.5538
G00 Z-1.5000
G01 Z-2.0000
G01 Z-4.0000
G01 X65.6000
G01 X68.4798 Y244.0538
G01 X70.4622
G00 Z5.0000
G00 X84.0683 Y235.0538
G00 Z-1.5000
G01 Z-2.0000
G01 Z-4.0000
G01 X85.8238
G00 Z5.0000
G00 X94.1762
G00 Z-1.5000
G01 Z-2.0000
G01 Z-4.0000
G01 X94.3745 Y235.7017
G03 X85.9673 Y283.9703 I-4.3725 J24.1049
G03 X94.3745 Y235.7017 I4.0299 J-24.1646
G01 X94.1762 Y235.0538
G01 X95.9317
G01 X96.2462 Y234.5425
G01 X90.0000 Y230.9363
G01 X65.0000 Y245.3701
G01 Y274.2376
G01 X90.0000 Y288.6713
G01 X115.0000 Y274.2376
G01 Y245.3701
G01 X96.2462 Y234.5425
G01 X95.9317 Y235.0538
G01 Z-6.0000
G01 X94.1762
G00 Z5.0000
G00 X85.8238
G00 Z-3.5000
G01 Z-4.0000
G01 Z-6.0000
G01 X84.0683
G00 Z5.0000
G00 X70.4622 Y244.0538
G00 Z-3.5000
G01 Z-4.0000
G01 Z-6.0000
G01 X68.4798
G01 X65.6000 Y248.5538
G01 X67.5659
G00 Z5.0000
G00 Y271.0538
G00 Z-3.5000
G01 Z-4.0000
G01 Z-6.0000
G01 X65.6000
G01 X68.4798 Y275.5538
G01 X70.4622
G00 Z5.0000
G00 X84.0683 Y284.5538
G00 Z-3.5000
G01 Z-4.0000
G01 Z-6.0000
G01 X85.8238
G00 Z5.0000
G00 X94.1762
G00 Z-3.5000
G01 Z-4.0000
G01 Z-6.0000
G01 X95.9317
G00 Z5.0000
G00 X109.5378 Y275.5538
G00 Z-3.5000
G01 Z-4.0000
G01 Z-6.0000
G01 X111.5202
G01 X112.4341 Y271.0538
G01 X114.4000
G00 Z5.0000
G00 Y248.5538
G00 Z-3.5000
G01 Z-4.0000
G01 Z-6.0000
G01 X112.4341
G01 X109.5378 Y244.0538
G01 X109.0387 Y244.3910
G03 X71.3040 Y275.6386 I-19.0390 J15.4165
G03 X109.0387 Y244.3910 I18.6924 J-15.8351
G01 X109.5378 Y244.0538
G01 X111.5202
G01 X111.7842 Y243.5134
G01 X90.0000 Y230.9363
G01 X65.0000 Y245.3701
G01 Y274.2376
G01 X90.0000 Y288.6713
G01 X115.0000 Y274.2376
G01 Y245.3701
G01 X111.7842 Y243.5134
G01 X111.5202 Y244.0538
G01 Z-8.0000
G01 X109.5378
G01 X112.4341 Y248.5538
G01 X114.4000
G00 Z5.0000
G00 Y271.0538
G00 Z-5.5000
G01 Z-6.0000
G01 Z-8.0000
G01 X112.4341
G01 X109.5378 Y275.5538
G01 X111.5202
G00 Z5.0000
G00 X95.9317 Y284.5538
G00 Z-5.5000
G01 Z-6.0000
G01 Z-8.0000
G01 X94.1762
G00 Z5.0000
G00 X85.8238
G00 Z-5.5000
G01 Z-6.0000
G01 Z-8.0000
G01 X84.0683
G00 Z5.0000
G00 X70.4622 Y275.5538
G00 Z-5.5000
G01 Z-6.0000
G01 Z-8.0000
G01 X68.4798
G01 X65.6000 Y271.0538
G01 X67.5659
G00 Z5.0000
G00 Y248.5538
G00 Z-5.5000
G01 Z-6.0000
G01 Z-8.0000
G01 X65.6000
G01 X68.4798 Y244.0538
G01 X70.4622
G00 Z5.0000
G00 X84.0683 Y235.0538
G00 Z-5.5000
G01 Z-6.0000
G01 Z-8.0000
G01 X85.8238
G00 Z5.0000
G00 X94.1762
G00 Z-5.5000
G01 Z-6.0000
G01 Z-8.0000
G01 X94.3745 Y235.7017
G03 X85.9673 Y283.9703 I-4.3725 J24.1049
G03 X94.3745 Y235.7017 I4.0299 J-24.1646
G01 X94.1762 Y235.0538
G01 X95.9317
G01 X96.2462 Y234.5425
G01 X90.0000 Y230.9363
G01 X65.0000 Y245.3701
G01 Y274.2376
G01 X90.0000 Y288.6713
G01 X115.0000 Y274.2376
G01 Y245.3701
G01 X96.2462 Y234.5425
G01 X95.9317 Y235.0538
G01 Z-10.0000
G01 X94.1762
G00 Z5.0000
G00 X85.8238
G00 Z-7.5000
G01 Z-8.0000
G01 Z-10.0000
G01 X84.0683
G00 Z5.0000
G00 X70.4622 Y244.0538
G00 Z-7.5000
G01 Z-8.0000
G01 Z-10.0000
G01 X68.4798
G01 X65.6000 Y248.5538
G01 X67.5659
G00 Z5.0000
G00 Y271.0538
G00 Z-7.5000
G01 Z-8.0000
G01 Z-10.0000
G01 X65.6000
G01 X68.4798 Y275.5538
G01 X70.4622
G00 Z5.0000
G00 X84.0683 Y284.5538
G00 Z-7.5000
G01 Z-8.0000
G01 Z-10.0000
G01 X85.8238
G00 Z5.0000
G00 X94.1762
G00 Z-7.5000
G01 Z-8.0000
G01 Z-10.0000
G01 X95.9317
G00 Z5.0000
G00 X109.5378 Y275.5538
G00 Z-7.5000
G01 Z-8.0000
G01 Z-10.0000
G01 X111.5202
G01 X112.4341 Y271.0538
G01 X114.4000
G00 Z5.0000
G00 Y248.5538
G00 Z-7.5000
G01 Z-8.0000
G01 Z-10.0000
G01 X112.4341
G01 X109.5378 Y244.0538
G01 X109.0387 Y244.3910
G03 X71.3040 Y275.6386 I-19.0390 J15.4165
G03 X109.0387 Y244.3910 I18.6924 J-15.8351
G01 X109.5378 Y244.0538
G01 X111.5202
G01 X111.7842 Y243.5134
G01 X90.0000 Y230.9363
G01 X65.0000 Y245.3701
G01 Y274.2376
G01 X90.0000 Y288.6713
G01 X115.0000 Y274.2376
G01 Y245.3701
G01 X111.7842 Y243.5134
G01 X111.5202 Y244.0538
G01 Z-11.5000
G01 X109.5378
G01 X112.4341 Y248.5538
G01 X114.4000
G00 Z5.0000
G00 Y271.0538
G00 Z-9.5000
G01 Z-10.0000
G01 Z-11.5000
G01 X112.4341
G01 X109.5378 Y275.5538
G01 X111.5202
G00 Z5.0000
G00 X95.9317 Y284.5538
G00 Z-9.5000
G01 Z-10.0000
G01 Z-11.5000
G01 X94.1762
G00 Z5.0000
G00 X85.8238
G00 Z-9.5000
G01 Z-10.0000
G01 Z-11.5000
G01 X84.0683
G00 Z5.0000
G00 X70.4622 Y275.5538
G00 Z-9.5000
G01 Z-10.0000
G01 Z-11.5000
G01 X68.4798
G01 X65.6000 Y271.0538
G01 X67.5659
G00 Z5.0000
G00 Y248.5538
G00 Z-9.5000
G01 Z-10.0000
G01 Z-11.5000
G01 X65.6000
G01 X68.4798 Y244.0538
G01 X70.4622
G00 Z5.0000
G00 X84.0683 Y235.0538
G00 Z-9.5000
G01 Z-10.0000
G01 Z-11.5000
G01 X85.8238
G00 Z5.0000
G00 X94.1762
G00 Z-9.5000
G01 Z-10.0000
G01 Z-11.5000
G01 X94.3745 Y235.7017
G03 X85.9673 Y283.9703 I-4.3725 J24.1049
G03 X94.3745 Y235.7017 I4.0299 J-24.1646
G01 X94.1762 Y235.0538
G01 X95.9317
G01 X96.2462 Y234.5425
G01 X90.0000 Y230.9363
G01 X65.0000 Y245.3701
G01 Y274.2376
G01 X90.0000 Y288.6713
G01 X115.0000 Y274.2376
G01 Y245.3701
G01 X96.2462 Y234.5425
G01 X95.9317 Y235.0538
G00 Z5.0000


(No. 6: Hole 22)
G00 X125.6000 Y248.5538 Z5.0000
G00 Z0.5000
G01 Z0.0000 F1500
G01 Z-2.0000
G01 X127.5659
G01 X128.4798 Y244.0538
G01 X130.4622
G00 Z5.0000
G00 X144.0683 Y235.0538
G00 Z0.5000
G01 Z0.0000
G01 Z-2.0000
G01 X145.8238
G00 Z5.0000
G00 X154.1762
G00 Z0.5000
G01 Z0.0000
G01 Z-2.0000
G01 X155.9317
G00 Z5.0000
G00 X169.5378 Y244.0538
G00 Z0.5000
G01 Z0.0000
G01 Z-2.0000
G01 X171.5202
G01 X172.4341 Y248.5538
G01 X174.4000
G00 Z5.0000
G00 Y271.0538
G00 Z0.5000
G01 Z0.0000
G01 Z-2.0000
G01 X172.4341
G01 X169.5378 Y275.5538
G01 X171.5202
G00 Z5.0000
G00 X155.9317 Y284.5538
G00 Z0.5000
G01 Z0.0000
G01 Z-2.0000
G01 X154.1762
G00 Z5.0000
G00 X145.8238
G00 Z0.5000
G01 Z0.0000
G01 Z-2.0000
G01 X144.0683
G00 Z5.0000
G00 X130.4622 Y275.5538
G00 Z0.5000
G01 Z0.0000
G01 Z-2.0000
G01 X128.4798
G01 X125.6000 Y271.0538
G01 X125.0000 Y271.0048
G01 Y274.2376
G01 X150.0000 Y288.6713
G01 X175.0000 Y274.2376
G01 Y245.3701
G01 X150.0000 Y230.9363
G01 X125.0000 Y245.3701
G01 Y271.0048
G01 X125.6000 Y271.0538
G01 X127.5659
G01 X128.1735 Y270.9231
G03 X171.5477 Y248.1428 I21.8276 J-11.1227
G03 X128.1735 Y270.9231 I-21.5443 J11.6621
G01 X127.5659 Y271.0538
G01 Z-4.0000
G01 X125.6000
G01 X128.4798 Y275.5538
G01 X130.4622
G00 Z5.0000
G00 X144.0683 Y284.5538
G00 Z-1.5000
G01 Z-2.0000
G01 Z-4.0000
G01 X145.8238
G00 Z5.0000
G00 X154.1762
G00 Z-1.5000
G01 Z-2.0000
G01 Z-4.0000
G01 X155.9317
G00 Z5.0000
G00 X169.5378 Y275.5538
G00 Z-1.5000
G01 Z-2.0000
G01 Z-4.0000
G01 X171.5202
G01 X172.4341 Y271.0538
G01 X174.4000
G00 Z5.0000
G00 Y248.5538
G00 Z-1.5000
G01 Z-2.0000
G01 Z-4.0000
G01 X172.4341
G01 X169.5378 Y244.0538
G01 X171.5202
G00 Z5.0000
G00 X155.9317 Y235.0538
G00 Z-1.5000
G01 Z-2.0000
G01 Z-4.0000
G01 X154.1762
G00 Z5.0000
G00 X145.8238
G00 Z-1.5000
G01 Z-2.0000
G01 Z-4.0000
G01 X144.0683
G00 Z5.0000
G00 X130.4622 Y244.0538
G00 Z-1.5000
G01 Z-2.0000
G01 Z-4.0000
G01 X128.4798
G01 X125.6000 Y248.5538
G01 X125.0000 Y248.6028
G01 Y274.2376
G01 X150.0000 Y288.6713
G01 X175.0000 Y274.2376
G01 Y245.3701
G01 X150.0000 Y230.9363
G01 X125.0000 Y245.3701
G01 Y248.6028
G01 X125.6000 Y248.5538
G01 X127.5659
G01 X128.1735 Y248.6846
G03 X172.0112 Y270.5644 I21.8299 J11.1181
G03 X128.1735 Y248.6846 I-22.0101 J-10.7572
G01 X127.5659 Y248.5538
G01 Z-6.0000
G01 X125.6000
G01 X128.4798 Y244.0538
G01 X130.4622
G00 Z5.0000
G00 X144.0683 Y235.0538
G00 Z-3.5000
G01 Z-4.0000
G01 Z-6.0000
G01 X145.8238
G00 Z5.0000
G00 X154.1762
G00 Z-3.5000
G01 Z-4.0000
G01 Z-6.0000
G01 X155.9317
G00 Z5.0000
G00 X169.5378 Y244.0538
G00 Z-3.5000
G01 Z-4.0000
G01 Z-6.0000
G01 X171.5202
G01 X172.4341 Y248.5538
G01 X174.4000
G00 Z5.0000
G00 Y271.0538
G00 Z-3.5000
G01 Z-4.0000
G01 Z-6.0000
G01 X172.4341
G01 X169.5378 Y275.5538
G01 X171.5202
G00 Z5.0000
G00 X155.9317 Y284.5538
G00 Z-3.5000
G01 Z-4.0000
G01 Z-6.0000
G01 X154.1762
G00 Z5.0000
G00 X145.8238
G00 Z-3.5000
G01 Z-4.0000
G01 Z-6.0000
G01 X144.0683
G00 Z5.0000
G00 X130.4622 Y275.5538
G00 Z-3.5000
G01 Z-4.0000
G01 Z-6.0000
G01 X128.4798
G01 X125.6000 Y271.0538
G01 X125.0000 Y271.0048
G01 Y274.2376
G01 X150.0000 Y288.6713
G01 X175.0000 Y274.2376
G01 Y245.3701
G01 X150.0000 Y230.9363
G01 X125.0000 Y245.3701
G01 Y271.0048
G01 X125.6000 Y271.0538
G01 X127.5659
G01 X128.1735 Y270.9231
G03 X171.5477 Y248.1428 I21.8276 J-11.1227
G03 X128.1735 Y270.9231 I-21.5443 J11.6621
G01 X127.5659 Y271.0538
G01 Z-8.0000
G01 X125.6000
G01 X128.4798 Y275.5538
G01 X130.4622
G00 Z5.0000
G00 X144.0683 Y284.5538
G00 Z-5.5000
G01 Z-6.0000
G01 Z-8.0000
G01 X145.8238
G00 Z5.0000
G00 X154.1762
G00 Z-5.5000
G01 Z-6.0000
G01 Z-8.0000
G01 X155.9317
G00 Z5.0000
G00 X169.5378 Y275.5538
G00 Z-5.5000
G01 Z-6.0000
G01 Z-8.0000
G01 X171.5202
G01 X172.4341 Y271.0538
G01 X174.4000
G00 Z5.0000
G00 Y248.5538
G00 Z-5.5000
G01 Z-6.0000
G01 Z-8.0000
G01 X172.4341
G01 X169.5378 Y244.0538
G01 X171.5202
G00 Z5.0000
G00 X155.9317 Y235.0538
G00 Z-5.5000
G01 Z-6.0000
G01 Z-8.0000
G01 X154.1762
G00 Z5.0000
G00 X145.8238
G00 Z-5.5000
G01 Z-6.0000
G01 Z-8.0000
G01 X144.0683
G00 Z5.0000
G00 X130.4622 Y244.0538
G00 Z-5.5000
G01 Z-6.0000
G01 Z-8.0000
G01 X128.4798
G01 X125.6000 Y248.5538
G01 X125.0000 Y248.6028
G01 Y274.2376
G01 X150.0000 Y288.6713
G01 X175.0000 Y274.2376
G01 Y245.3701
G01 X150.0000 Y230.9363
G01 X125.0000 Y245.3701
G01 Y248.6028
G01 X125.6000 Y248.5538
G01 X127.5659
G01 X128.1735 Y248.6846
G03 X172.0112 Y270.5644 I21.8299 J11.1181
G03 X128.1735 Y248.6846 I-22.0101 J-10.7572
G01 X127.5659 Y248.5538
G01 Z-10.0000
G01 X125.6000
G01 X128.4798 Y244.0538
G01 X130.4622
G00 Z5.0000
G00 X144.0683 Y235.0538
G00 Z-7.5000
G01 Z-8.0000
G01 Z-10.0000
G01 X145.8238
G00 Z5.0000
G00 X154.1762
G00 Z-7.5000
G01 Z-8.0000
G01 Z-10.0000
G01 X155.9317
G00 Z5.0000
G00 X169.5378 Y244.0538
G00 Z-7.5000
G01 Z-8.0000
G01 Z-10.0000
G01 X171.5202
G01 X172.4341 Y248.5538
G01 X174.4000
G00 Z5.0000
G00 Y271.0538
G00 Z-7.5000
G01 Z-8.0000
G01 Z-10.0000
G01 X172.4341
G01 X169.5378 Y275.5538
G01 X171.5202
G00 Z5.0000
G00 X155.9317 Y284.5538
G00 Z-7.5000
G01 Z-8.0000
G01 Z-10.0000
G01 X154.1762
G00 Z5.0000
G00 X145.8238
G00 Z-7.5000
G01 Z-8.0000
G01 Z-10.0000
G01 X144.0683
G00 Z5.0000
G00 X130.4622 Y275.5538
G00 Z-7.5000
G01 Z-8.0000
G01 Z-10.0000
G01 X128.4798
G01 X125.6000 Y271.0538
G01 X125.0000 Y271.0048
G01 Y274.2376
G01 X150.0000 Y288.6713
G01 X175.0000 Y274.2376
G01 Y245.3701
G01 X150.0000 Y230.9363
G01 X125.0000 Y245.3701
G01 Y271.0048
G01 X125.6000 Y271.0538
G01 X127.5659
G01 X128.1735 Y270.9231
G03 X171.5477 Y248.1428 I21.8276 J-11.1227
G03 X128.1735 Y270.9231 I-21.5443 J11.6621
G01 X127.5659 Y271.0538
G01 Z-11.5000
G01 X125.6000
G01 X128.4798 Y275.5538
G01 X130.4622
G00 Z5.0000
G00 X144.0683 Y284.5538
G00 Z-9.5000
G01 Z-10.0000
G01 Z-11.5000
G01 X145.8238
G00 Z5.0000
G00 X154.1762
G00 Z-9.5000
G01 Z-10.0000
G01 Z-11.5000
G01 X155.9317
G00 Z5.0000
G00 X169.5378 Y275.5538
G00 Z-9.5000
G01 Z-10.0000
G01 Z-11.5000
G01 X171.5202
G01 X172.4341 Y271.0538
G01 X174.4000
G00 Z5.0000
G00 Y248.5538
G00 Z-9.5000
G01 Z-10.0000
G01 Z-11.5000
G01 X172.4341
G01 X169.5378 Y244.0538
G01 X171.5202
G00 Z5.0000
G00 X155.9317 Y235.0538
G00 Z-9.5000
G01 Z-10.0000
G01 Z-11.5000
G01 X154.1762
G00 Z5.0000
G00 X145.8238
G00 Z-9.5000
G01 Z-10.0000
G01 Z-11.5000
G01 X144.0683
G00 Z5.0000
G00 X130.4622 Y244.0538
G00 Z-9.5000
G01 Z-10.0000
G01 Z-11.5000
G01 X128.4798
G01 X125.6000 Y248.5538
G01 X125.0000 Y248.6028
G01 Y274.2376
G01 X150.0000 Y288.6713
G01 X175.0000 Y274.2376
G01 Y245.3701
G01 X150.0000 Y230.9363
G01 X125.0000 Y245.3701
G01 Y248.6028
G01 X125.6000 Y248.5538
G01 X127.5659
G01 X128.1735 Y248.6846
G03 X172.0112 Y270.5644 I21.8299 J11.1181
G03 X128.1735 Y248.6846 I-22.0101 J-10.7572
G01 X127.5659 Y248.5538
G00 Z5.0000


(No. 7: Hole 28)
G00 X125.9317 Y287.0138 Z5.0000
G00 Z0.5000
G01 Z0.0000 F1500
G01 Z-2.0000
G01 X124.1762
G00 Z5.0000
G00 X115.8238
G00 Z0.5000
G01 Z0.0000
G01 Z-2.0000
G01 X114.0683
G00 Z5.0000
G00 X100.4622 Y296.0138
G00 Z0.5000
G01 Z0.0000
G01 Z-2.0000
G01 X98.4798
G01 X95.6000 Y300.5138
G01 X97.5659
G00 Z5.0000
G00 Y323.0138
G00 Z0.5000
G01 Z0.0000
G01 Z-2.0000
G01 X95.6000
G01 X98.4798 Y327.5138
G01 X100.4622
G00 Z5.0000
G00 X114.0683 Y336.5138
G00 Z0.5000
G01 Z0.0000
G01 Z-2.0000
G01 X115.8238
G00 Z5.0000
G00 X124.1762
G00 Z0.5000
G01 Z0.0000
G01 Z-2.0000
G01 X125.9317
G00 Z5.0000
G00 X139.5378 Y327.5138
G00 Z0.5000
G01 Z0.0000
G01 Z-2.0000
G01 X141.5202
G01 X142.4341 Y323.0138
G01 X144.4000
G00 Z5.0000
G00 Y300.5138
G00 Z0.5000
G01 Z0.0000
G01 Z-2.0000
G01 X142.4341
G01 X139.5378 Y296.0138
G01 X139.0387 Y296.3510
G03 X101.3040 Y327.5986 I-19.0390 J15.4165
G03 X139.0387 Y296.3510 I18.6924 J-15.8351
G01 X139.5378 Y296.0138
G01 X141.5202
G01 X141.7842 Y295.4734
G01 X120.0000 Y282.8963
G01 X95.0000 Y297.3301
G01 Y326.1976
G01 X120.0000 Y340.6313
G01 X145.0000 Y326.1976
G01 Y297.3301
G01 X141.7842 Y295.4734
G01 X141.5202 Y296.0138
G01 Z-4.0000
G01 X139.5378
G01 X142.4341 Y300.5138
G01 X144.4000
G00 Z5.0000
G00 Y323.0138
G00 Z-1.5000
G01 Z-2.0000
G01 Z-4.0000
G01 X142.4341
G01 X139.5378 Y327.5138
G01 X141.5202
G00 Z5.0000
G00 X125.9317 Y336.5138
G00 Z-1.5000
G01 Z-2.0000
G01 Z-4.0000
G01 X124.1762
G00 Z5.0000
G00 X115.8238
G00 Z-1.5000
G01 Z-2.0000
G01 Z-4.0000
G01 X114.0683
G00 Z5.0000
G00 X100.4622 Y327.5138
G00 Z-1.5000
G01 Z-2.0000
G01 Z-4.0000
G01 X98.4798
G01 X95.6000 Y323.0138
G01 X97.5659
G00 Z5.0000
G00 Y300.5138
G00 Z-1.5000
G01 Z-2.0000
G01 Z-4.0000
G01 X95.6000
G01 X98.4798 Y296.0138
G01 X100.4622
G00 Z5.0000
G00 X114.0683 Y287.0138
G00 Z-1.5000
G01 Z-2.0000
G01 Z-4.0000
G01 X115.8238
G00 Z5.0000
G00 X124.1762
G00 Z-1.5000
G01 Z-2.0000
G01 Z-4.0000
G01 X124.3745 Y287.6617
G03 X115.9673 Y335.9303 I-4.3725 J24.1049
G03 X124.3745 Y287.6617 I4.0299 J-24.1646
G01 X124.1762 Y287.0138
G01 X125.9317
G01 X126.2462 Y286.5025
G01 X120.0000 Y282.8963
G01 X95.0000 Y297.3301
G01 Y326.1976
G01 X120.0000 Y340.6313
G01 X145.0000 Y326.1976
G01 Y297.3301
G01 X126.2462 Y286.5025
G01 X125.9317 Y287.0138
G01 Z-6.0000
G01 X124.1762
G00 Z5.0000
G00 X115.8238
G00 Z-3.5000
G01 Z-4.0000
G01 Z-6.0000
G01 X114.0683
G00 Z5.0000
G00 X100.4622 Y296.0138
G00 Z-3.5000
G01 Z-4.0000
G01 Z-6.0000
G01 X98.4798
G01 X95.6000 Y300.5138
G01 X97.5659
G00 Z5.0000
G00 Y323.0138
G00 Z-3.5000
G01 Z-4.0000
G01 Z-6.0000
G01 X95.6000
G01 X98.4798 Y327.5138
G01 X100.4622
G00 Z5.0000
G00 X114.0683 Y336.5138
G00 Z-3.5000
G01 Z-4.0000
G01 Z-6.0000
G01 X115.8238
G00 Z5.0000
G00 X124.1762
G00 Z-3.5000
G01 Z-4.0000
G01 Z-6.0000
G01 X125.9317
G00 Z5.0000
G00 X139.5378 Y327.5138
G00 Z-3.5000
G01 Z-4.0000
G01 Z-6.0000
G01 X141.5202
G01 X142.4341 Y323.0138
G01 X144.4000
G00 Z5.0000
G00 Y300.5138
G00 Z-3.5000
G01 Z-4.0000
G01 Z-6.0000
G01 X142.4341
G01 X139.5378 Y296.0138
G01 X139.0387 Y296.3510
G03 X101.3040 Y327.5986 I-19.0390 J15.4165
G03 X139.0387 Y296.3510 I18.6924 J-15.8351
G01 X139.5378 Y296.0138
G01 X141.5202
G01 X141.7842 Y295.4734
G01 X120.0000 Y282.8963
G01 X95.0000 Y297.3301
G01 Y326.1976
G01 X120.0000 Y340.6313
G01 X145.0000 Y326.1976
G01 Y297.3301
G01 X141.7842 Y295.4734
G01 X141.5202 Y296.0138
G01 Z-8.0000
G01 X139.5378
G01 X142.4341 Y300.5138
G01 X144.4000
G00 Z5.0000
G00 Y323.0138
G00 Z-5.5000
G01 Z-6.0000
G01 Z-8.0000
G01 X142.4341
G01 X139.5378 Y327.5138
G01 X141.5202
G00 Z5.0000
G00 X125.9317 Y336.5138
G00 Z-5.5000
G01 Z-6.0000
G01 Z-8.0000
G01 X124.1762
G00 Z5.0000
G00 X115.8238
G00 Z-5.5000
G01 Z-6.0000
G01 Z-8.0000
G01 X114.0683
G00 Z5.0000
G00 X100.4622 Y327.5138
G00 Z-5.5000
G01 Z-6.0000
G01 Z-8.0000
G01 X98.4798
G01 X95.6000 Y323.0138
G01 X97.5659
G00 Z5.0000
G00 Y300.5138
G00 Z-5.5000
G01 Z-6.0000
G01 Z-8.0000
G01 X95.6000
G01 X98.4798 Y296.0138
G01 X100.4622
G00 Z5.0000
G00 X114.0683 Y287.0138
G00 Z-5.5000
G01 Z-6.0000
G01 Z-8.0000
G01 X115.8238
G00 Z5.0000
G00 X124.1762
G00 Z-5.5000
G01 Z-6.0000
G01 Z-8.0000
G01 X124.3745 Y287.6617
G03 X115.9673 Y335.9303 I-4.3725 J24.1049
G03 X124.3745 Y287.6617 I4.0299 J-24.1646
G01 X124.1762 Y287.0138
G01 X125.9317
G01 X126.2462 Y286.5025
G01 X120.0000 Y282.8963
G01 X95.0000 Y297.3301
G01 Y326.1976
G01 X120.0000 Y340.6313
G01 X145.0000 Y326.1976
G01 Y297.3301
G01 X126.2462 Y286.5025
G01 X125.9317 Y287.0138
G01 Z-10.0000
G01 X124.1762
G00 Z5.0000
G00 X115.8238
G00 Z-7.5000
G01 Z-8.0000
G01 Z-10.0000
G01 X114.0683
G00 Z5.0000
G00 X100.4622 Y296.0138
G00 Z-7.5000
G01 Z-8.0000
G01 Z-10.0000
G01 X98.4798
G01 X95.6000 Y300.5138
G01 X97.5659
G00 Z5.0000
G00 Y323.0138
G00 Z-7.5000
G01 Z-8.0000
G01 Z-10.0000
G01 X95.6000
G01 X98.4798 Y327.5138
G01 X100.4622
G00 Z5.0000
G00 X114.0683 Y336.5138
G00 Z-7.5000
G01 Z-8.0000
G01 Z-10.0000
G01 X115.8238
G00 Z5.0000
G00 X124.1762
G00 Z-7.5000
G01 Z-8.0000
G01 Z-10.0000
G01 X125.9317
G00 Z5.0000
G00 X139.5378 Y327.5138
G00 Z-7.5000
G01 Z-8.0000
G01 Z-10.0000
G01 X141.5202
G01 X142.4341 Y323.0138
G01 X144.4000
G00 Z5.0000
G00 Y300.5138
G00 Z-7.5000
G01 Z-8.0000
G01 Z-10.0000
G01 X142.4341
G01 X139.5378 Y296.0138
G01 X139.0387 Y296.3510
G03 X101.3040 Y327.5986 I-19.0390 J15.4165
G03 X139.0387 Y296.3510 I18.6924 J-15.8351
G01 X139.5378 Y296.0138
G01 X141.5202
G01 X141.7842 Y295.4734
G01 X120.0000 Y282.8963
G01 X95.0000 Y297.3301
G01 Y326.1976
G01 X120.0000 Y340.6313
G01 X145.0000 Y326.1976
G01 Y297.3301
G01 X141.7842 Y295.4734
G01 X141.5202 Y296.0138
G01 Z-11.5000
G01 X139.5378
G01 X142.4341 Y300.5138
G01 X144.4000
G00 Z5.0000
G00 Y323.0138
G00 Z-9.5000
G01 Z-10.0000
G01 Z-11.5000
G01 X142.4341
G01 X139.5378 Y327.5138
G01 X141.5202
G00 Z5.0000
G00 X125.9317 Y336.5138
G00 Z-9.5000
G01 Z-10.0000
G01 Z-11.5000
G01 X124.1762
G00 Z5.0000
G00 X115.8238
G00 Z-9.5000
G01 Z-10.0000
G01 Z-11.5000
G01 X114.0683
G00 Z5.0000
G00 X100.4622 Y327.5138
G00 Z-9.5000
G01 Z-10.0000
G01 Z-11.5000
G01 X98.4798
G01 X95.6000 Y323.0138
G01 X97.5659
G00 Z5.0000
G00 Y300.5138
G00 Z-9.5000
G01 Z-10.0000
G01 Z-11.5000
G01 X95.6000
G01 X98.4798 Y296.0138
G01 X100.4622
G00 Z5.0000
G00 X114.0683 Y287.0138
G00 Z-9.5000
G01 Z-10.0000
G01 Z-11.5000
G01 X115.8238
G00 Z5.0000
G00 X124.1762
G00 Z-9.5000
G01 Z-10.0000
G01 Z-11.5000
G01 X124.3745 Y287.6617
G03 X115.9673 Y335.9303 I-4.3725 J24.1049
G03 X124.3745 Y287.6617 I4.0299 J-24.1646
G01 X124.1762 Y287.0138
G01 X125.9317
G01 X126.2462 Y286.5025
G01 X120.0000 Y282.8963
G01 X95.0000 Y297.3301
G01 Y326.1976
G01 X120.0000 Y340.6313
G01 X145.0000 Y326.1976
G01 Y297.3301
G01 X126.2462 Y286.5025
G01 X125.9317 Y287.0138
G00 Z5.0000


(No. 8: Hole 27)
G00 X155.6000 Y300.5138 Z5.0000
G00 Z0.5000
G01 Z0.0000 F1500
G01 Z-2.0000
G01 X157.5659
G01 X158.4798 Y296.0138
G01 X160.4622
G00 Z5.0000
G00 X174.0683 Y287.0138
G00 Z0.5000
G01 Z0.0000
G01 Z-2.0000
G01 X175.8238
G00 Z5.0000
G00 X184.1762
G00 Z0.5000
G01 Z0.0000
G01 Z-2.0000
G01 X185.9317
G00 Z5.0000
G00 X199.5378 Y296.0138
G00 Z0.5000
G01 Z0.0000
G01 Z-2.0000
G01 X201.5202
G01 X202.4341 Y300.5138
G01 X204.4000
G00 Z5.0000
G00 Y323.0138
G00 Z0.5000
G01 Z0.0000
G01 Z-2.0000
G01 X202.4341
G01 X199.5378 Y327.5138
G01 X201.5202
G00 Z5.0000
G00 X185.9317 Y336.5138
G00 Z0.5000
G01 Z0.0000
G01 Z-2.0000
G01 X184.1762
G00 Z5.0000
G00 X175.8238
G00 Z0.5000
G01 Z0.0000
G01 Z-2.0000
G01 X174.0683
G00 Z5.0000
G00 X160.4622 Y327.5138
G00 Z0.5000
G01 Z0.0000
G01 Z-2.0000
G01 X158.4798
G01 X155.6000 Y323.0138
G01 X155.0000 Y322.9648
G01 Y326.1976
G01 X180.0000 Y340.6313
G01 X205.0000 Y326.1976
G01 Y297.3301
G01 X180.0000 Y282.8963
G01 X155.0000 Y297.3301
G01 Y322.9648
G01 X155.6000 Y323.0138
G01 X157.5659
G01 X158.1735 Y322.8831
G03 X201.5477 Y300.1028 I21.8276 J-11.1227
G03 X158.1735 Y322.8831 I-21.5443 J11.6621
G01 X157.5659 Y323.0138
G01 Z-4.0000
G01 X155.6000
G01 X158.4798 Y327.5138
G01 X160.4622
G00 Z5.0000
G00 X174.0683 Y336.5138
G00 Z-1.5000
G01 Z-2.0000
G01 Z-4.0000
G01 X175.8238
G00 Z5.0000
G00 X184.1762
G00 Z-1.5000
G01 Z-2.0000
G01 Z-4.0000
G01 X185.9317
G00 Z5.0000
G00 X199.5378 Y327.5138
G00 Z-1.5000
G01 Z-2.0000
G01 Z-4.0000
G01 X201.5202
G01 X202.4341 Y323.0138
G01 X204.4000
G00 Z5.0000
G00 Y300.5138
G00 Z-1.5000
G01 Z-2.0000
G01 Z-4.0000
G01 X202.4341
G01 X199.5378 Y296.0138
G01 X201.5202
G00 Z5.0000
G00 X185.9317 Y287.0138
G00 Z-1.5000
G01 Z-2.0000
G01 Z-4.0000
G01 X184.1762
G00 Z5.0000
G00 X175.8238
G00 Z-1.5000
G01 Z-2.0000
G01 Z-4.0000
G01 X174.0683
G00 Z5.0000
G00 X160.4622 Y296.0138
G00 Z-1.5000
G01 Z-2.0000
G01 Z-4.0000
G01 X158.4798
G01 X155.6000 Y300.5138
G01 X155.0000 Y300.5628
G01 Y326.1976
G01 X180.0000 Y340.6313
G01 X205.0000 Y326.1976
G01 Y297.3301
G01 X180.0000 Y282.8963
G01 X155.0000 Y297.3301
G01 Y300.5628
G01 X155.6000 Y300.5138
G01 X157.5659
G01 X158.1735 Y300.6446
G03 X202.0112 Y322.5244 I21.8299 J11.1181
G03 X158.1735 Y300.6446 I-22.0101 J-10.7572
G01 X157.5659 Y300.5138
G01 Z-6.0000
G01 X155.6000
G01 X158.4798 Y296.0138
G01 X160.4622
G00 Z5.0000
G00 X174.0683 Y287.0138
G00 Z-3.5000
G01 Z-4.0000
G01 Z-6.0000
G01 X175.8238
G00 Z5.0000
G00 X184.1762
G00 Z-3.5000
G01 Z-4.0000
G01 Z-6.0000
G01 X185.9317
G00 Z5.0000
G00 X199.5378 Y296.0138
G00 Z-3.5000
G01 Z-4.0000
G01 Z-6.0000
G01 X201.5202
G01 X202.4341 Y300.5138
G01 X204.4000
G00 Z5.0000
G00 Y323.0138
G00 Z-3.5000
G01 Z-4.0000
G01 Z-6.0000
G01 X202.4341
G01 X199.5378 Y327.5138
G01 X201.5202
G00 Z5.0000
G00 X185.9317 Y336.5138
G00 Z-3.5000
G01 Z-4.0000
G01 Z-6.0000
G01 X184.1762
G00 Z5.0000
G00 X175.8238
G00 Z-3.5000
G01 Z-4.0000
G01 Z-6.0000
G01 X174.0683
G00 Z5.0000
G00 X160.4622 Y327.5138
G00 Z-3.5000
G01 Z-4.0000
G01 Z-6.0000
G01 X158.4798
G01 X155.6000 Y323.0138
G01 X155.0000 Y322.9648
G01 Y326.1976
G01 X180.0000 Y340.6313
G01 X205.0000 Y326.1976
G01 Y297.3301
G01 X180.0000 Y282.8963
G01 X155.0000 Y297.3301
G01 Y322.9648
G01 X155.6000 Y323.0138
G01 X157.5659
G01 X158.1735 Y322.8831
G03 X201.5477 Y300.1028 I21.8276 J-11.1227
G03 X158.1735 Y322.8831 I-21.5443 J11.6621
G01 X157.5659 Y323.0138
G01 Z-8.0000
G01 X155.6000
G01 X158.4798 Y327.5138
G01 X160.4622
G00 Z5.0000
G00 X174.0683 Y336.5138
G00 Z-5.5000
G01 Z-6.0000
G01 Z-8.0000
G01 X175.8238
G00 Z5.0000
G00 X184.1762
G00 Z-5.5000
G01 Z-6.0000
G01 Z-8.0000
G01 X185.9317
G00 Z5.0000
G00 X199.5378 Y327.5138
G00 Z-5.5000
G01 Z-6.0000
G01 Z-8.0000
G01 X201.5202
G01 X202.4341 Y323.0138
G01 X204.4000
G00 Z5.0000
G00 Y300.5138
G00 Z-5.5000
G01 Z-6.0000
G01 Z-8.0000
G01 X202.4341
G01 X199.5378 Y296.0138
G01 X201.5202
G00 Z5.0000
G00 X185.9317 Y287.0138
G00 Z-5.5000
G01 Z-6.0000
G01 Z-8.0000
G01 X184.1762
G00 Z5.0000
G00 X175.8238
G00 Z-5.5000
G01 Z-6.0000
G01 Z-8.0000
G01 X174.0683
G00 Z5.0000
G00 X160.4622 Y296.0138
G00 Z-5.5000
G01 Z-6.0000
G01 Z-8.0000
G01 X158.4798
G01 X155.6000 Y300.5138
G01 X155.0000 Y300.5628
G01 Y326.1976
G01 X180.0000 Y340.6313
G01 X205.0000 Y326.1976
G01 Y297.3301
G01 X180.0000 Y282.8963
G01 X155.0000 Y297.3301
G01 Y300.5628
G01 X155.6000 Y300.5138
G01 X157.5659
G01 X158.1735 Y300.6446
G03 X202.0112 Y322.5244 I21.8299 J11.1181
G03 X158.1735 Y300.6446 I-22.0101 J-10.7572
G01 X157.5659 Y300.5138
G01 Z-10.0000
G01 X155.6000
G01 X158.4798 Y296.0138
G01 X160.4622
G00 Z5.0000
G00 X174.0683 Y287.0138
G00 Z-7.5000
G01 Z-8.0000
G01 Z-10.0000
G01 X175.8238
G00 Z5.0000
G00 X184.1762
G00 Z-7.5000
G01 Z-8.0000
G01 Z-10.0000
G01 X185.9317
G00 Z5.0000
G00 X199.5378 Y296.0138
G00 Z-7.5000
G01 Z-8.0000
G01 Z-10.0000
G01 X201.5202
G01 X202.4341 Y300.5138
G01 X204.4000
G00 Z5.0000
G00 Y323.0138
G00 Z-7.5000
G01 Z-8.0000
G01 Z-10.0000
G01 X202.4341
G01 X199.5378 Y327.5138
G01 X201.5202
G00 Z5.0000
G00 X185.9317 Y336.5138
G00 Z-7.5000
G01 Z-8.0000
G01 Z-10.0000
G01 X184.1762
G00 Z5.0000
G00 X175.8238
G00 Z-7.5000
G01 Z-8.0000
G01 Z-10.0000
G01 X174.0683
G00 Z5.0000
G00 X160.4622 Y327.5138
G00 Z-7.5000
G01 Z-8.0000
G01 Z-10.0000
G01 X158.4798
G01 X155.6000 Y323.0138
G01 X155.0000 Y322.9648
G01 Y326.1976
G01 X180.0000 Y340.6313
G01 X205.0000 Y326.1976
G01 Y297.3301
G01 X180.0000 Y282.8963
G01 X155.0000 Y297.3301
G01 Y322.9648
G01 X155.6000 Y323.0138
G01 X157.5659
G01 X158.1735 Y322.8831
G03 X201.5477 Y300.1028 I21.8276 J-11.1227
G03 X158.1735 Y322.8831 I-21.5443 J11.6621
G01 X157.5659 Y323.0138
G01 Z-11.5000
G01 X155.6000
G01 X158.4798 Y327.5138
G01 X160.4622
G00 Z5.0000
G00 X174.0683 Y336.5138
G00 Z-9.5000
G01 Z-10.0000
G01 Z-11.5000
G01 X175.8238
G00 Z5.0000
G00 X184.1762
G00 Z-9.5000
G01 Z-10.0000
G01 Z-11.5000
G01 X185.9317
G00 Z5.0000
G00 X199.5378 Y327.5138
G00 Z-9.5000
G01 Z-10.0000
G01 Z-11.5000
G01 X201.5202
G01 X202.4341 Y323.0138
G01 X204.4000
G00 Z5.0000
G00 Y300.5138
G00 Z-9.5000
G01 Z-10.0000
G01 Z-11.5000
G01 X202.4341
G01 X199.5378 Y296.0138
G01 X201.5202
G00 Z5.0000
G00 X185.9317 Y287.0138
G00 Z-9.5000
G01 Z-10.0000
G01 Z-11.5000
G01 X184.1762
G00 Z5.0000
G00 X175.8238
G00 Z-9.5000
G01 Z-10.0000
G01 Z-11.5000
G01 X174.0683
G00 Z5.0000
G00 X160.4622 Y296.0138
G00 Z-9.5000
G01 Z-10.0000
G01 Z-11.5000
G01 X158.4798
G01 X155.6000 Y300.5138
G01 X155.0000 Y300.5628
G01 Y326.1976
G01 X180.0000 Y340.6313
G01 X205.0000 Y326.1976
G01 Y297.3301
G01 X180.0000 Y282.8963
G01 X155.0000 Y297.3301
G01 Y300.5628
G01 X155.6000 Y300.5138
G01 X157.5659
G01 X158.1735 Y300.6446
G03 X202.0112 Y322.5244 I21.8299 J11.1181
G03 X158.1735 Y300.6446 I-22.0101 J-10.7572
G01 X157.5659 Y300.5138
G00 Z5.0000


(No. 9: Hole 31)
G00 X155.9317 Y338.9738 Z5.0000
G00 Z0.5000
G01 Z0.0000 F1500
G01 Z-2.0000
G01 X154.1762
G00 Z5.0000
G00 X145.8238
G00 Z0.5000
G01 Z0.0000
G01 Z-2.0000
G01 X144.0683
G00 Z5.0000
G00 X130.4622 Y347.9738
G00 Z0.5000
G01 Z0.0000
G01 Z-2.0000
G01 X128.4798
G01 X125.6000 Y352.4738
G01 X127.5659
G00 Z5.0000
G00 Y374.9738
G00 Z0.5000
G01 Z0.0000
G01 Z-2.0000
G01 X125.6000
G01 X128.4798 Y379.4738
G01 X130.4622
G00 Z5.0000
G00 X144.0683 Y388.4738
G00 Z0.5000
G01 Z0.0000
G01 Z-2.0000
G01 X145.8238
G00 Z5.0000
G00 X154.1762
G00 Z0.5000
G01 Z0.0000
G01 Z-2.0000
G01 X155.9317
G00 Z5.0000
G00 X169.5378 Y379.4738
G00 Z0.5000
G01 Z0.0000
G01 Z-2.0000
G01 X171.5202
G01 X172.4341 Y374.9738
G01 X174.4000
G00 Z5.0000
G00 Y352.4738
G00 Z0.5000
G01 Z0.0000
G01 Z-2.0000
G01 X172.4341
G01 X169.5378 Y347.9738
G01 X169.0387 Y348.3110
G03 X131.3040 Y379.5586 I-19.0390 J15.4165
G03 X169.0387 Y348.3110 I18.6924 J-15.8351
G01 X169.5378 Y347.9738
G01 X171.5202
G01 X171.7842 Y347.4334
G01 X150.0000 Y334.8563
G01 X125.0000 Y349.2901
G01 Y378.1576
G01 X150.0000 Y392.5913
G01 X175.0000 Y378.1576
G01 Y349.2901
G01 X171.7842 Y347.4334
G01 X171.5202 Y347.9738
G01 Z-4.0000
G01 X169.5378
G01 X172.4341 Y352.4738
G01 X174.4000
G00 Z5.0000
G00 Y374.9738
G00 Z-1.5000
G01 Z-2.0000
G01 Z-4.0000
G01 X172.4341
G01 X169.5378 Y379.4738
G01 X171.5202
G00 Z5.0000
G00 X155.9317 Y388.4738
G00 Z-1.5000
G01 Z-2.0000
G01 Z-4.0000
G01 X154.1762
G00 Z5.0000
G00 X145.8238
G00 Z-1.5000
G01 Z-2.0000
G01 Z-4.0000
G01 X144.0683
G00 Z5.0000
G00 X130.4622 Y379.4738
G00 Z-1.5000
G01 Z-2.0000
G01 Z-4.0000
G01 X128.4798
G01 X125.6000 Y374.9738
G01 X127.5659
G00 Z5.0000
G00 Y352.4738
G00 Z-1.5000
G01 Z-2.0000
G01 Z-4.0000
G01 X125.6000
G01 X128.4798 Y347.9738
G01 X130.4622
G00 Z5.0000
G00 X144.0683 Y338.9738
G00 Z-1.5000
G01 Z-2.0000
G01 Z-4.0000
G01 X145.8238
G00 Z5.0000
G00 X154.1762
G00 Z-1.5000
G01 Z-2.0000
G01 Z-4.0000
G01 X154.3745 Y339.6217
G03 X145.9673 Y387.8903 I-4.3725 J24.1049
G03 X154.3745 Y339.6217 I4.0299 J-24.1646
G01 X154.1762 Y338.9738
G01 X155.9317
G01 X156.2462 Y338.4625
G01 X150.0000 Y334.8563
G01 X125.0000 Y349.2901
G01 Y378.1576
G01 X150.0000 Y392.5913
G01 X175.0000 Y378.1576
G01 Y349.2901
G01 X156.2462 Y338.4625
G01 X155.9317 Y338.9738
G01 Z-6.0000
G01 X154.1762
G00 Z5.0000
G00 X145.8238
G00 Z-3.5000
G01 Z-4.0000
G01 Z-6.0000
G01 X144.0683
G00 Z5.0000
G00 X130.4622 Y347.9738
G00 Z-3.5000
G01 Z-4.0000
G01 Z-6.0000
G01 X128.4798
G01 X125.6000 Y352.4738
G01 X127.5659
G00 Z5.0000
G00 Y374.9738
G00 Z-3.5000
G01 Z-4.0000
G01 Z-6.0000
G01 X125.6000
G01 X128.4798 Y379.4738
G01 X130.4622
G00 Z5.0000
G00 X144.0683 Y388.4738
G00 Z-3.5000
G01 Z-4.0000
G01 Z-6.0000
G01 X145.8238
G00 Z5.0000
G00 X154.1762
G00 Z-3.5000
G01 Z-4.0000
G01 Z-6.0000
G01 X155.9317
G00 Z5.0000
G00 X169.5378 Y379.4738
G00 Z-3.5000
G01 Z-4.0000
G01 Z-6.0000
G01 X171.5202
G01 X172.4341 Y374.9738
G01 X174.4000
G00 Z5.0000
G00 Y352.4738
G00 Z-3.5000
G01 Z-4.0000
G01 Z-6.0000
G01 X172.4341
G01 X169.5378 Y347.9738
G01 X169.0387 Y348.3110
G03 X131.3040 Y379.5586 I-19.0390 J15.4165
G03 X169.0387 Y348.3110 I18.6924 J-15.8351
G01 X169.5378 Y347.9738
G01 X171.5202
G01 X171.7842 Y347.4334
G01 X150.0000 Y334.8563
G01 X125.0000 Y349.2901
G01 Y378.1576
G01 X150.0000 Y392.5913
G01 X175.0000 Y378.1576
G01 Y349.2901
G01 X171.7842 Y347.4334
G01 X171.5202 Y347.9738
G01 Z-8.0000
G01 X169.5378
G01 X172.4341 Y352.4738
G01 X174.4000
G00 Z5.0000
G00 Y374.9738
G00 Z-5.5000
G01 Z-6.0000
G01 Z-8.0000
G01 X172.4341
G01 X169.5378 Y379.4738
G01 X171.5202
G00 Z5.0000
G00 X155.9317 Y388.4738
G00 Z-5.5000
G01 Z-6.0000
G01 Z-8.0000
G01 X154.1762
G00 Z5.0000
G00 X145.8238
G00 Z-5.5000
G01 Z-6.0000
G01 Z-8.0000
G01 X144.0683
G00 Z5.0000
G00 X130.4622 Y379.4738
G00 Z-5.5000
G01 Z-6.0000
G01 Z-8.0000
G01 X128.4798
G01 X125.6000 Y374.9738
G01 X127.5659
G00 Z5.0000
G00 Y352.4738
G00 Z-5.5000
G01 Z-6.0000
G01 Z-8.0000
G01 X125.6000
G01 X128.4798 Y347.9738
G01 X130.4622
G00 Z5.0000
G00 X144.0683 Y338.9738
G00 Z-5.5000
G01 Z-6.0000
G01 Z-8.0000
G01 X145.8238
G00 Z5.0000
G00 X154.1762
G00 Z-5.5000
G01 Z-6.0000
G01 Z-8.0000
G01 X154.3745 Y339.6217
G03 X145.9673 Y387.8903 I-4.3725 J24.1049
G03 X154.3745 Y339.6217 I4.0299 J-24.1646
G01 X154.1762 Y338.9738
G01 X155.9317
G01 X156.2462 Y338.4625
G01 X150.0000 Y334.8563
G01 X125.0000 Y349.2901
G01 Y378.1576
G01 X150.0000 Y392.5913
G01 X175.0000 Y378.1576
G01 Y349.2901
G01 X156.2462 Y338.4625
G01 X155.9317 Y338.9738
G01 Z-10.0000
G01 X154.1762
G00 Z5.0000
G00 X145.8238
G00 Z-7.5000
G01 Z-8.0000
G01 Z-10.0000
G01 X144.0683
G00 Z5.0000
G00 X130.4622 Y347.9738
G00 Z-7.5000
G01 Z-8.0000
G01 Z-10.0000
G01 X128.4798
G01 X125.6000 Y352.4738
G01 X127.5659
G00 Z5.0000
G00 Y374.9738
G00 Z-7.5000
G01 Z-8.0000
G01 Z-10.0000
G01 X125.6000
G01 X128.4798 Y379.4738
G01 X130.4622
G00 Z5.0000
G00 X144.0683 Y388.4738
G00 Z-7.5000
G01 Z-8.0000
G01 Z-10.0000
G01 X145.8238
G00 Z5.0000
G00 X154.1762
G00 Z-7.5000
G01 Z-8.0000
G01 Z-10.0000
G01 X155.9317
G00 Z5.0000
G00 X169.5378 Y379.4738
G00 Z-7.5000
G01 Z-8.0000
G01 Z-10.0000
G01 X171.5202
G01 X172.4341 Y374.9738
G01 X174.4000
G00 Z5.0000
G00 Y352.4738
G00 Z-7.5000
G01 Z-8.0000
G01 Z-10.0000
G01 X172.4341
G01 X169.5378 Y347.9738
G01 X169.0387 Y348.3110
G03 X131.3040 Y379.5586 I-19.0390 J15.4165
G03 X169.0387 Y348.3110 I18.6924 J-15.8351
G01 X169.5378 Y347.9738
G01 X171.5202
G01 X171.7842 Y347.4334
G01 X150.0000 Y334.8563
G01 X125.0000 Y349.2901
G01 Y378.1576
G01 X150.0000 Y392.5913
G01 X175.0000 Y378.1576
G01 Y349.2901
G01 X171.7842 Y347.4334
G01 X171.5202 Y347.9738
G01 Z-11.5000
G01 X169.5378
G01 X172.4341 Y352.4738
G01 X174.4000
G00 Z5.0000
G00 Y374.9738
G00 Z-9.5000
G01 Z-10.0000
G01 Z-11.5000
G01 X172.4341
G01 X169.5378 Y379.4738
G01 X171.5202
G00 Z5.0000
G00 X155.9317 Y388.4738
G00 Z-9.5000
G01 Z-10.0000
G01 Z-11.5000
G01 X154.1762
G00 Z5.0000
G00 X145.8238
G00 Z-9.5000
G01 Z-10.0000
G01 Z-11.5000
G01 X144.0683
G00 Z5.0000
G00 X130.4622 Y379.4738
G00 Z-9.5000
G01 Z-10.0000
G01 Z-11.5000
G01 X128.4798
G01 X125.6000 Y374.9738
G01 X127.5659
G00 Z5.0000
G00 Y352.4738
G00 Z-9.5000
G01 Z-10.0000
G01 Z-11.5000
G01 X125.6000
G01 X128.4798 Y347.9738
G01 X130.4622
G00 Z5.0000
G00 X144.0683 Y338.9738
G00 Z-9.5000
G01 Z-10.0000
G01 Z-11.5000
G01 X145.8238
G00 Z5.0000
G00 X154.1762
G00 Z-9.5000
G01 Z-10.0000
G01 Z-11.5000
G01 X154.3745 Y339.6217
G03 X145.9673 Y387.8903 I-4.3725 J24.1049
G03 X154.3745 Y339.6217 I4.0299 J-24.1646
G01 X154.1762 Y338.9738
G01 X155.9317
G01 X156.2462 Y338.4625
G01 X150.0000 Y334.8563
G01 X125.0000 Y349.2901
G01 Y378.1576
G01 X150.0000 Y392.5913
G01 X175.0000 Y378.1576
G01 Y349.2901
G01 X156.2462 Y338.4625
G01 X155.9317 Y338.9738
G00 Z5.0000


(No. 10: Hole 30)
G00 X185.6000 Y352.4738 Z5.0000
G00 Z0.5000
G01 Z0.0000 F1500
G01 Z-2.0000
G01 X187.5659
G01 X188.4798 Y347.9738
G01 X190.4622
G00 Z5.0000
G00 X204.0683 Y338.9738
G00 Z0.5000
G01 Z0.0000
G01 Z-2.0000
G01 X205.8238
G00 Z5.0000
G00 X214.1762
G00 Z0.5000
G01 Z0.0000
G01 Z-2.0000
G01 X215.9317
G00 Z5.0000
G00 X229.5378 Y347.9738
G00 Z0.5000
G01 Z0.0000
G01 Z-2.0000
G01 X231.5202
G01 X232.4341 Y352.4738
G01 X234.4000
G00 Z5.0000
G00 Y374.9738
G00 Z0.5000
G01 Z0.0000
G01 Z-2.0000
G01 X232.4341
G01 X229.5378 Y379.4738
G01 X231.5202
G00 Z5.0000
G00 X215.9317 Y388.4738
G00 Z0.5000
G01 Z0.0000
G01 Z-2.0000
G01 X214.1762
G00 Z5.0000
G00 X205.8238
G00 Z0.5000
G01 Z0.0000
G01 Z-2.0000
G01 X204.0683
G00 Z5.0000
G00 X190.4622 Y379.4738
G00 Z0.5000
G01 Z0.0000
G01 Z-2.0000
G01 X188.4798
G01 X185.6000 Y374.9738
G01 X185.0000 Y374.9248
G01 Y378.1576
G01 X210.0000 Y392.5913
G01 X235.0000 Y378.1576
G01 Y349.2901
G01 X210.0000 Y334.8563
G01 X185.0000 Y349.2901
G01 Y374.9248
G01 X185.6000 Y374.9738
G01 X187.5659
G01 X188.1735 Y374.8431
G03 X231.5477 Y352.0628 I21.8276 J-11.1227
G03 X188.1735 Y374.8431 I-21.5443 J11.6621
G01 X187.5659 Y374.9738
G01 Z-4.0000
G01 X185.6000
G01 X188.4798 Y379.4738
G01 X190.4622
G00 Z5.0000
G00 X204.0683 Y388.4738
G00 Z-1.5000
G01 Z-2.0000
G01 Z-4.0000
G01 X205.8238
G00 Z5.0000
G00 X214.1762
G00 Z-1.5000
G01 Z-2.0000
G01 Z-4.0000
G01 X215.9317
G00 Z5.0000
G00 X229.5378 Y379.4738
G00 Z-1.5000
G01 Z-2.0000
G01 Z-4.0000
G01 X231.5202
G01 X232.4341 Y374.9738
G01 X234.4000
G00 Z5.0000
G00 Y352.4738
G00 Z-1.5000
G01 Z-2.0000
G01 Z-4.0000
G01 X232.4341
G01 X229.5378 Y347.9738
G01 X231.5202
G00 Z5.0000
G00 X215.9317 Y338.9738
G00 Z-1.5000
G01 Z-2.0000
G01 Z-4.0000
G01 X214.1762
G00 Z5.0000
G00 X205.8238
G00 Z-1.5000
G01 Z-2.0000
G01 Z-4.0000
G01 X204.0683
G00 Z5.0000
G00 X190.4622 Y347.9738
G00 Z-1.5000
G01 Z-2.0000
G01 Z-4.0000
G01 X188.4798
G01 X185.6000 Y352.4738
G01 X185.0000 Y352.5228
G01 Y378.1576
G01 X210.0000 Y392.5913
G01 X235.0000 Y378.1576
G01 Y349.2901
G01 X210.0000 Y334.8563
G01 X185.0000 Y349.2901
G01 Y352.5228
G01 X185.6000 Y352.4738
G01 X187.5659
G01 X188.1735 Y352.6046
G03 X232.0112 Y374.4844 I21.8299 J11.1181
G03 X188.1735 Y352.6046 I-22.0101 J-10.7572
G01 X187.5659 Y352.4738
G01 Z-6.0000
G01 X185.6000
G01 X188.4798 Y347.9738
G01 X190.4622
G00 Z5.0000
G00 X204.0683 Y338.9738
G00 Z-3.5000
G01 Z-4.0000
G01 Z-6.0000
G01 X205.8238
G00 Z5.0000
G00 X214.1762
G00 Z-3.5000
G01 Z-4.0000
G01 Z-6.0000
G01 X215.9317
G00 Z5.0000
G00 X229.5378 Y347.9738
G00 Z-3.5000
G01 Z-4.0000
G01 Z-6.0000
G01 X231.5202
G01 X232.4341 Y352.4738
G01 X234.4000
G00 Z5.0000
G00 Y374.9738
G00 Z-3.5000
G01 Z-4.0000
G01 Z-6.0000
G01 X232.4341
G01 X229.5378 Y379.4738
G01 X231.5202
G00 Z5.0000
G00 X215.9317 Y388.4738
G00 Z-3.5000
G01 Z-4.0000
G01 Z-6.0000
G01 X214.1762
G00 Z5.0000
G00 X205.8238
G00 Z-3.5000
G01 Z-4.0000
G01 Z-6.0000
G01 X204.0683
G00 Z5.0000
G00 X190.4622 Y379.4738
G00 Z-3.5000
G01 Z-4.0000
G01 Z-6.0000
G01 X188.4798
G01 X185.6000 Y374.9738
G01 X185.0000 Y374.9248
G01 Y378.1576
G01 X210.0000 Y392.5913
G01 X235.0000 Y378.1576
G01 Y349.2901
G01 X210.0000 Y334.8563
G01 X185.0000 Y349.2901
G01 Y374.9248
G01 X185.6000 Y374.9738
G01 X187.5659
G01 X188.1735 Y374.8431
G03 X231.5477 Y352.0628 I21.8276 J-11.1227
G03 X188.1735 Y374.8431 I-21.5443 J11.6621
G01 X187.5659 Y374.9738
G01 Z-8.0000
G01 X185.6000
G01 X188.4798 Y379.4738
G01 X190.4622
G00 Z5.0000
G00 X204.0683 Y388.4738
G00 Z-5.5000
G01 Z-6.0000
G01 Z-8.0000
G01 X205.8238
G00 Z5.0000
G00 X214.1762
G00 Z-5.5000
G01 Z-6.0000
G01 Z-8.0000
G01 X215.9317
G00 Z5.0000
G00 X229.5378 Y379.4738
G00 Z-5.5000
G01 Z-6.0000
G01 Z-8.0000
G01 X231.5202
G01 X232.4341 Y374.9738
G01 X234.4000
G00 Z5.0000
G00 Y352.4738
G00 Z-5.5000
G01 Z-6.0000
G01 Z-8.0000
G01 X232.4341
G01 X229.5378 Y347.9738
G01 X231.5202
G00 Z5.0000
G00 X215.9317 Y338.9738
G00 Z-5.5000
G01 Z-6.0000
G01 Z-8.0000
G01 X214.1762
G00 Z5.0000
G00 X205.8238
G00 Z-5.5000
G01 Z-6.0000
G01 Z-8.0000
G01 X204.0683
G00 Z5.0000
G00 X190.4622 Y347.9738
G00 Z-5.5000
G01 Z-6.0000
G01 Z-8.0000
G01 X188.4798
G01 X185.6000 Y352.4738
G01 X185.0000 Y352.5228
G01 Y378.1576
G01 X210.0000 Y392.5913
G01 X235.0000 Y378.1576
G01 Y349.2901
G01 X210.0000 Y334.8563
G01 X185.0000 Y349.2901
G01 Y352.5228
G01 X185.6000 Y352.4738
G01 X187.5659
G01 X188.1735 Y352.6046
G03 X232.0112 Y374.4844 I21.8299 J11.1181
G03 X188.1735 Y352.6046 I-22.0101 J-10.7572
G01 X187.5659 Y352.4738
G01 Z-10.0000
G01 X185.6000
G01 X188.4798 Y347.9738
G01 X190.4622
G00 Z5.0000
G00 X204.0683 Y338.9738
G00 Z-7.5000
G01 Z-8.0000
G01 Z-10.0000
G01 X205.8238
G00 Z5.0000
G00 X214.1762
G00 Z-7.5000
G01 Z-8.0000
G01 Z-10.0000
G01 X215.9317
G00 Z5.0000
G00 X229.5378 Y347.9738
G00 Z-7.5000
G01 Z-8.0000
G01 Z-10.0000
G01 X231.5202
G01 X232.4341 Y352.4738
G01 X234.4000
G00 Z5.0000
G00 Y374.9738
G00 Z-7.5000
G01 Z-8.0000
G01 Z-10.0000
G01 X232.4341
G01 X229.5378 Y379.4738
G01 X231.5202
G00 Z5.0000
G00 X215.9317 Y388.4738
G00 Z-7.5000
G01 Z-8.0000
G01 Z-10.0000
G01 X214.1762
G00 Z5.0000
G00 X205.8238
G00 Z-7.5000
G01 Z-8.0000
G01 Z-10.0000
G01 X204.0683
G00 Z5.0000
G00 X190.4622 Y379.4738
G00 Z-7.5000
G01 Z-8.0000
G01 Z-10.0000
G01 X188.4798
G01 X185.6000 Y374.9738
G01 X185.0000 Y374.9248
G01 Y378.1576
G01 X210.0000 Y392.5913
G01 X235.0000 Y378.1576
G01 Y349.2901
G01 X210.0000 Y334.8563
G01 X185.0000 Y349.2901
G01 Y374.9248
G01 X185.6000 Y374.9738
G01 X187.5659
G01 X188.1735 Y374.8431
G03 X231.5477 Y352.0628 I21.8276 J-11.1227
G03 X188.1735 Y374.8431 I-21.5443 J11.6621
G01 X187.5659 Y374.9738
G01 Z-11.5000
G01 X185.6000
G01 X188.4798 Y379.4738
G01 X190.4622
G00 Z5.0000
G00 X204.0683 Y388.4738
G00 Z-9.5000
G01 Z-10.0000
G01 Z-11.5000
G01 X205.8238
G00 Z5.0000
G00 X214.1762
G00 Z-9.5000
G01 Z-10.0000
G01 Z-11.5000
G01 X215.9317
G00 Z5.0000
G00 X229.5378 Y379.4738
G00 Z-9.5000
G01 Z-10.0000
G01 Z-11.5000
G01 X231.5202
G01 X232.4341 Y374.9738
G01 X234.4000
G00 Z5.0000
G00 Y352.4738
G00 Z-9.5000
G01 Z-10.0000
G01 Z-11.5000
G01 X232.4341
G01 X229.5378 Y347.9738
G01 X231.5202
G00 Z5.0000
G00 X215.9317 Y338.9738
G00 Z-9.5000
G01 Z-10.0000
G01 Z-11.5000
G01 X214.1762
G00 Z5.0000
G00 X205.8238
G00 Z-9.5000
G01 Z-10.0000
G01 Z-11.5000
G01 X204.0683
G00 Z5.0000
G00 X190.4622 Y347.9738
G00 Z-9.5000
G01 Z-10.0000
G01 Z-11.5000
G01 X188.4798
G01 X185.6000 Y352.4738
G01 X185.0000 Y352.5228
G01 Y378.1576
G01 X210.0000 Y392.5913
G01 X235.0000 Y378.1576
G01 Y349.2901
G01 X210.0000 Y334.8563
G01 X185.0000 Y349.2901
G01 Y352.5228
G01 X185.6000 Y352.4738
G01 X187.5659
G01 X188.1735 Y352.6046
G03 X232.0112 Y374.4844 I21.8299 J11.1181
G03 X188.1735 Y352.6046 I-22.0101 J-10.7572
G01 X187.5659 Y352.4738
G00 Z5.0000


(No. 11: Hole 26)
G00 X218.4798 Y327.5138 Z5.0000
G00 Z0.5000
G01 Z0.0000 F1500
G01 Z-2.0000
G01 X220.4622
G01 X215.6000 Y323.0138
G01 X217.5659
G00 Z5.0000
G00 X234.0683 Y336.5138
G00 Z0.5000
G01 Z0.0000
G01 Z-2.0000
G01 X235.8238
G00 Z5.0000
G00 X244.1762
G00 Z0.5000
G01 Z0.0000
G01 Z-2.0000
G01 X245.9317
G00 Z5.0000
G00 X259.5378 Y327.5138
G00 Z0.5000
G01 Z0.0000
G01 Z-2.0000
G01 X261.5202
G01 X262.4341 Y323.0138
G01 X264.4000
G00 Z5.0000
G00 Y300.5138
G00 Z0.5000
G01 Z0.0000
G01 Z-2.0000
G01 X262.4341
G01 X259.5378 Y296.0138
G01 X261.5202
G00 Z5.0000
G00 X245.9317 Y287.0138
G00 Z0.5000
G01 Z0.0000
G01 Z-2.0000
G01 X244.1762
G00 Z5.0000
G00 X235.8238
G00 Z0.5000
G01 Z0.0000
G01 Z-2.0000
G01 X234.0683
G00 Z5.0000
G00 X220.4622 Y296.0138
G00 Z0.5000
G01 Z0.0000
G01 Z-2.0000
G01 X218.4798
G01 X215.6000 Y300.5138
G01 X215.0000 Y300.5628
G01 Y326.1976
G01 X240.0000 Y340.6313
G01 X265.0000 Y326.1976
G01 Y297.3301
G01 X240.0000 Y282.8963
G01 X215.0000 Y297.3301
G01 Y300.5628
G01 X215.6000 Y300.5138
G01 X217.5659
G01 X218.1735 Y300.6446
G03 X262.0112 Y322.5244 I21.8299 J11.1181
G03 X218.1735 Y300.6446 I-22.0101 J-10.7572
G01 X217.5659 Y300.5138
G01 Z-4.0000
G01 X215.6000
G01 X218.4798 Y296.0138
G01 X220.4622
G00 Z5.0000
G00 X234.0683 Y287.0138
G00 Z-1.5000
G01 Z-2.0000
G01 Z-4.0000
G01 X235.8238
G00 Z5.0000
G00 X244.1762
G00 Z-1.5000
G01 Z-2.0000
G01 Z-4.0000
G01 X245.9317
G00 Z5.0000
G00 X259.5378 Y296.0138
G00 Z-1.5000
G01 Z-2.0000
G01 Z-4.0000
G01 X261.5202
G01 X262.4341 Y300.5138
G01 X264.4000
G00 Z5.0000
G00 Y323.0138
G00 Z-1.5000
G01 Z-2.0000
G01 Z-4.0000
G01 X262.4341
G01 X259.5378 Y327.5138
G01 X261.5202
G00 Z5.0000
G00 X245.9317 Y336.5138
G00 Z-1.5000
G01 Z-2.0000
G01 Z-4.0000
G01 X244.1762
G00 Z5.0000
G00 X235.8238
G00 Z-1.5000
G01 Z-2.0000
G01 Z-4.0000
G01 X234.0683
G00 Z5.0000
G00 X220.4622 Y327.5138
G00 Z-1.5000
G01 Z-2.0000
G01 Z-4.0000
G01 X218.4798
G01 X215.6000 Y323.0138
G01 X215.0000 Y322.9648
G01 Y326.1976
G01 X240.0000 Y340.6313
G01 X265.0000 Y326.1976
G01 Y297.3301
G01 X240.0000 Y282.8963
G01 X215.0000 Y297.3301
G01 Y322.9648
G01 X215.6000 Y323.0138
G01 X217.5659
G01 X218.1735 Y322.8831
G03 X261.5477 Y300.1028 I21.8276 J-11.1227
G03 X218.1735 Y322.8831 I-21.5443 J11.6621
G01 X217.5659 Y323.0138
G01 Z-6.0000
G01 X215.6000
G01 X218.4798 Y327.5138
G01 X220.4622
G00 Z5.0000
G00 X234.0683 Y336.5138
G00 Z-3.5000
G01 Z-4.0000
G01 Z-6.0000
G01 X235.8238
G00 Z5.0000
G00 X244.1762
G00 Z-3.5000
G01 Z-4.0000
G01 Z-6.0000
G01 X245.9317
G00 Z5.0000
G00 X259.5378 Y327.5138
G00 Z-3.5000
G01 Z-4.0000
G01 Z-6.0000
G01 X261.5202
G01 X262.4341 Y323.0138
G01 X264.4000
G00 Z5.0000
G00 Y300.5138
G00 Z-3.5000
G01 Z-4.0000
G01 Z-6.0000
G01 X262.4341
G01 X259.5378 Y296.0138
G01 X261.5202
G00 Z5.0000
G00 X245.9317 Y287.0138
G00 Z-3.5000
G01 Z-4.0000
G01 Z-6.0000
G01 X244.1762
G00 Z5.0000
G00 X235.8238
G00 Z-3.5000
G01 Z-4.0000
G01 Z-6.0000
G01 X234.0683
G00 Z5.0000
G00 X220.4622 Y296.0138
G00 Z-3.5000
G01 Z-4.0000
G01 Z-6.0000
G01 X218.4798
G01 X215.6000 Y300.5138
G01 X215.0000 Y300.5628
G01 Y326.1976
G01 X240.0000 Y340.6313
G01 X265.0000 Y326.1976
G01 Y297.3301
G01 X240.0000 Y282.8963
G01 X215.0000 Y297.3301
G01 Y300.5628
G01 X215.6000 Y300.5138
G01 X217.5659
G01 X218.1735 Y300.6446
G03 X262.0112 Y322.5244 I21.8299 J11.1181
G03 X218.1735 Y300.6446 I-22.0101 J-10.7572
G01 X217.5659 Y300.5138
G01 Z-8.0000
G01 X215.6000
G01 X218.4798 Y296.0138
G01 X220.4622
G00 Z5.0000
G00 X234.0683 Y287.0138
G00 Z-5.5000
G01 Z-6.0000
G01 Z-8.0000
G01 X235.8238
G00 Z5.0000
G00 X244.1762
G00 Z-5.5000
G01 Z-6.0000
G01 Z-8.0000
G01 X245.9317
G00 Z5.0000
G00 X259.5378 Y296.0138
G00 Z-5.5000
G01 Z-6.0000
G01 Z-8.0000
G01 X261.5202
G01 X262.4341 Y300.5138
G01 X264.4000
G00 Z5.0000
G00 Y323.0138
G00 Z-5.5000
G01 Z-6.0000
G01 Z-8.0000
G01 X262.4341
G01 X259.5378 Y327.5138
G01 X261.5202
G00 Z5.0000
G00 X245.9317 Y336.5138
G00 Z-5.5000
G01 Z-6.0000
G01 Z-8.0000
G01 X244.1762
G00 Z5.0000
G00 X235.8238
G00 Z-5.5000
G01 Z-6.0000
G01 Z-8.0000
G01 X234.0683
G00 Z5.0000
G00 X220.4622 Y327.5138
G00 Z-5.5000
G01 Z-6.0000
G01 Z-8.0000
G01 X218.4798
G01 X215.6000 Y323.0138
G01 X215.0000 Y322.9648
G01 Y326.1976
G01 X240.0000 Y340.6313
G01 X265.0000 Y326.1976
G01 Y297.3301
G01 X240.0000 Y282.8963
G01 X215.0000 Y297.3301
G01 Y322.9648
G01 X215.6000 Y323.0138
G01 X217.5659
G01 X218.1735 Y322.8831
G03 X261.5477 Y300.1028 I21.8276 J-11.1227
G03 X218.1735 Y322.8831 I-21.5443 J11.6621
G01 X217.5659 Y323.0138
G01 Z-10.0000
G01 X215.6000
G01 X218.4798 Y327.5138
G01 X220.4622
G00 Z5.0000
G00 X234.0683 Y336.5138
G00 Z-7.5000
G01 Z-8.0000
G01 Z-10.0000
G01 X235.8238
G00 Z5.0000
G00 X244.1762
G00 Z-7.5000
G01 Z-8.0000
G01 Z-10.0000
G01 X245.9317
G00 Z5.0000
G00 X259.5378 Y327.5138
G00 Z-7.5000
G01 Z-8.0000
G01 Z-10.0000
G01 X261.5202
G01 X262.4341 Y323.0138
G01 X264.4000
G00 Z5.0000
G00 Y300.5138
G00 Z-7.5000
G01 Z-8.0000
G01 Z-10.0000
G01 X262.4341
G01 X259.5378 Y296.0138
G01 X261.5202
G00 Z5.0000
G00 X245.9317 Y287.0138
G00 Z-7.5000
G01 Z-8.0000
G01 Z-10.0000
G01 X244.1762
G00 Z5.0000
G00 X235.8238
G00 Z-7.5000
G01 Z-8.0000
G01 Z-10.0000
G01 X234.0683
G00 Z5.0000
G00 X220.4622 Y296.0138
G00 Z-7.5000
G01 Z-8.0000
G01 Z-10.0000
G01 X218.4798
G01 X215.6000 Y300.5138
G01 X215.0000 Y300.5628
G01 Y326.1976
G01 X240.0000 Y340.6313
G01 X265.0000 Y326.1976
G01 Y297.3301
G01 X240.0000 Y282.8963
G01 X215.0000 Y297.3301
G01 Y300.5628
G01 X215.6000 Y300.5138
G01 X217.5659
G01 X218.1735 Y300.6446
G03 X262.0112 Y322.5244 I21.8299 J11.1181
G03 X218.1735 Y300.6446 I-22.0101 J-10.7572
G01 X217.5659 Y300.5138
G01 Z-11.5000
G01 X215.6000
G01 X218.4798 Y296.0138
G01 X220.4622
G00 Z5.0000
G00 X234.0683 Y287.0138
G00 Z-9.5000
G01 Z-10.0000
G01 Z-11.5000
G01 X235.8238
G00 Z5.0000
G00 X244.1762
G00 Z-9.5000
G01 Z-10.0000
G01 Z-11.5000
G01 X245.9317
G00 Z5.0000
G00 X259.5378 Y296.0138
G00 Z-9.5000
G01 Z-10.0000
G01 Z-11.5000
G01 X261.5202
G01 X262.4341 Y300.5138
G01 X264.4000
G00 Z5.0000
G00 Y323.0138
G00 Z-9.5000
G01 Z-10.0000
G01 Z-11.5000
G01 X262.4341
G01 X259.5378 Y327.5138
G01 X261.5202
G00 Z5.0000
G00 X245.9317 Y336.5138
G00 Z-9.5000
G01 Z-10.0000
G01 Z-11.5000
G01 X244.1762
G00 Z5.0000
G00 X235.8238
G00 Z-9.5000
G01 Z-10.0000
G01 Z-11.5000
G01 X234.0683
G00 Z5.0000
G00 X220.4622 Y327.5138
G00 Z-9.5000
G01 Z-10.0000
G01 Z-11.5000
G01 X218.4798
G01 X215.6000 Y323.0138
G01 X215.0000 Y322.9648
G01 Y326.1976
G01 X240.0000 Y340.6313
G01 X265.0000 Y326.1976
G01 Y297.3301
G01 X240.0000 Y282.8963
G01 X215.0000 Y297.3301
G01 Y322.9648
G01 X215.6000 Y323.0138
G01 X217.5659
G01 X218.1735 Y322.8831
G03 X261.5477 Y300.1028 I21.8276 J-11.1227
G03 X218.1735 Y322.8831 I-21.5443 J11.6621
G01 X217.5659 Y323.0138
G00 Z5.0000


(No. 12: Hole 20)
G00 X248.4798 Y275.5538 Z5.0000
G00 Z0.5000
G01 Z0.0000 F1500
G01 Z-2.0000
G01 X250.4622
G01 X245.6000 Y271.0538
G01 X247.5659
G00 Z5.0000
G00 X264.0683 Y284.5538
G00 Z0.5000
G01 Z0.0000
G01 Z-2.0000
G01 X265.8238
G00 Z5.0000
G00 X274.1762
G00 Z0.5000
G01 Z0.0000
G01 Z-2.0000
G01 X275.9317
G00 Z5.0000
G00 X289.5378 Y275.5538
G00 Z0.5000
G01 Z0.0000
G01 Z-2.0000
G01 X291.5202
G01 X292.4341 Y271.0538
G01 X294.4000
G00 Z5.0000
G00 Y248.5538
G00 Z0.5000
G01 Z0.0000
G01 Z-2.0000
G01 X292.4341
G01 X289.5378 Y244.0538
G01 X291.5202
G00 Z5.0000
G00 X275.9317 Y235.0538
G00 Z0.5000
G01 Z0.0000
G01 Z-2.0000
G01 X274.1762
G00 Z5.0000
G00 X265.8238
G00 Z0.5000
G01 Z0.0000
G01 Z-2.0000
G01 X264.0683
G00 Z5.0000
G00 X250.4622 Y244.0538
G00 Z0.5000
G01 Z0.0000
G01 Z-2.0000
G01 X248.4798
G01 X245.6000 Y248.5538
G01 X245.0000 Y248.6028
G01 Y274.2376
G01 X270.0000 Y288.6713
G01 X295.0000 Y274.2376
G01 Y245.3701
G01 X270.0000 Y230.9363
G01 X245.0000 Y245.3701
G01 Y248.6028
G01 X245.6000 Y248.5538
G01 X247.5659
G01 X248.1735 Y248.6846
G03 X292.0112 Y270.5644 I21.8299 J11.1181
G03 X248.1735 Y248.6846 I-22.0101 J-10.7572
G01 X247.5659 Y248.5538
G01 Z-4.0000
G01 X245.6000
G01 X248.4798 Y244.0538
G01 X250.4622
G00 Z5.0000
G00 X264.0683 Y235.0538
G00 Z-1.5000
G01 Z-2.0000
G01 Z-4.0000
G01 X265.8238
G00 Z5.0000
G00 X274.1762
G00 Z-1.5000
G01 Z-2.0000
G01 Z-4.0000
G01 X275.9317
G00 Z5.0000
G00 X289.5378 Y244.0538
G00 Z-1.5000
G01 Z-2.0000
G01 Z-4.0000
G01 X291.5202
G01 X292.4341 Y248.5538
G01 X294.4000
G00 Z5.0000
G00 Y271.0538
G00 Z-1.5000
G01 Z-2.0000
G01 Z-4.0000
G01 X292.4341
G01 X289.5378 Y275.5538
G01 X291.5202
G00 Z5.0000
G00 X275.9317 Y284.5538
G00 Z-1.5000
G01 Z-2.0000
G01 Z-4.0000
G01 X274.1762
G00 Z5.0000
G00 X265.8238
G00 Z-1.5000
G01 Z-2.0000
G01 Z-4.0000
G01 X264.0683
G00 Z5.0000
G00 X250.4622 Y275.5538
G00 Z-1.5000
G01 Z-2.0000
G01 Z-4.0000
G01 X248.4798
G01 X245.6000 Y271.0538
G01 X245.0000 Y271.0048
G01 Y274.2376
G01 X270.0000 Y288.6713
G01 X295.0000 Y274.2376
G01 Y245.3701
G01 X270.0000 Y230.9363
G01 X245.0000 Y245.3701
G01 Y271.0048
G01 X245.6000 Y271.0538
G01 X247.5659
G01 X248.1735 Y270.9231
G03 X291.5477 Y248.1428 I21.8276 J-11.1227
G03 X248.1735 Y270.9231 I-21.5443 J11.6621
G01 X247.5659 Y271.0538
G01 Z-6.0000
G01 X245.6000
G01 X248.4798 Y275.5538
G01 X250.4622
G00 Z5.0000
G00 X264.0683 Y284.5538
G00 Z-3.5000
G01 Z-4.0000
G01 Z-6.0000
G01 X265.8238
G00 Z5.0000
G00 X274.1762
G00 Z-3.5000
G01 Z-4.0000
G01 Z-6.0000
G01 X275.9317
G00 Z5.0000
G00 X289.5378 Y275.5538
G00 Z-3.5000
G01 Z-4.0000
G01 Z-6.0000
G01 X291.5202
G01 X292.4341 Y271.0538
G01 X294.4000
G00 Z5.0000
G00 Y248.5538
G00 Z-3.5000
G01 Z-4.0000
G01 Z-6.0000
G01 X292.4341
G01 X289.5378 Y244.0538
G01 X291.5202
G00 Z5.0000
G00 X275.9317 Y235.0538
G00 Z-3.5000
G01 Z-4.0000
G01 Z-6.0000
G01 X274.1762
G00 Z5.0000
G00 X265.8238
G00 Z-3.5000
G01 Z-4.0000
G01 Z-6.0000
G01 X264.0683
G00 Z5.0000
G00 X250.4622 Y244.0538
G00 Z-3.5000
G01 Z-4.0000
G01 Z-6.0000
G01 X248.4798
G01 X245.6000 Y248.5538
G01 X245.0000 Y248.6028
G01 Y274.2376
G01 X270.0000 Y288.6713
G01 X295.0000 Y274.2376
G01 Y245.3701
G01 X270.0000 Y230.9363
G01 X245.0000 Y245.3701
G01 Y248.6028
G01 X245.6000 Y248.5538
G01 X247.5659
G01 X248.1735 Y248.6846
G03 X292.0112 Y270.5644 I21.8299 J11.1181
G03 X248.1735 Y248.6846 I-22.0101 J-10.7572
G01 X247.5659 Y248.5538
G01 Z-8.0000
G01 X245.6000
G01 X248.4798 Y244.0538
G01 X250.4622
G00 Z5.0000
G00 X264.0683 Y235.0538
G00 Z-5.5000
G01 Z-6.0000
G01 Z-8.0000
G01 X265.8238
G00 Z5.0000
G00 X274.1762
G00 Z-5.5000
G01 Z-6.0000
G01 Z-8.0000
G01 X275.9317
G00 Z5.0000
G00 X289.5378 Y244.0538
G00 Z-5.5000
G01 Z-6.0000
G01 Z-8.0000
G01 X291.5202
G01 X292.4341 Y248.5538
G01 X294.4000
G00 Z5.0000
G00 Y271.0538
G00 Z-5.5000
G01 Z-6.0000
G01 Z-8.0000
G01 X292.4341
G01 X289.5378 Y275.5538
G01 X291.5202
G00 Z5.0000
G00 X275.9317 Y284.5538
G00 Z-5.5000
G01 Z-6.0000
G01 Z-8.0000
G01 X274.1762
G00 Z5.0000
G00 X265.8238
G00 Z-5.5000
G01 Z-6.0000
G01 Z-8.0000
G01 X264.0683
G00 Z5.0000
G00 X250.4622 Y275.5538
G00 Z-5.5000
G01 Z-6.0000
G01 Z-8.0000
G01 X248.4798
G01 X245.6000 Y271.0538
G01 X245.0000 Y271.0048
G01 Y274.2376
G01 X270.0000 Y288.6713
G01 X295.0000 Y274.2376
G01 Y245.3701
G01 X270.0000 Y230.9363
G01 X245.0000 Y245.3701
G01 Y271.0048
G01 X245.6000 Y271.0538
G01 X247.5659
G01 X248.1735 Y270.9231
G03 X291.5477 Y248.1428 I21.8276 J-11.1227
G03 X248.1735 Y270.9231 I-21.5443 J11.6621
G01 X247.5659 Y271.0538
G01 Z-10.0000
G01 X245.6000
G01 X248.4798 Y275.5538
G01 X250.4622
G00 Z5.0000
G00 X264.0683 Y284.5538
G00 Z-7.5000
G01 Z-8.0000
G01 Z-10.0000
G01 X265.8238
G00 Z5.0000
G00 X274.1762
G00 Z-7.5000
G01 Z-8.0000
G01 Z-10.0000
G01 X275.9317
G00 Z5.0000
G00 X289.5378 Y275.5538
G00 Z-7.5000
G01 Z-8.0000
G01 Z-10.0000
G01 X291.5202
G01 X292.4341 Y271.0538
G01 X294.4000
G00 Z5.0000
G00 Y248.5538
G00 Z-7.5000
G01 Z-8.0000
G01 Z-10.0000
G01 X292.4341
G01 X289.5378 Y244.0538
G01 X291.5202
G00 Z5.0000
G00 X275.9317 Y235.0538
G00 Z-7.5000
G01 Z-8.0000
G01 Z-10.0000
G01 X274.1762
G00 Z5.0000
G00 X265.8238
G00 Z-7.5000
G01 Z-8.0000
G01 Z-10.0000
G01 X264.0683
G00 Z5.0000
G00 X250.4622 Y244.0538
G00 Z-7.5000
G01 Z-8.0000
G01 Z-10.0000
G01 X248.4798
G01 X245.6000 Y248.5538
G01 X245.0000 Y248.6028
G01 Y274.2376
G01 X270.0000 Y288.6713
G01 X295.0000 Y274.2376
G01 Y245.3701
G01 X270.0000 Y230.9363
G01 X245.0000 Y245.3701
G01 Y248.6028
G01 X245.6000 Y248.5538
G01 X247.5659
G01 X248.1735 Y248.6846
G03 X292.0112 Y270.5644 I21.8299 J11.1181
G03 X248.1735 Y248.6846 I-22.0101 J-10.7572
G01 X247.5659 Y248.5538
G01 Z-11.5000
G01 X245.6000
G01 X248.4798 Y244.0538
G01 X250.4622
G00 Z5.0000
G00 X264.0683 Y235.0538
G00 Z-9.5000
G01 Z-10.0000
G01 Z-11.5000
G01 X265.8238
G00 Z5.0000
G00 X274.1762
G00 Z-9.5000
G01 Z-10.0000
G01 Z-11.5000
G01 X275.9317
G00 Z5.0000
G00 X289.5378 Y244.0538
G00 Z-9.5000
G01 Z-10.0000
G01 Z-11.5000
G01 X291.5202
G01 X292.4341 Y248.5538
G01 X294.4000
G00 Z5.0000
G00 Y271.0538
G00 Z-9.5000
G01 Z-10.0000
G01 Z-11.5000
G01 X292.4341
G01 X289.5378 Y275.5538
G01 X291.5202
G00 Z5.0000
G00 X275.9317 Y284.5538
G00 Z-9.5000
G01 Z-10.0000
G01 Z-11.5000
G01 X274.1762
G00 Z5.0000
G00 X265.8238
G00 Z-9.5000
G01 Z-10.0000
G01 Z-11.5000
G01 X264.0683
G00 Z5.0000
G00 X250.4622 Y275.5538
G00 Z-9.5000
G01 Z-10.0000
G01 Z-11.5000
G01 X248.4798
G01 X245.6000 Y271.0538
G01 X245.0000 Y271.0048
G01 Y274.2376
G01 X270.0000 Y288.6713
G01 X295.0000 Y274.2376
G01 Y245.3701
G01 X270.0000 Y230.9363
G01 X245.0000 Y245.3701
G01 Y271.0048
G01 X245.6000 Y271.0538
G01 X247.5659
G01 X248.1735 Y270.9231
G03 X291.5477 Y248.1428 I21.8276 J-11.1227
G03 X248.1735 Y270.9231 I-21.5443 J11.6621
G01 X247.5659 Y271.0538
G00 Z5.0000


(No. 13: Hole 14)
G00 X278.4798 Y223.5938 Z5.0000
G00 Z0.5000
G01 Z0.0000 F1500
G01 Z-2.0000
G01 X280.4622
G01 X275.6000 Y219.0938
G01 X277.5659
G00 Z5.0000
G00 X294.0683 Y232.5938
G00 Z0.5000
G01 Z0.0000
G01 Z-2.0000
G01 X295.8238
G00 Z5.0000
G00 X304.1762
G00 Z0.5000
G01 Z0.0000
G01 Z-2.0000
G01 X305.9317
G00 Z5.0000
G00 X319.5378 Y223.5938
G00 Z0.5000
G01 Z0.0000
G01 Z-2.0000
G01 X321.5202
G01 X322.4341 Y219.0938
G01 X324.4000
G00 Z5.0000
G00 Y196.5938
G00 Z0.5000
G01 Z0.0000
G01 Z-2.0000
G01 X322.4341
G01 X319.5378 Y192.0938
G01 X321.5202
G00 Z5.0000
G00 X305.9317 Y183.0938
G00 Z0.5000
G01 Z0.0000
G01 Z-2.0000
G01 X304.1762
G00 Z5.0000
G00 X295.8238
G00 Z0.5000
G01 Z0.0000
G01 Z-2.0000
G01 X294.0683
G00 Z5.0000
G00 X280.4622 Y192.0938
G00 Z0.5000
G01 Z0.0000
G01 Z-2.0000
G01 X278.4798
G01 X275.6000 Y196.5938
G01 X275.0000 Y196.6428
G01 Y222.2776
G01 X300.0000 Y236.7113
G01 X325.0000 Y222.2776
G01 Y193.4101
G01 X300.0000 Y178.9763
G01 X275.0000 Y193.4101
G01 Y196.6428
G01 X275.6000 Y196.5938
G01 X277.5659
G01 X278.1735 Y196.7246
G03 X322.0112 Y218.6044 I21.8299 J11.1181
G03 X278.1735 Y196.7246 I-22.0101 J-10.7572
G01 X277.5659 Y196.5938
G01 Z-4.0000
G01 X275.6000
G01 X278.4798 Y192.0938
G01 X280.4622
G00 Z5.0000
G00 X294.0683 Y183.0938
G00 Z-1.5000
G01 Z-2.0000
G01 Z-4.0000
G01 X295.8238
G00 Z5.0000
G00 X304.1762
G00 Z-1.5000
G01 Z-2.0000
G01 Z-4.0000
G01 X305.9317
G00 Z5.0000
G00 X319.5378 Y192.0938
G00 Z-1.5000
G01 Z-2.0000
G01 Z-4.0000
G01 X321.5202
G01 X322.4341 Y196.5938
G01 X324.4000
G00 Z5.0000
G00 Y219.0938
G00 Z-1.5000
G01 Z-2.0000
G01 Z-4.0000
G01 X322.4341
G01 X319.5378 Y223.5938
G01 X321.5202
G00 Z5.0000
G00 X305.9317 Y232.5938
G00 Z-1.5000
G01 Z-2.0000
G01 Z-4.0000
G01 X304.1762
G00 Z5.0000
G00 X295.8238
G00 Z-1.5000
G01 Z-2.0000
G01 Z-4.0000
G01 X294.0683
G00 Z5.0000
G00 X280.4622 Y223.5938
G00 Z-1.5000
G01 Z-2.0000
G01 Z-4.0000
G01 X278.4798
G01 X275.6000 Y219.0938
G01 X275.0000 Y219.0448
G01 Y222.2776
G01 X300.0000 Y236.7113
G01 X325.0000 Y222.2776
G01 Y193.4101
G01 X300.0000 Y178.9763
G01 X275.0000 Y193.4101
G01 Y219.0448
G01 X275.6000 Y219.0938
G01 X277.5659
G01 X278.1735 Y218.9631
G03 X321.5477 Y196.1828 I21.8276 J-11.1227
G03 X278.1735 Y218.9631 I-21.5443 J11.6621
G01 X277.5659 Y219.0938
G01 Z-6.0000
G01 X275.6000
G01 X278.4798 Y223.5938
G01 X280.4622
G00 Z5.0000
G00 X294.0683 Y232.5938
G00 Z-3.5000
G01 Z-4.0000
G01 Z-6.0000
G01 X295.8238
G00 Z5.0000
G00 X304.1762
G00 Z-3.5000
G01 Z-4.0000
G01 Z-6.0000
G01 X305.9317
G00 Z5.0000
G00 X319.5378 Y223.5938
G00 Z-3.5000
G01 Z-4.0000
G01 Z-6.0000
G01 X321.5202
G01 X322.4341 Y219.0938
G01 X324.4000
G00 Z5.0000
G00 Y196.5938
G00 Z-3.5000
G01 Z-4.0000
G01 Z-6.0000
G01 X322.4341
G01 X319.5378 Y192.0938
G01 X321.5202
G00 Z5.0000
G00 X305.9317 Y183.0938
G00 Z-3.5000
G01 Z-4.0000
G01 Z-6.0000
G01 X304.1762
G00 Z5.0000
G00 X295.8238
G00 Z-3.5000
G01 Z-4.0000
G01 Z-6.0000
G01 X294.0683
G00 Z5.0000
G00 X280.4622 Y192.0938
G00 Z-3.5000
G01 Z-4.0000
G01 Z-6.0000
G01 X278.4798
G01 X275.6000 Y196.5938
G01 X275.0000 Y196.6428
G01 Y222.2776
G01 X300.0000 Y236.7113
G01 X325.0000 Y222.2776
G01 Y193.4101
G01 X300.0000 Y178.9763
G01 X275.0000 Y193.4101
G01 Y196.6428
G01 X275.6000 Y196.5938
G01 X277.5659
G01 X278.1735 Y196.7246
G03 X322.0112 Y218.6044 I21.8299 J11.1181
G03 X278.1735 Y196.7246 I-22.0101 J-10.7572
G01 X277.5659 Y196.5938
G01 Z-8.0000
G01 X275.6000
G01 X278.4798 Y192.0938
G01 X280.4622
G00 Z5.0000
G00 X294.0683 Y183.0938
G00 Z-5.5000
G01 Z-6.0000
G01 Z-8.0000
G01 X295.8238
G00 Z5.0000
G00 X304.1762
G00 Z-5.5000
G01 Z-6.0000
G01 Z-8.0000
G01 X305.9317
G00 Z5.0000
G00 X319.5378 Y192.0938
G00 Z-5.5000
G01 Z-6.0000
G01 Z-8.0000
G01 X321.5202
G01 X322.4341 Y196.5938
G01 X324.4000
G00 Z5.0000
G00 Y219.0938
G00 Z-5.5000
G01 Z-6.0000
G01 Z-8.0000
G01 X322.4341
G01 X319.5378 Y223.5938
G01 X321.5202
G00 Z5.0000
G00 X305.9317 Y232.5938
G00 Z-5.5000
G01 Z-6.0000
G01 Z-8.0000
G01 X304.1762
G00 Z5.0000
G00 X295.8238
G00 Z-5.5000
G01 Z-6.0000
G01 Z-8.0000
G01 X294.0683
G00 Z5.0000
G00 X280.4622 Y223.5938
G00 Z-5.5000
G01 Z-6.0000
G01 Z-8.0000
G01 X278.4798
G01 X275.6000 Y219.0938
G01 X275.0000 Y219.0448
G01 Y222.2776
G01 X300.0000 Y236.7113
G01 X325.0000 Y222.2776
G01 Y193.4101
G01 X300.0000 Y178.9763
G01 X275.0000 Y193.4101
G01 Y219.0448
G01 X275.6000 Y219.0938
G01 X277.5659
G01 X278.1735 Y218.9631
G03 X321.5477 Y196.1828 I21.8276 J-11.1227
G03 X278.1735 Y218.9631 I-21.5443 J11.6621
G01 X277.5659 Y219.0938
G01 Z-10.0000
G01 X275.6000
G01 X278.4798 Y223.5938
G01 X280.4622
G00 Z5.0000
G00 X294.0683 Y232.5938
G00 Z-7.5000
G01 Z-8.0000
G01 Z-10.0000
G01 X295.8238
G00 Z5.0000
G00 X304.1762
G00 Z-7.5000
G01 Z-8.0000
G01 Z-10.0000
G01 X305.9317
G00 Z5.0000
G00 X319.5378 Y223.5938
G00 Z-7.5000
G01 Z-8.0000
G01 Z-10.0000
G01 X321.5202
G01 X322.4341 Y219.0938
G01 X324.4000
G00 Z5.0000
G00 Y196.5938
G00 Z-7.5000
G01 Z-8.0000
G01 Z-10.0000
G01 X322.4341
G01 X319.5378 Y192.0938
G01 X321.5202
G00 Z5.0000
G00 X305.9317 Y183.0938
G00 Z-7.5000
G01 Z-8.0000
G01 Z-10.0000
G01 X304.1762
G00 Z5.0000
G00 X295.8238
G00 Z-7.5000
G01 Z-8.0000
G01 Z-10.0000
G01 X294.0683
G00 Z5.0000
G00 X280.4622 Y192.0938
G00 Z-7.5000
G01 Z-8.0000
G01 Z-10.0000
G01 X278.4798
G01 X275.6000 Y196.5938
G01 X275.0000 Y196.6428
G01 Y222.2776
G01 X300.0000 Y236.7113
G01 X325.0000 Y222.2776
G01 Y193.4101
G01 X300.0000 Y178.9763
G01 X275.0000 Y193.4101
G01 Y196.6428
G01 X275.6000 Y196.5938
G01 X277.5659
G01 X278.1735 Y196.7246
G03 X322.0112 Y218.6044 I21.8299 J11.1181
G03 X278.1735 Y196.7246 I-22.0101 J-10.7572
G01 X277.5659 Y196.5938
G01 Z-11.5000
G01 X275.6000
G01 X278.4798 Y192.0938
G01 X280.4622
G00 Z5.0000
G00 X294.0683 Y183.0938
G00 Z-9.5000
G01 Z-10.0000
G01 Z-11.5000
G01 X295.8238
G00 Z5.0000
G00 X304.1762
G00 Z-9.5000
G01 Z-10.0000
G01 Z-11.5000
G01 X305.9317
G00 Z5.0000
G00 X319.5378 Y192.0938
G00 Z-9.5000
G01 Z-10.0000
G01 Z-11.5000
G01 X321.5202
G01 X322.4341 Y196.5938
G01 X324.4000
G00 Z5.0000
G00 Y219.0938
G00 Z-9.5000
G01 Z-10.0000
G01 Z-11.5000
G01 X322.4341
G01 X319.5378 Y223.5938
G01 X321.5202
G00 Z5.0000
G00 X305.9317 Y232.5938
G00 Z-9.5000
G01 Z-10.0000
G01 Z-11.5000
G01 X304.1762
G00 Z5.0000
G00 X295.8238
G00 Z-9.5000
G01 Z-10.0000
G01 Z-11.5000
G01 X294.0683
G00 Z5.0000
G00 X280.4622 Y223.5938
G00 Z-9.5000
G01 Z-10.0000
G01 Z-11.5000
G01 X278.4798
G01 X275.6000 Y219.0938
G01 X275.0000 Y219.0448
G01 Y222.2776
G01 X300.0000 Y236.7113
G01 X325.0000 Y222.2776
G01 Y193.4101
G01 X300.0000 Y178.9763
G01 X275.0000 Y193.4101
G01 Y219.0448
G01 X275.6000 Y219.0938
G01 X277.5659
G01 X278.1735 Y218.9631
G03 X321.5477 Y196.1828 I21.8276 J-11.1227
G03 X278.1735 Y218.9631 I-21.5443 J11.6621
G01 X277.5659 Y219.0938
G00 Z5.0000


(No. 14: Hole 8)
G00 X308.4798 Y171.6338 Z5.0000
G00 Z0.5000
G01 Z0.0000 F1500
G01 Z-2.0000
G01 X310.4622
G01 X305.6000 Y167.1338
G01 X307.5659
G00 Z5.0000
G00 X324.0683 Y180.6338
G00 Z0.5000
G01 Z0.0000
G01 Z-2.0000
G01 X325.8238
G00 Z5.0000
G00 X334.1762
G00 Z0.5000
G01 Z0.0000
G01 Z-2.0000
G01 X335.9317
G00 Z5.0000
G00 X349.5378 Y171.6338
G00 Z0.5000
G01 Z0.0000
G01 Z-2.0000
G01 X351.5202
G01 X352.4341 Y167.1338
G01 X354.4000
G00 Z5.0000
G00 Y144.6338
G00 Z0.5000
G01 Z0.0000
G01 Z-2.0000
G01 X352.4341
G01 X349.5378 Y140.1338
G01 X351.5202
G00 Z5.0000
G00 X335.9317 Y131.1338
G00 Z0.5000
G01 Z0.0000
G01 Z-2.0000
G01 X334.1762
G00 Z5.0000
G00 X325.8238
G00 Z0.5000
G01 Z0.0000
G01 Z-2.0000
G01 X324.0683
G00 Z5.0000
G00 X310.4622 Y140.1338
G00 Z0.5000
G01 Z0.0000
G01 Z-2.0000
G01 X308.4798
G01 X305.6000 Y144.6338
G01 X305.0000 Y144.6828
G01 Y170.3176
G01 X330.0000 Y184.7513
G01 X355.0000 Y170.3176
G01 Y141.4501
G01 X330.0000 Y127.0163
G01 X305.0000 Y141.4501
G01 Y144.6828
G01 X305.6000 Y144.6338
G01 X307.5659
G01 X308.1735 Y144.7646
G03 X352.0112 Y166.6444 I21.8299 J11.1181
G03 X308.1735 Y144.7646 I-22.0101 J-10.7572
G01 X307.5659 Y144.6338
G01 Z-4.0000
G01 X305.6000
G01 X308.4798 Y140.1338
G01 X310.4622
G00 Z5.0000
G00 X324.0683 Y131.1338
G00 Z-1.5000
G01 Z-2.0000
G01 Z-4.0000
G01 X325.8238
G00 Z5.0000
G00 X334.1762
G00 Z-1.5000
G01 Z-2.0000
G01 Z-4.0000
G01 X335.9317
G00 Z5.0000
G00 X349.5378 Y140.1338
G00 Z-1.5000
G01 Z-2.0000
G01 Z-4.0000
G01 X351.5202
G01 X352.4341 Y144.6338
G01 X354.4000
G00 Z5.0000
G00 Y167.1338
G00 Z-1.5000
G01 Z-2.0000
G01 Z-4.0000
G01 X352.4341
G01 X349.5378 Y171.6338
G01 X351.5202
G00 Z5.0000
G00 X335.9317 Y180.6338
G00 Z-1.5000
G01 Z-2.0000
G01 Z-4.0000
G01 X334.1762
G00 Z5.0000
G00 X325.8238
G00 Z-1.5000
G01 Z-2.0000
G01 Z-4.0000
G01 X324.0683
G00 Z5.0000
G00 X310.4622 Y171.6338
G00 Z-1.5000
G01 Z-2.0000
G01 Z-4.0000
G01 X308.4798
G01 X305.6000 Y167.1338
G01 X305.0000 Y167.0848
G01 Y170.3176
G01 X330.0000 Y184.7513
G01 X355.0000 Y170.3176
G01 Y141.4501
G01 X330.0000 Y127.0163
G01 X305.0000 Y141.4501
G01 Y167.0848
G01 X305.6000 Y167.1338
G01 X307.5659
G01 X308.1735 Y167.0031
G03 X351.5477 Y144.2228 I21.8276 J-11.1227
G03 X308.1735 Y167.0031 I-21.5443 J11.6621
G01 X307.5659 Y167.1338
G01 Z-6.0000
G01 X305.6000
G01 X308.4798 Y171.6338
G01 X310.4622
G00 Z5.0000
G00 X324.0683 Y180.6338
G00 Z-3.5000
G01 Z-4.0000
G01 Z-6.0000
G01 X325.8238
G00 Z5.0000
G00 X334.1762
G00 Z-3.5000
G01 Z-4.0000
G01 Z-6.0000
G01 X335.9317
G00 Z5.0000
G00 X349.5378 Y171.6338
G00 Z-3.5000
G01 Z-4.0000
G01 Z-6.0000
G01 X351.5202
G01 X352.4341 Y167.1338
G01 X354.4000
G00 Z5.0000
G00 Y144.6338
G00 Z-3.5000
G01 Z-4.0000
G01 Z-6.0000
G01 X352.4341
G01 X349.5378 Y140.1338
G01 X351.5202
G00 Z5.0000
G00 X335.9317 Y131.1338
G00 Z-3.5000
G01 Z-4.0000
G01 Z-6.0000
G01 X334.1762
G00 Z5.0000
G00 X325.8238
G00 Z-3.5000
G01 Z-4.0000
G01 Z-6.0000
G01 X324.0683
G00 Z5.0000
G00 X310.4622 Y140.1338
G00 Z-3.5000
G01 Z-4.0000
G01 Z-6.0000
G01 X308.4798
G01 X305.6000 Y144.6338
G01 X305.0000 Y144.6828
G01 Y170.3176
G01 X330.0000 Y184.7513
G01 X355.0000 Y170.3176
G01 Y141.4501
G01 X330.0000 Y127.0163
G01 X305.0000 Y141.4501
G01 Y144.6828
G01 X305.6000 Y144.6338
G01 X307.5659
G01 X308.1735 Y144.7646
G03 X352.0112 Y166.6444 I21.8299 J11.1181
G03 X308.1735 Y144.7646 I-22.0101 J-10.7572
G01 X307.5659 Y144.6338
G01 Z-8.0000
G01 X305.6000
G01 X308.4798 Y140.1338
G01 X310.4622
G00 Z5.0000
G00 X324.0683 Y131.1338
G00 Z-5.5000
G01 Z-6.0000
G01 Z-8.0000
G01 X325.8238
G00 Z5.0000
G00 X334.1762
G00 Z-5.5000
G01 Z-6.0000
G01 Z-8.0000
G01 X335.9317
G00 Z5.0000
G00 X349.5378 Y140.1338
G00 Z-5.5000
G01 Z-6.0000
G01 Z-8.0000
G01 X351.5202
G01 X352.4341 Y144.6338
G01 X354.4000
G00 Z5.0000
G00 Y167.1338
G00 Z-5.5000
G01 Z-6.0000
G01 Z-8.0000
G01 X352.4341
G01 X349.5378 Y171.6338
G01 X351.5202
G00 Z5.0000
G00 X335.9317 Y180.6338
G00 Z-5.5000
G01 Z-6.0000
G01 Z-8.0000
G01 X334.1762
G00 Z5.0000
G00 X325.8238
G00 Z-5.5000
G01 Z-6.0000
G01 Z-8.0000
G01 X324.0683
G00 Z5.0000
G00 X310.4622 Y171.6338
G00 Z-5.5000
G01 Z-6.0000
G01 Z-8.0000
G01 X308.4798
G01 X305.6000 Y167.1338
G01 X305.0000 Y167.0848
G01 Y170.3176
G01 X330.0000 Y184.7513
G01 X355.0000 Y170.3176
G01 Y141.4501
G01 X330.0000 Y127.0163
G01 X305.0000 Y141.4501
G01 Y167.0848
G01 X305.6000 Y167.1338
G01 X307.5659
G01 X308.1735 Y167.0031
G03 X351.5477 Y144.2228 I21.8276 J-11.1227
G03 X308.1735 Y167.0031 I-21.5443 J11.6621
G01 X307.5659 Y167.1338
G01 Z-10.0000
G01 X305.6000
G01 X308.4798 Y171.6338
G01 X310.4622
G00 Z5.0000
G00 X324.0683 Y180.6338
G00 Z-7.5000
G01 Z-8.0000
G01 Z-10.0000
G01 X325.8238
G00 Z5.0000
G00 X334.1762
G00 Z-7.5000
G01 Z-8.0000
G01 Z-10.0000
G01 X335.9317
G00 Z5.0000
G00 X349.5378 Y171.6338
G00 Z-7.5000
G01 Z-8.0000
G01 Z-10.0000
G01 X351.5202
G01 X352.4341 Y167.1338
G01 X354.4000
G00 Z5.0000
G00 Y144.6338
G00 Z-7.5000
G01 Z-8.0000
G01 Z-10.0000
G01 X352.4341
G01 X349.5378 Y140.1338
G01 X351.5202
G00 Z5.0000
G00 X335.9317 Y131.1338
G00 Z-7.5000
G01 Z-8.0000
G01 Z-10.0000
G01 X334.1762
G00 Z5.0000
G00 X325.8238
G00 Z-7.5000
G01 Z-8.0000
G01 Z-10.0000
G01 X324.0683
G00 Z5.0000
G00 X310.4622 Y140.1338
G00 Z-7.5000
G01 Z-8.0000
G01 Z-10.0000
G01 X308.4798
G01 X305.6000 Y144.6338
G01 X305.0000 Y144.6828
G01 Y170.3176
G01 X330.0000 Y184.7513
G01 X355.0000 Y170.3176
G01 Y141.4501
G01 X330.0000 Y127.0163
G01 X305.0000 Y141.4501
G01 Y144.6828
G01 X305.6000 Y144.6338
G01 X307.5659
G01 X308.1735 Y144.7646
G03 X352.0112 Y166.6444 I21.8299 J11.1181
G03 X308.1735 Y144.7646 I-22.0101 J-10.7572
G01 X307.5659 Y144.6338
G01 Z-11.5000
G01 X305.6000
G01 X308.4798 Y140.1338
G01 X310.4622
G00 Z5.0000
G00 X324.0683 Y131.1338
G00 Z-9.5000
G01 Z-10.0000
G01 Z-11.5000
G01 X325.8238
G00 Z5.0000
G00 X334.1762
G00 Z-9.5000
G01 Z-10.0000
G01 Z-11.5000
G01 X335.9317
G00 Z5.0000
G00 X349.5378 Y140.1338
G00 Z-9.5000
G01 Z-10.0000
G01 Z-11.5000
G01 X351.5202
G01 X352.4341 Y144.6338
G01 X354.4000
G00 Z5.0000
G00 Y167.1338
G00 Z-9.5000
G01 Z-10.0000
G01 Z-11.5000
G01 X352.4341
G01 X349.5378 Y171.6338
G01 X351.5202
G00 Z5.0000
G00 X335.9317 Y180.6338
G00 Z-9.5000
G01 Z-10.0000
G01 Z-11.5000
G01 X334.1762
G00 Z5.0000
G00 X325.8238
G00 Z-9.5000
G01 Z-10.0000
G01 Z-11.5000
G01 X324.0683
G00 Z5.0000
G00 X310.4622 Y171.6338
G00 Z-9.5000
G01 Z-10.0000
G01 Z-11.5000
G01 X308.4798
G01 X305.6000 Y167.1338
G01 X305.0000 Y167.0848
G01 Y170.3176
G01 X330.0000 Y184.7513
G01 X355.0000 Y170.3176
G01 Y141.4501
G01 X330.0000 Y127.0163
G01 X305.0000 Y141.4501
G01 Y167.0848
G01 X305.6000 Y167.1338
G01 X307.5659
G01 X308.1735 Y167.0031
G03 X351.5477 Y144.2228 I21.8276 J-11.1227
G03 X308.1735 Y167.0031 I-21.5443 J11.6621
G01 X307.5659 Y167.1338
G00 Z5.0000


(No. 15: Hole 3)
G00 X305.9317 Y128.6738 Z5.0000
G00 Z0.5000
G01 Z0.0000 F1500
G01 Z-2.0000
G01 X304.1762
G00 Z5.0000
G00 X295.8238
G00 Z0.5000
G01 Z0.0000
G01 Z-2.0000
G01 X294.0683
G00 Z5.0000
G00 X280.4622 Y119.6738
G00 Z0.5000
G01 Z0.0000
G01 Z-2.0000
G01 X278.4798
G01 X275.6000 Y115.1738
G01 X277.5659
G00 Z5.0000
G00 Y92.6738
G00 Z0.5000
G01 Z0.0000
G01 Z-2.0000
G01 X275.6000
G01 X278.4798 Y88.1738
G01 X280.4622
G00 Z5.0000
G00 X294.0683 Y79.1738
G00 Z0.5000
G01 Z0.0000
G01 Z-2.0000
G01 X295.8238
G00 Z5.0000
G00 X304.1762
G00 Z0.5000
G01 Z0.0000
G01 Z-2.0000
G01 X305.9317
G00 Z5.0000
G00 X319.5378 Y88.1738
G00 Z0.5000
G01 Z0.0000
G01 Z-2.0000
G01 X321.5202
G01 X322.4341 Y92.6738
G01 X324.4000
G00 Z5.0000
G00 Y115.1738
G00 Z0.5000
G01 Z0.0000
G01 Z-2.0000
G01 X322.4341
G01 X319.5378 Y119.6738
G01 X319.0387 Y119.3366
G03 X280.6656 Y88.8752 I-19.0424 J-15.4124
G03 X319.0387 Y119.3366 I19.3341 J15.0449
G01 X319.5378 Y119.6738
G01 X321.5202
G01 X321.7842 Y120.2142
G01 X325.0000 Y118.3576
G01 Y89.4901
G01 X300.0000 Y75.0563
G01 X275.0000 Y89.4901
G01 Y118.3576
G01 X300.0000 Y132.7913
G01 X321.7842 Y120.2142
G01 X321.5202 Y119.6738
G01 Z-4.0000
G01 X319.5378
G01 X322.4341 Y115.1738
G01 X324.4000
G00 Z5.0000
G00 Y92.6738
G00 Z-1.5000
G01 Z-2.0000
G01 Z-4.0000
G01 X322.4341
G01 X319.5378 Y88.1738
G01 X321.5202
G00 Z5.0000
G00 X305.9317 Y79.1738
G00 Z-1.5000
G01 Z-2.0000
G01 Z-4.0000
G01 X304.1762
G00 Z5.0000
G00 X295.8238
G00 Z-1.5000
G01 Z-2.0000
G01 Z-4.0000
G01 X294.0683
G00 Z5.0000
G00 X280.4622 Y88.1738
G00 Z-1.5000
G01 Z-2.0000
G01 Z-4.0000
G01 X278.4798
G01 X275.6000 Y92.6738
G01 X277.5659
G00 Z5.0000
G00 Y115.1738
G00 Z-1.5000
G01 Z-2.0000
G01 Z-4.0000
G01 X275.6000
G01 X278.4798 Y119.6738
G01 X280.4622
G00 Z5.0000
G00 X294.0683 Y128.6738
G00 Z-1.5000
G01 Z-2.0000
G01 Z-4.0000
G01 X295.8238
G00 Z5.0000
G00 X304.1762
G00 Z-1.5000
G01 Z-2.0000
G01 Z-4.0000
G01 X304.3745 Y128.0260
G03 X294.9721 Y79.9446 I-4.3773 J-24.1040
G03 X304.3745 Y128.0260 I5.0298 J23.9764
G01 X304.1762 Y128.6738
G01 X305.9317
G01 X306.2462 Y129.1851
G01 X325.0000 Y118.3576
G01 Y89.4901
G01 X300.0000 Y75.0563
G01 X275.0000 Y89.4901
G01 Y118.3576
G01 X300.0000 Y132.7913
G01 X306.2462 Y129.1851
G01 X305.9317 Y128.6738
G01 Z-6.0000
G01 X304.1762
G00 Z5.0000
G00 X295.8238
G00 Z-3.5000
G01 Z-4.0000
G01 Z-6.0000
G01 X294.0683
G00 Z5.0000
G00 X280.4622 Y119.6738
G00 Z-3.5000
G01 Z-4.0000
G01 Z-6.0000
G01 X278.4798
G01 X275.6000 Y115.1738
G01 X277.5659
G00 Z5.0000
G00 Y92.6738
G00 Z-3.5000
G01 Z-4.0000
G01 Z-6.0000
G01 X275.6000
G01 X278.4798 Y88.1738
G01 X280.4622
G00 Z5.0000
G00 X294.0683 Y79.1738
G00 Z-3.5000
G01 Z-4.0000
G01 Z-6.0000
G01 X295.8238
G00 Z5.0000
G00 X304.1762
G00 Z-3.5000
G01 Z-4.0000
G01 Z-6.0000
G01 X305.9317
G00 Z5.0000
G00 X319.5378 Y88.1738
G00 Z-3.5000
G01 Z-4.0000
G01 Z-6.0000
G01 X321.5202
G01 X322.4341 Y92.6738
G01 X324.4000
G00 Z5.0000
G00 Y115.1738
G00 Z-3.5000
G01 Z-4.0000
G01 Z-6.0000
G01 X322.4341
G01 X319.5378 Y119.6738
G01 X319.0387 Y119.3366
G03 X280.6656 Y88.8752 I-19.0424 J-15.4124
G03 X319.0387 Y119.3366 I19.3341 J15.0449
G01 X319.5378 Y119.6738
G01 X321.5202
G01 X321.7842 Y120.2142
G01 X325.0000 Y118.3576
G01 Y89.4901
G01 X300.0000 Y75.0563
G01 X275.0000 Y89.4901
G01 Y118.3576
G01 X300.0000 Y132.7913
G01 X321.7842 Y120.2142
G01 X321.5202 Y119.6738
G01 Z-8.0000
G01 X319.5378
G01 X322.4341 Y115.1738
G01 X324.4000
G00 Z5.0000
G00 Y92.6738
G00 Z-5.5000
G01 Z-6.0000
G01 Z-8.0000
G01 X322.4341
G01 X319.5378 Y88.1738
G01 X321.5202
G00 Z5.0000
G00 X305.9317 Y79.1738
G00 Z-5.5000
G01 Z-6.0000
G01 Z-8.0000
G01 X304.1762
G00 Z5.0000
G00 X295.8238
G00 Z-5.5000
G01 Z-6.0000
G01 Z-8.0000
G01 X294.0683
G00 Z5.0000
G00 X280.4622 Y88.1738
G00 Z-5.5000
G01 Z-6.0000
G01 Z-8.0000
G01 X278.4798
G01 X275.6000 Y92.6738
G01 X277.5659
G00 Z5.0000
G00 Y115.1738
G00 Z-5.5000
G01 Z-6.0000
G01 Z-8.0000
G01 X275.6000
G01 X278.4798 Y119.6738
G01 X280.4622
G00 Z5.0000
G00 X294.0683 Y128.6738
G00 Z-5.5000
G01 Z-6.0000
G01 Z-8.0000
G01 X295.8238
G00 Z5.0000
G00 X304.1762
G00 Z-5.5000
G01 Z-6.0000
G01 Z-8.0000
G01 X304.3745 Y128.0260
G03 X294.9721 Y79.9446 I-4.3773 J-24.1040
G03 X304.3745 Y128.0260 I5.0298 J23.9764
G01 X304.1762 Y128.6738
G01 X305.9317
G01 X306.2462 Y129.1851
G01 X325.0000 Y118.3576
G01 Y89.4901
G01 X300.0000 Y75.0563
G01 X275.0000 Y89.4901
G01 Y118.3576
G01 X300.0000 Y132.7913
G01 X306.2462 Y129.1851
G01 X305.9317 Y128.6738
G01 Z-10.0000
G01 X304.1762
G00 Z5.0000
G00 X295.8238
G00 Z-7.5000
G01 Z-8.0000
G01 Z-10.0000
G01 X294.0683
G00 Z5.0000
G00 X280.4622 Y119.6738
G00 Z-7.5000
G01 Z-8.0000
G01 Z-10.0000
G01 X278.4798
G01 X275.6000 Y115.1738
G01 X277.5659
G00 Z5.0000
G00 Y92.6738
G00 Z-7.5000
G01 Z-8.0000
G01 Z-10.0000
G01 X275.6000
G01 X278.4798 Y88.1738
G01 X280.4622
G00 Z5.0000
G00 X294.0683 Y79.1738
G00 Z-7.5000
G01 Z-8.0000
G01 Z-10.0000
G01 X295.8238
G00 Z5.0000
G00 X304.1762
G00 Z-7.5000
G01 Z-8.0000
G01 Z-10.0000
G01 X305.9317
G00 Z5.0000
G00 X319.5378 Y88.1738
G00 Z-7.5000
G01 Z-8.0000
G01 Z-10.0000
G01 X321.5202
G01 X322.4341 Y92.6738
G01 X324.4000
G00 Z5.0000
G00 Y115.1738
G00 Z-7.5000
G01 Z-8.0000
G01 Z-10.0000
G01 X322.4341
G01 X319.5378 Y119.6738
G01 X319.0387 Y119.3366
G03 X280.6656 Y88.8752 I-19.0424 J-15.4124
G03 X319.0387 Y119.3366 I19.3341 J15.0449
G01 X319.5378 Y119.6738
G01 X321.5202
G01 X321.7842 Y120.2142
G01 X325.0000 Y118.3576
G01 Y89.4901
G01 X300.0000 Y75.0563
G01 X275.0000 Y89.4901
G01 Y118.3576
G01 X300.0000 Y132.7913
G01 X321.7842 Y120.2142
G01 X321.5202 Y119.6738
G01 Z-11.5000
G01 X319.5378
G01 X322.4341 Y115.1738
G01 X324.4000
G00 Z5.0000
G00 Y92.6738
G00 Z-9.5000
G01 Z-10.0000
G01 Z-11.5000
G01 X322.4341
G01 X319.5378 Y88.1738
G01 X321.5202
G00 Z5.0000
G00 X305.9317 Y79.1738
G00 Z-9.5000
G01 Z-10.0000
G01 Z-11.5000
G01 X304.1762
G00 Z5.0000
G00 X295.8238
G00 Z-9.5000
G01 Z-10.0000
G01 Z-11.5000
G01 X294.0683
G00 Z5.0000
G00 X280.4622 Y88.1738
G00 Z-9.5000
G01 Z-10.0000
G01 Z-11.5000
G01 X278.4798
G01 X275.6000 Y92.6738
G01 X277.5659
G00 Z5.0000
G00 Y115.1738
G00 Z-9.5000
G01 Z-10.0000
G01 Z-11.5000
G01 X275.6000
G01 X278.4798 Y119.6738
G01 X280.4622
G00 Z5.0000
G00 X294.0683 Y128.6738
G00 Z-9.5000
G01 Z-10.0000
G01 Z-11.5000
G01 X295.8238
G00 Z5.0000
G00 X304.1762
G00 Z-9.5000
G01 Z-10.0000
G01 Z-11.5000
G01 X304.3745 Y128.0260
G03 X294.9721 Y79.9446 I-4.3773 J-24.1040
G03 X304.3745 Y128.0260 I5.0298 J23.9764
G01 X304.1762 Y128.6738
G01 X305.9317
G01 X306.2462 Y129.1851
G01 X325.0000 Y118.3576
G01 Y89.4901
G01 X300.0000 Y75.0563
G01 X275.0000 Y89.4901
G01 Y118.3576
G01 X300.0000 Y132.7913
G01 X306.2462 Y129.1851
G01 X305.9317 Y128.6738
G00 Z5.0000


(No. 16: Hole 9)
G00 X291.5202 Y140.1338 Z5.0000
G00 Z0.5000
G01 Z0.0000 F1500
G01 Z-2.0000
G01 X289.5378
G01 X292.4341 Y144.6338
G01 X294.4000
G00 Z5.0000
G00 Y167.1338
G00 Z0.5000
G01 Z0.0000
G01 Z-2.0000
G01 X292.4341
G01 X289.5378 Y171.6338
G01 X291.5202
G00 Z5.0000
G00 X275.9317 Y180.6338
G00 Z0.5000
G01 Z0.0000
G01 Z-2.0000
G01 X274.1762
G00 Z5.0000
G00 X265.8238
G00 Z0.5000
G01 Z0.0000
G01 Z-2.0000
G01 X264.0683
G00 Z5.0000
G00 X250.4622 Y171.6338
G00 Z0.5000
G01 Z0.0000
G01 Z-2.0000
G01 X248.4798
G01 X245.6000 Y167.1338
G01 X247.5659
G00 Z5.0000
G00 Y144.6338
G00 Z0.5000
G01 Z0.0000
G01 Z-2.0000
G01 X245.6000
G01 X248.4798 Y140.1338
G01 X250.4622
G00 Z5.0000
G00 X264.0683 Y131.1338
G00 Z0.5000
