(Project hexa2)
(Created by Estlcam version 11 build 11,244)
(Machining time about 00:00:15 hours)

(Required tools:)
(End mill 3mm)

G90
M03 S24000
G00 Z5.0000


(No. 1: Hole 1)
G00 X142.8793 Y49.6114
G00 Z0.5000
G01 Z0.0000 F600 S24000
G01 Z-1.0000
G02 X155.9833 Y56.4825 I7.1198 J2.3528 F1200
G01 Y47.4451
G02 X142.8793 Y49.6114 I-5.9842 J4.5177
G01 Z-2.0000 F600
G02 X155.9833 Y56.4825 I7.1198 J2.3528 F1200
G01 Y47.4451
G02 X142.8793 Y49.6114 I-5.9842 J4.5177
G01 Z-3.0000 F600
G02 X155.9833 Y56.4825 I7.1198 J2.3528 F1200
G01 Y47.4451
G02 X142.8793 Y49.6114 I-5.9842 J4.5177
G00 Z5.0000
G00 X0.0000 Y0.0000

M05
M30
